; HEADER_BLOCK_START
; generated by OrcaSlicer 2.1.0 on 2025-01-16 at 12:19:27
; total layer number: 50
; filament_density: 1.27
; filament_diameter: 1.75
; max_z_height: 10.00
; HEADER_BLOCK_END

; THUMBNAIL_BLOCK_START

;
; THUMBNAIL_BLOCK_END

; THUMBNAIL_BLOCK_START

;
; THUMBNAIL_BLOCK_END

; external perimeters extrusion width = 0.42mm
; perimeters extrusion width = 0.45mm
; infill extrusion width = 0.45mm
; solid infill extrusion width = 0.42mm
; top infill extrusion width = 0.42mm
; support material extrusion width = 0.42mm
; first layer extrusion width = 0.50mm

; EXECUTABLE_BLOCK_START
EXCLUDE_OBJECT_DEFINE NAME=8_австас.stp_id_0_copy_0 CENTER=110,110 POLYGON=[[87.0138,103.29],[87.0186,102.97],[87.0332,102.652],[87.0572,102.341],[87.0907,102.034],[87.1334,101.732],[87.1854,101.433],[87.2465,101.138],[87.3169,100.847],[87.3963,100.559],[87.485,100.275],[87.5942,99.9629],[87.7023,99.6852],[87.816,99.4197],[87.9374,99.1611],[88.0664,98.909],[88.203,98.6634],[88.3472,98.4239],[88.4992,98.1905],[88.659,97.9629],[88.8457,97.7168],[89.0422,97.4776],[89.2488,97.2451],[89.4168,97.0686],[89.5908,96.8963],[89.8194,96.6846],[90.0563,96.4817],[90.3018,96.2871],[90.5561,96.1009],[90.8195,95.923],[91.0921,95.7533],[91.3743,95.5918],[91.6664,95.4386],[91.9686,95.2935],[92.2814,95.1568],[92.605,95.0285],[92.9056,94.9205],[93.2382,94.8133],[93.5784,94.7162],[93.9265,94.6294],[94.2829,94.5529],[94.6478,94.4869],[95.0216,94.4315],[95.4045,94.3869],[95.797,94.3534],[96.1992,94.3311],[96.4913,94.3222],[96.7869,94.3193],[97.1458,94.3241],[132.986,95],[124.385,120.514],[121.593,125],[97.2344,125.674],[97.0119,125.679],[96.7869,125.681],[96.4247,125.676],[96.0684,125.661],[95.7236,125.637],[95.387,125.604],[95.0583,125.563],[94.7375,125.512],[94.424,125.452],[94.1179,125.385],[93.8187,125.308],[93.5263,125.224],[93.2404,125.131],[92.9609,125.03],[92.6875,124.921],[92.42,124.804],[92.1583,124.679],[91.9021,124.546],[91.6513,124.405],[91.4057,124.255],[91.1389,124.079],[90.8781,123.893],[90.6233,123.696],[90.3743,123.488],[90.1322,123.271],[89.9218,123.069],[89.7223,122.864],[89.5337,122.656],[89.3555,122.445],[89.1875,122.231],[89.0295,122.014],[88.8812,121.794],[88.7424,121.57],[88.613,121.344],[88.4927,121.114],[88.3816,120.88],[88.2794,120.642],[88.1763,120.374],[88.0841,120.1],[88.0028,119.822],[87.9324,119.537],[87.8729,119.247],[87.8244,118.95],[87.787,118.647],[87.761,118.337],[87.0217,103.668],[87.0158,103.48],[87.0138,103.29]]
M73 P0 R12
M106 S0
M106 P2 S0
;TYPE:Custom
M140 S0
M104 S0 
START_PRINT EXTRUDER_TEMP=250 BED_TEMP=80
G90
G21
M83 ; use relative distances for extrusion
; filament start gcode
M106 S0
M106 P2 S0
;LAYER_CHANGE
;Z:0.2
;HEIGHT:0.2
;BEFORE_LAYER_CHANGE
;0.2
G92 E0

G1 E-.6 F2400
;_SET_FAN_SPEED_CHANGING_LAYER
SET_VELOCITY_LIMIT ACCEL=500 ACCEL_TO_DECEL=250
SET_VELOCITY_LIMIT SQUARE_CORNER_VELOCITY=9
EXCLUDE_OBJECT_START NAME=8_австас.stp_id_0_copy_0
G1 Z.2 F42000
G1 X125.484 Y105.159
G1 Z.2
G1 E.6 F2400
;TYPE:Inner wall
;WIDTH:0.407393
G1 F3600
G1 X125.2 Y105.089 E.00851
G1 X125.528 Y105.112 E.00954
;WIDTH:0.453696
G1 X125.855 Y105.135 E.01076
;WIDTH:0.499999
G1 X126.182 Y105.159 E.01197
G1 X126.539 Y105.118 E.01312
G1 X126.81 Y105.03 E.01039
G1 X127.341 Y104.661 E.02359
G1 X127.509 Y104.353 E.01282
;WIDTH:0.471382
G1 X127.677 Y104.044 E.01201
;WIDTH:0.484915
G1 X130.063 Y96.764 E.27031
G1 X130.53 Y96.764 E.01651
G1 X128.05 Y104.188 E.27619
;WIDTH:0.471354
G1 X127.911 Y104.555 E.0134
;WIDTH:0.499999
G1 X127.258 Y106.447 E.07305
G1 X127.148 Y106.836 E.01474
;WIDTH:0.459519
G1 X127.039 Y107.225 E.01344
;WIDTH:0.419038
G1 X124.62 Y114.446 E.22863
;WIDTH:0.390371
G1 X124.448 Y114.954 E.01487
G1 X124.289 Y114.442 E.01487
G1 X124.29 Y114.336 E.00294
;WIDTH:0.419038
G1 X126.682 Y107.106 E.22863
;WIDTH:0.459519
G1 X126.734 Y106.755 E.01183
;WIDTH:0.499999
G1 X126.785 Y106.403 E.01298
G1 X126.567 Y105.788 E.0238
G1 X126.398 Y105.559 E.01039
G1 X126.131 Y105.318 E.01312
G1 X125.821 Y105.242 E.01166
;WIDTH:0.453696
G1 X125.523 Y105.169 E.01005
G1 X125.426 Y105.549 F42000
;WIDTH:0.499999
G1 F3600
G1 X125.2 Y105.477 E.00864
G1 X120.9 Y105.477 E.1569
G1 X120.651 Y104.702 E.02971
G1 X126.182 Y104.702 E.20182
G1 X126.631 Y104.61 E.01671
G1 X127.01 Y104.346 E.01685
G1 X127.269 Y103.912 E.01846
G1 X129.735 Y96.314 E.29144
G1 X131.156 Y96.314 E.05184
G1 X124.433 Y116.259 E.76795
G1 X123.85 Y114.385 E.07159
G1 X126.286 Y106.976 E.28456
G1 X126.333 Y106.465 E.01875
G1 X126.177 Y106.026 E.017
G1 X125.865 Y105.69 E.01671
G1 X125.464 Y105.561 E.01537
G1 X125.313 Y105.97 F42000
G1 F3600
G1 X125.2 Y105.934 E.00432
G1 X120.567 Y105.934 E.16906
G1 X120.024 Y104.244 E.06475
G1 X125.2 Y104.244 E.18887
G1 X126.335 Y104.227 E.04141
G1 X126.679 Y104.031 E.01443
G1 X126.834 Y103.771 E.01108
G1 X129.403 Y95.857 E.30356
G1 X131.793 Y95.857 E.08719
G1 X124.675 Y116.973 E.81303
G1 X124.411 Y117.809 E.03199
G1 X124.317 Y117.427 E.01434
G1 X123.37 Y114.382 E.11637
G1 X125.852 Y106.834 E.2899
G1 X125.88 Y106.527 E.01125
G1 X125.786 Y106.263 E.0102
G1 X125.599 Y106.062 E.01002
G1 X125.351 Y105.982 E.0095
G1 X125.2 Y106.391 F42000
;TYPE:Outer wall
G1 F3600
G1 X120.234 Y106.391 E.18122
G1 X119.397 Y103.787 E.09978
G1 X125.2 Y103.787 E.21175
G1 X126.272 Y103.769 E.0391
G1 X126.399 Y103.632 E.00682
G1 X129.071 Y95.4 E.31578
G1 X132.429 Y95.4 E.12253
G1 X125.091 Y117.169 E.83817
G1 X124.804 Y118.084 E.035
G1 X124.616 Y119.047 E.0358
G1 X124.394 Y119.704 E.0253
G1 X124.185 Y119.021 E.02607
G1 X124.011 Y118.101 E.03416
G1 X123.881 Y117.563 E.0202
G1 X122.89 Y114.378 E.1217
G1 X125.441 Y106.619 E.29797
G1 X125.371 Y106.468 E.00608
G1 X125.237 Y106.407 E.00539
;WIPE_START
G1 X123.237 Y106.401 E-.6
;WIPE_END
G1 Z.4 F42000
G1 X121.183 Y105.089 Z.4
G1 Z.2
G1 E.6 F2400
;TYPE:Inner wall
;WIDTH:0.36109
G1 F3600
G1 X125.2 Y105.089 E.10204
M73 P1 R12
G1 X126.78 Y105.183 F42000
;TYPE:Bottom surface
;WIDTH:0.513664
G1 F6300
G1 X127.348 Y105.752 E.0302
G1 E-.29384 F2400
;WIPE_START
G1 F6300
G1 X126.78 Y105.183 E-.30616
;WIPE_END
G1 Z.4 F42000
G1 X113.384 Y105.104 Z.4
G1 Z.2
G1 E.6 F2400
;TYPE:Inner wall
;WIDTH:0.379792
G1 F3600
G1 X113.696 Y106.053 E.02687
;WIDTH:0.398398
G1 X113.693 Y106.114 E.00174
;WIDTH:0.44231
G1 X113.689 Y106.176 E.00195
;WIDTH:0.486222
G1 X113.686 Y106.237 E.00217
;WIDTH:0.530134
G1 X113.683 Y106.298 E.00238
;WIDTH:0.574046
G1 X113.68 Y106.359 E.0026
;WIDTH:0.617958
G1 X113.677 Y106.42 E.00281
;WIDTH:0.66187
G1 X113.674 Y106.481 E.00302
G1 X113.634 Y106.434 E.00302
;WIDTH:0.617958
G1 X113.595 Y106.387 E.00281
;WIDTH:0.574046
G1 X113.556 Y106.34 E.0026
;WIDTH:0.530134
G1 X113.517 Y106.293 E.00238
;WIDTH:0.486222
G1 X113.478 Y106.246 E.00217
;WIDTH:0.44231
G1 X113.439 Y106.198 E.00195
;WIDTH:0.398398
G1 X113.4 Y106.151 E.00174
;WIDTH:0.379792
G1 X111.825 Y101.438 E.13365
;WIDTH:0.405098
G1 X110.249 Y96.724 E.14369
G1 X110.632 Y96.724 E.01107
G1 X112.184 Y101.451 E.14385
;WIDTH:0.379792
G1 X113.372 Y105.066 E.10231
;WIPE_START
G1 X113.696 Y106.053 E-.31181
G1 X113.693 Y106.114 E-.01836
G1 X113.689 Y106.176 E-.01836
G1 X113.686 Y106.237 E-.01836
G1 X113.683 Y106.298 E-.01836
G1 X113.68 Y106.359 E-.01836
G1 X113.677 Y106.42 E-.01836
G1 X113.674 Y106.481 E-.01836
G1 X113.634 Y106.434 E-.01836
G1 X113.595 Y106.387 E-.01836
G1 X113.556 Y106.34 E-.01836
G1 X113.517 Y106.293 E-.01836
G1 X113.478 Y106.246 E-.01836
G1 X113.439 Y106.198 E-.01836
G1 X113.4 Y106.151 E-.01836
G1 X113.367 Y106.053 E-.03109
;WIPE_END
G1 Z.4 F42000
G1 X109.678 Y96.314 Z.4
G1 Z.2
G1 E.6 F2400
;WIDTH:0.499999
G1 F3600
G1 X110.93 Y96.314 E.04566
G1 X119.068 Y121.315 E.95929
G1 X119.807 Y123.686 E.09061
G1 X118.906 Y123.686 E.03289
G1 X109.691 Y96.352 E1.05245
G1 X109.042 Y95.857 F42000
G1 F3600
G1 X111.262 Y95.857 E.08099
G1 X119.504 Y121.176 E.9715
G1 X120.429 Y124.143 E.11339
G1 X118.577 Y124.143 E.06754
G1 X109.055 Y95.895 E1.08764
G1 X108.405 Y95.4 F42000
;TYPE:Outer wall
G1 F3600
G1 X111.594 Y95.4 E.11632
G1 X119.939 Y121.037 E.98372
G1 X121.05 Y124.6 E.13616
G1 X118.249 Y124.6 E.10218
G1 X108.418 Y95.438 E1.12284
;WIPE_START
G1 X110.418 Y95.414 E-.6
;WIPE_END
G1 Z.4 F42000
G1 X113.674 Y106.481 Z.4
G1 Z.2
G1 E.6 F2400
;TYPE:Inner wall
;WIDTH:0.66187
G1 F3600
G1 X114.914 Y110.224 E.19482
;WIDTH:0.620673
G1 X116.154 Y113.967 E.18185
;WIDTH:0.579476
G1 X117.394 Y117.71 E.16888
;WIDTH:0.538279
G1 X118.634 Y121.453 E.15592
;WIDTH:0.497082
G1 X119.217 Y123.252 E.06855
;WIPE_START
G1 X118.634 Y121.453 E-.56727
G1 X118.6 Y121.35 E-.03273
;WIPE_END
G1 Z.4 F42000
G1 X101.603 Y108.579 Z.4
G1 Z.2
G1 E.6 F2400
;WIDTH:0.63721
G1 F3600
G1 X101.652 Y108.512 E.00394
;WIDTH:0.591711
G1 X101.702 Y108.445 E.00364
;WIDTH:0.546211
G1 X101.751 Y108.379 E.00334
;WIDTH:0.500711
G1 X101.801 Y108.312 E.00304
;WIDTH:0.455212
G1 X101.851 Y108.245 E.00273
;WIDTH:0.409712
G1 X101.9 Y108.179 E.00243
;WIDTH:0.402077
G1 X102.301 Y107.831 E.01521
;WIDTH:0.436064
G1 X102.727 Y107.422 E.01854
;WIDTH:0.466941
G1 X102.997 Y107.08 E.01475
;WIDTH:0.497818
G1 X103.268 Y106.738 E.01583
;WIDTH:0.546442
G1 X103.598 Y106.172 E.02634
;WIDTH:0.573712
G1 X103.78 Y105.747 E.01959
;WIDTH:0.58199
G1 X103.951 Y105.256 E.02238
;WIDTH:0.586986
G1 X104.077 Y104.725 E.02369
G1 X104.169 Y104.085 E.02809
;WIDTH:0.58667
G1 X104.219 Y103.484 E.02618
;WIDTH:0.570612
G1 X104.212 Y102.871 E.02583
;WIDTH:0.56782
G1 X104.166 Y102.022 E.0356
;WIDTH:0.527655
G1 X104.061 Y101.399 E.02448
;WIDTH:0.500725
G1 X103.895 Y100.733 E.02505
;WIDTH:0.454579
G1 X103.731 Y100.284 E.01575
;WIDTH:0.410835
G1 X103.566 Y99.834 E.01407
;WIDTH:0.409198
G1 X103.554 Y99.757 E.00226
;WIDTH:0.451304
G1 X103.543 Y99.681 E.00252
;WIDTH:0.49341
G1 X103.531 Y99.604 E.00278
;WIDTH:0.535516
G1 X103.52 Y99.528 E.00304
;WIDTH:0.577622
G1 X103.508 Y99.452 E.0033
;WIDTH:0.619728
G1 X103.497 Y99.375 E.00356
G1 X103.558 Y99.424 E.00361
;WIDTH:0.572675
G1 X103.619 Y99.473 E.00332
;WIDTH:0.525621
M73 P2 R12
G1 X103.68 Y99.523 E.00302
;WIDTH:0.478568
G1 X103.741 Y99.572 E.00273
;WIDTH:0.431514
G1 X103.802 Y99.621 E.00243
;WIDTH:0.407368
G1 X104.024 Y100.003 E.01286
;WIDTH:0.457185
G1 X104.329 Y100.729 E.02604
;WIDTH:0.500725
G1 X104.51 Y101.311 E.02225
;WIDTH:0.534594
G1 X104.662 Y102.054 E.02978
;WIDTH:0.56782
G1 X104.737 Y102.859 E.03385
;WIDTH:0.578156
G1 X104.744 Y103.65 E.0338
;WIDTH:0.58667
G1 X104.709 Y104.15 E.02175
;WIDTH:0.586986
G1 X104.607 Y104.847 E.03062
G1 X104.458 Y105.441 E.0266
;WIDTH:0.582146
G1 X104.267 Y105.955 E.02357
;WIDTH:0.573712
G1 X104.027 Y106.434 E.02268
;WIDTH:0.546442
G1 X103.639 Y106.996 E.02748
;WIDTH:0.497818
G1 X103.31 Y107.389 E.01858
;WIDTH:0.468615
G1 X102.953 Y107.747 E.0172
;WIDTH:0.430947
G1 X102.529 Y108.107 E.01724
;WIDTH:0.402077
G1 X102.052 Y108.465 E.01708
;WIDTH:0.40888
G1 X101.977 Y108.484 E.00226
;WIDTH:0.454546
G1 X101.902 Y108.503 E.00254
;WIDTH:0.500212
G1 X101.827 Y108.522 E.00282
;WIDTH:0.545878
G1 X101.752 Y108.541 E.0031
;WIDTH:0.591544
G1 X101.677 Y108.56 E.00338
;WIDTH:0.63721
G1 X101.641 Y108.569 E.00177
;WIPE_START
G1 X101.652 Y108.512 E-.01736
G1 X101.702 Y108.445 E-.02492
G1 X101.751 Y108.379 E-.02492
G1 X101.801 Y108.312 E-.02492
G1 X101.851 Y108.245 E-.02492
G1 X101.9 Y108.179 E-.02492
G1 X102.301 Y107.831 E-.15917
G1 X102.727 Y107.422 E-.17722
G1 X102.978 Y107.104 E-.12164
;WIPE_END
G1 Z.4 F42000
G1 X89.637 Y105.98 Z.4
G1 Z.2
G1 E.6 F2400
;WIDTH:0.393075
G1 F3600
G1 X89.363 Y106.11 E.00847
G1 X89.264 Y105.901 E.00646
;WIDTH:0.426825
G1 X89.131 Y105.455 E.01428
;WIDTH:0.460575
G1 X88.998 Y105.008 E.01553
;WIDTH:0.488259
G1 X88.919 Y104.548 E.01659
;WIDTH:0.515942
G1 X88.84 Y104.088 E.01762
;WIDTH:0.531609
G1 X88.808 Y103.584 E.01971
;WIDTH:0.535982
G1 X88.809 Y103.024 E.02205
;WIDTH:0.540111
G1 X88.872 Y102.245 E.03098
G1 X88.999 Y101.517 E.02936
;WIDTH:0.537072
G1 X89.194 Y100.804 E.02912
;WIDTH:0.527109
G1 X89.458 Y100.108 E.02878
;WIDTH:0.512555
G1 X89.842 Y99.367 E.03129
;WIDTH:0.487695
G1 X90.228 Y98.794 E.02455
;WIDTH:0.45635
G1 X90.488 Y98.49 E.0132
;WIDTH:0.430147
G1 X90.748 Y98.186 E.01236
;WIDTH:0.403944
G1 X91.135 Y97.81 E.01555
;WIDTH:0.421552
G1 X91.222 Y97.776 E.00282
;WIDTH:0.469324
G1 X91.309 Y97.741 E.00318
;WIDTH:0.517096
G1 X91.396 Y97.707 E.00354
;WIDTH:0.564868
G1 X91.482 Y97.673 E.00389
;WIDTH:0.61264
G1 X91.569 Y97.639 E.00425
G1 X91.53 Y97.719 E.00409
;WIDTH:0.564868
G1 X91.49 Y97.8 E.00374
;WIDTH:0.517096
G1 X91.45 Y97.88 E.0034
;WIDTH:0.469324
G1 X91.41 Y97.961 E.00306
;WIDTH:0.421552
G1 X91.371 Y98.041 E.00271
;WIDTH:0.416787
G1 X90.942 Y98.518 E.01913
;WIDTH:0.462649
G1 X90.435 Y99.229 E.02926
;WIDTH:0.503509
G1 X90.046 Y99.945 E.02995
;WIDTH:0.513658
G1 X89.833 Y100.438 E.02019
;WIDTH:0.527517
G1 X89.611 Y101.102 E.02708
;WIDTH:0.534681
G1 X89.447 Y101.795 E.02795
;WIDTH:0.535046
G1 X89.341 Y102.511 E.02842
;WIDTH:0.535982
G1 X89.301 Y103.061 E.02171
G1 X89.297 Y103.579 E.0204
;WIDTH:0.531609
G1 X89.348 Y104.503 E.03611
;WIDTH:0.493415
G1 X89.453 Y105.175 E.02446
;WIDTH:0.448913
G1 X89.545 Y105.578 E.01338
;WIDTH:0.420994
G1 X89.628 Y105.941 E.01125
;WIPE_START
G1 X89.363 Y106.11 E-.09426
G1 X89.264 Y105.901 E-.06938
G1 X89.131 Y105.455 E-.13978
G1 X88.998 Y105.008 E-.13978
G1 X88.919 Y104.548 E-.14003
G1 X88.909 Y104.493 E-.01676
;WIPE_END
G1 Z.4 F42000
G1 X92.799 Y112.874 Z.4
G1 Z.2
G1 E.6 F2400
;WIDTH:0.649622
G1 F3600
G1 X92.761 Y112.932 E.00338
;WIDTH:0.601197
G1 X92.722 Y112.99 E.00311
;WIDTH:0.552772
G1 X92.683 Y113.048 E.00284
;WIDTH:0.504346
G1 X92.645 Y113.106 E.00257
;WIDTH:0.455921
G1 X92.606 Y113.164 E.0023
;WIDTH:0.407496
G1 X92.567 Y113.222 E.00203
;WIDTH:0.390493
G1 X92.182 Y113.537 E.0138
;WIDTH:0.42651
G1 X91.741 Y113.935 E.01818
;WIDTH:0.466255
G1 X91.368 Y114.34 E.01862
;WIDTH:0.495451
G1 X91.011 Y114.77 E.02018
;WIDTH:0.538637
G1 X90.655 Y115.327 E.02616
;WIDTH:0.564667
G1 X90.421 Y115.836 E.02334
G1 X90.182 Y116.564 E.03192
;WIDTH:0.5599
G1 X90.075 Y117.126 E.02362
;WIDTH:0.546281
G1 X90.01 Y117.815 E.02779
;WIDTH:0.524677
G1 X90.018 Y118.43 E.02365
;WIDTH:0.507076
G1 X90.073 Y119.068 E.02376
;WIDTH:0.473725
G1 X90.154 Y119.457 E.01366
;WIDTH:0.444787
G1 X90.235 Y119.846 E.01274
;WIDTH:0.415849
G1 X90.438 Y120.445 E.01882
;WIDTH:0.411972
G1 X90.445 Y120.517 E.00214
;WIDTH:0.455046
G1 X90.452 Y120.59 E.00239
;WIDTH:0.49812
G1 X90.459 Y120.662 E.00264
;WIDTH:0.541194
G1 X90.466 Y120.734 E.00289
;WIDTH:0.584268
G1 X90.473 Y120.806 E.00314
;WIDTH:0.627342
G1 X90.48 Y120.879 E.00339
G1 X90.426 Y120.832 E.00333
;WIDTH:0.583591
G1 X90.372 Y120.786 E.00308
;WIDTH:0.539839
G1 X90.318 Y120.74 E.00283
;WIDTH:0.496088
G1 X90.264 Y120.694 E.00258
;WIDTH:0.452336
G1 X90.209 Y120.647 E.00233
;WIDTH:0.408585
G1 X90.155 Y120.601 E.00208
;WIDTH:0.392451
G1 X90.035 Y120.353 E.00768
;WIDTH:0.43507
G1 X89.796 Y119.718 E.02124
;WIDTH:0.474365
G1 X89.632 Y119.034 E.02423
;WIDTH:0.507076
G1 X89.554 Y118.446 E.02198
;WIDTH:0.525539
G1 X89.53 Y117.766 E.02622
;WIDTH:0.547196
G1 X89.62 Y116.777 E.03998
;WIDTH:0.560817
G1 X89.764 Y116.115 E.02798
;WIDTH:0.564667
G1 X89.945 Y115.624 E.02182
G1 X90.313 Y114.945 E.03217
;WIDTH:0.536068
G1 X90.719 Y114.41 E.02642
;WIDTH:0.488172
G1 X91.068 Y114.042 E.01802
;WIDTH:0.466255
G1 X91.549 Y113.599 E.0221
;WIDTH:0.416977
G1 X91.962 Y113.267 E.01583
;WIDTH:0.390493
G1 X92.376 Y112.972 E.0141
;WIDTH:0.407496
G1 X92.446 Y112.955 E.00211
;WIDTH:0.455921
G1 X92.517 Y112.939 E.00239
;WIDTH:0.504346
G1 X92.587 Y112.923 E.00267
;WIDTH:0.552772
G1 X92.658 Y112.907 E.00295
;WIDTH:0.601197
G1 X92.729 Y112.89 E.00323
;WIDTH:0.649622
G1 X92.76 Y112.883 E.00157
;WIPE_START
G1 X92.761 Y112.932 E-.01473
G1 X92.722 Y112.99 E-.02094
G1 X92.683 Y113.048 E-.02094
G1 X92.645 Y113.106 E-.02094
G1 X92.606 Y113.164 E-.02094
G1 X92.567 Y113.222 E-.02094
G1 X92.182 Y113.537 E-.14922
G1 X91.741 Y113.935 E-.1781
G1 X91.395 Y114.31 E-.15325
;WIPE_END
G1 Z.4 F42000
G1 X103.413 Y116.139 Z.4
G1 Z.2
G1 E.6 F2400
;WIDTH:0.373527
G1 F3600
G1 X103.691 Y116.004 E.00815
G1 X103.753 Y116.176 E.00484
;WIDTH:0.400455
G1 X103.836 Y116.488 E.00921
;WIDTH:0.427383
G1 X103.918 Y116.8 E.0099
;WIDTH:0.460684
G1 X104.032 Y117.676 E.02947
;WIDTH:0.47188
