; HEADER_BLOCK_START
; generated by OrcaSlicer 2.1.0 on 2025-01-14 at 19:37:23
; total layer number: 20
; filament_density: 1.27
; filament_diameter: 1.75
; max_z_height: 4.00
; HEADER_BLOCK_END

; THUMBNAIL_BLOCK_START

;
; THUMBNAIL_BLOCK_END

; THUMBNAIL_BLOCK_START

;
; THUMBNAIL_BLOCK_END

; external perimeters extrusion width = 0.42mm
; perimeters extrusion width = 0.45mm
; infill extrusion width = 0.45mm
; solid infill extrusion width = 0.42mm
; top infill extrusion width = 0.42mm
; support material extrusion width = 0.42mm
; first layer extrusion width = 0.50mm

; EXECUTABLE_BLOCK_START
EXCLUDE_OBJECT_DEFINE NAME=8А_встав.stp_id_0_copy_0 CENTER=110,110 POLYGON=[[83.1827,102.172],[83.1876,101.825],[83.2022,101.482],[83.2262,101.145],[83.2597,100.813],[83.3025,100.484],[83.3545,100.16],[83.4158,99.8399],[83.4862,99.5233],[83.5658,99.2102],[83.6546,98.9006],[83.7525,98.5943],[83.8721,98.2575],[83.9894,97.9578],[84.1121,97.671],[84.2425,97.3911],[84.3805,97.1177],[84.5261,96.8508],[84.6794,96.5901],[84.8403,96.3356],[85.009,96.0869],[85.1855,95.8441],[85.3909,95.5809],[85.6062,95.3245],[85.8316,95.0749],[86.0076,94.8916],[86.1892,94.7123],[86.4358,94.4834],[86.6907,94.2631],[86.9542,94.0512],[87.2264,93.8478],[87.5076,93.6526],[87.798,93.4657],[88.0978,93.287],[88.4074,93.1165],[88.7269,92.9542],[89.0568,92.8002],[89.3973,92.6545],[89.7487,92.5172],[90.0743,92.4012],[90.4336,92.2855],[90.8005,92.1799],[91.1754,92.0845],[91.5585,91.9995],[91.9501,91.9249],[92.3504,91.861],[92.7598,91.8077],[93.1785,91.7654],[93.6068,91.7342],[94.0452,91.7143],[94.3136,91.708],[94.5847,91.7058],[94.9725,91.7107],[136.817,92.5],[125.844,125.051],[123.48,127.5],[95.2098,128.283],[94.8993,128.291],[94.5847,128.294],[94.1932,128.289],[93.8077,128.275],[93.4336,128.251],[93.0678,128.218],[92.7101,128.176],[92.3602,128.125],[92.0179,128.065],[91.6829,127.997],[91.3551,127.921],[91.0342,127.836],[90.7199,127.742],[90.4122,127.641],[90.1108,127.532],[89.8155,127.414],[89.5261,127.288],[89.2425,127.154],[88.9644,127.012],[88.6918,126.862],[88.4245,126.704],[88.1334,126.519],[87.8486,126.323],[87.5698,126.117],[87.2969,125.9],[87.0297,125.672],[86.7705,125.436],[86.5453,125.217],[86.331,124.995],[86.1274,124.77],[85.9343,124.543],[85.7515,124.312],[85.5786,124.078],[85.4155,123.842],[85.2619,123.602],[85.1178,123.359],[84.983,123.112],[84.8572,122.862],[84.7406,122.608],[84.6214,122.322],[84.5132,122.03],[84.4159,121.734],[84.3294,121.432],[84.2539,121.124],[84.1893,120.81],[84.1356,120.491],[84.0931,120.165],[84.0619,119.832],[84.042,119.492],[83.1904,102.572],[83.1846,102.372],[83.1827,102.172]]
M73 P0 R6
M106 S0
M106 P2 S0
;TYPE:Custom
M140 S0
M104 S0 
START_PRINT EXTRUDER_TEMP=250 BED_TEMP=80
G90
G21
M83 ; use relative distances for extrusion
; filament start gcode
M106 S0
M106 P2 S0
;LAYER_CHANGE
;Z:0.2
;HEIGHT:0.2
;BEFORE_LAYER_CHANGE
;0.2
G92 E0

G1 E-.6 F2400
;_SET_FAN_SPEED_CHANGING_LAYER
SET_VELOCITY_LIMIT ACCEL=500 ACCEL_TO_DECEL=250
SET_VELOCITY_LIMIT SQUARE_CORNER_VELOCITY=9
EXCLUDE_OBJECT_START NAME=8А_встав.stp_id_0_copy_0
G1 Z.2 F42000
G1 X128.026 Y104.596
G1 Z.2
G1 E.6 F2400
;TYPE:Inner wall
;WIDTH:0.499999
G1 F3600
G1 X127.694 Y104.492 E.0127
;WIDTH:0.485636
G1 X121.088 Y104.492 E.23346
G1 X120.946 Y104.049 E.01643
G1 X127.694 Y104.049 E.23848
;WIDTH:0.499999
G1 X128.858 Y104.056 E.04247
G1 X129.214 Y104.016 E.01306
G1 X129.484 Y103.929 E.01035
G1 X130.016 Y103.56 E.02363
G1 X130.38 Y102.951 E.0259
G1 X133.198 Y94.271 E.33295
G1 X134.351 Y94.271 E.04208
G1 X128.904 Y110.428 E.62209
;WIDTH:0.544611
G1 X128.858 Y110.497 E.00333
;WIDTH:0.589222
G1 X128.811 Y110.565 E.00362
;WIDTH:0.633833
G1 X128.764 Y110.634 E.00392
;WIDTH:0.678444
G1 X128.718 Y110.703 E.00421
;WIDTH:0.723055
G1 X128.671 Y110.771 E.00451
G1 X126.202 Y118.142 E.42204
;WIDTH:0.693777
G1 X125.885 Y119.08 E.0514
G1 X125.551 Y118.037 E.05689
G1 X125.584 Y117.937 E.00549
;WIDTH:0.723055
G1 X128.026 Y110.557 E.42204
G1 X128.029 Y110.474 E.00451
;WIDTH:0.678444
G1 X128.033 Y110.391 E.00421
;WIDTH:0.633833
G1 X128.037 Y110.308 E.00392
;WIDTH:0.589222
G1 X128.041 Y110.225 E.00362
;WIDTH:0.544611
G1 X128.045 Y110.142 E.00333
;WIDTH:0.499999
G1 X129.275 Y106.398 E.14378
G1 X129.279 Y105.866 E.0194
G1 X129.06 Y105.251 E.02383
G1 X128.891 Y105.023 E.01035
G1 X128.625 Y104.784 E.01306
G1 X128.065 Y104.608 E.02143
G1 X127.919 Y105.014 F42000
G1 F3600
G1 X127.694 Y104.942 E.00862
G1 X120.76 Y104.942 E.253
G1 X120.329 Y103.599 E.05145
G1 X128.858 Y103.599 E.31121
G1 X129.305 Y103.508 E.01664
G1 X129.686 Y103.245 E.01688
G1 X129.945 Y102.81 E.0185
G1 X132.866 Y93.814 E.34507
G1 X134.987 Y93.814 E.07742
G1 X125.872 Y120.853 E1.04108
M73 P1 R6
G1 X124.969 Y118.035 E.10797
G1 X128.824 Y106.309 E.45038
G1 X128.826 Y105.929 E.01386
G1 X128.67 Y105.489 E.01702
G1 X128.359 Y105.155 E.01664
G1 X127.957 Y105.026 E.01539
G1 X127.807 Y105.435 F42000
G1 F3600
G1 X127.694 Y105.399 E.00431
G1 X120.427 Y105.399 E.26515
G1 X119.702 Y103.142 E.08649
G1 X128.981 Y103.142 E.33855
G1 X129.355 Y102.93 E.0157
G1 X129.511 Y102.668 E.0111
G1 X132.533 Y93.357 E.35719
G1 X135.624 Y93.357 E.11276
G1 X126.148 Y121.467 E1.08233
G1 X125.863 Y122.358 E.03414
G1 X124.488 Y118.033 E.16558
G1 X128.346 Y106.299 E.45069
G1 X128.374 Y105.991 E.01127
G1 X128.28 Y105.727 E.01021
G1 X128.093 Y105.527 E.00998
G1 X127.845 Y105.447 E.00951
G1 X127.694 Y105.856 F42000
;TYPE:Outer wall
G1 F3600
G1 X120.094 Y105.856 E.27731
G1 X119.075 Y102.685 E.12152
G1 X128.931 Y102.685 E.35961
G1 X129.075 Y102.53 E.00773
G1 X132.201 Y92.9 E.3694
G1 X136.26 Y92.9 E.1481
G1 X126.581 Y121.611 E1.10549
M73 P2 R6
G1 X126.272 Y122.582 E.03717
G1 X126.157 Y123.073 E.01838
G1 X126.079 Y123.571 E.0184
G1 X125.849 Y124.252 E.02623
G1 X125.64 Y123.601 E.02494
G1 X125.457 Y122.602 E.03705
G1 X125.319 Y122.122 E.01825
G1 X124.007 Y118.032 E.15672
G1 X127.922 Y106.124 E.45732
G1 X127.865 Y105.933 E.00728
G1 X127.731 Y105.872 E.00538
G1 X128.503 Y104.189 F42000
;TYPE:Bottom surface
;WIDTH:0.509095
G1 F6300
G1 X130.105 Y105.792 E.08435
G1 X130.272 Y105.299 E.01936
G1 X129.316 Y104.343 E.05031
G1 X129.625 Y104.243 E.01208
G1 X129.773 Y104.141 E.0067
G1 X130.438 Y104.806 E.03502
G1 X130.604 Y104.313 E.01936
G1 X130.162 Y103.871 E.02326
G1 X130.267 Y103.798 E.00475
G1 X130.448 Y103.498 E.01305
G1 X130.77 Y103.82 E.01694
G1 X130.937 Y103.327 E.01936
G1 X130.696 Y103.086 E.01265
G1 X130.858 Y102.589 E.01947
G1 X131.103 Y102.834 E.01289
G1 X131.269 Y102.341 E.01936
G1 X131.019 Y102.091 E.01313
G1 X131.181 Y101.593 E.01947
G1 X131.435 Y101.848 E.01338
G1 X131.601 Y101.354 E.01936
G1 X131.343 Y101.096 E.01362
G1 X131.504 Y100.598 E.01947
G1 X131.768 Y100.861 E.01387
G1 X131.934 Y100.368 E.01936
G1 X131.666 Y100.1 E.01411
G1 X131.827 Y99.603 E.01947
G1 X132.1 Y99.875 E.01435
G1 X132.266 Y99.382 E.01936
G1 X131.989 Y99.105 E.0146
G1 X132.15 Y98.607 E.01947
G1 X132.432 Y98.889 E.01484
G1 X132.599 Y98.396 E.01936
G1 X132.312 Y98.109 E.01509
G1 X132.474 Y97.612 E.01947
G1 X132.765 Y97.903 E.01533
G1 X132.931 Y97.41 E.01936
G1 X132.635 Y97.114 E.01557
G1 X132.797 Y96.616 E.01947
G1 X133.097 Y96.917 E.01582
G1 X133.264 Y96.424 E.01936
G1 X132.958 Y96.119 E.01606
G1 X133.12 Y95.621 E.01947
G1 X133.43 Y95.931 E.01631
G1 X133.596 Y95.438 E.01936
G1 X133.281 Y95.123 E.01655
G1 X133.443 Y94.626 E.01947
G1 X133.925 Y95.107 E.02534
;WIPE_START
G1 X133.443 Y94.626 E-.20427
G1 X133.281 Y95.123 E-.15698
G1 X133.596 Y95.438 E-.13343
G1 X133.484 Y95.77 E-.10532
;WIPE_END
G1 Z.4 F42000
G1 X130.102 Y106.447 Z.4
G1 Z.2
G1 E.6 F2400
G1 F6300
G1 X129.619 Y105.965 E.0254
G1 X129.616 Y106.374 E.01525
G1 X129.568 Y106.573 E.00761
G1 X129.773 Y106.778 E.01077
G1 X129.607 Y107.271 E.01936
G1 X129.413 Y107.077 E.01021
G1 X129.25 Y107.573 E.01944
G1 X129.441 Y107.764 E.01004
G1 X129.274 Y108.257 E.01936
G1 X129.087 Y108.07 E.00988
G1 X128.924 Y108.566 E.01944
G1 X129.108 Y108.75 E.00972
G1 X128.942 Y109.243 E.01936
M73 P3 R6
G1 X128.76 Y109.062 E.00955
G1 X128.597 Y109.558 E.01944
G1 X128.776 Y109.736 E.00939
G1 X128.61 Y110.23 E.01936
G1 X128.271 Y109.891 E.0178
;WIPE_START
G1 X128.61 Y110.23 E-.14352
G1 X128.776 Y109.736 E-.1561
G1 X128.597 Y109.558 E-.0757
G1 X128.76 Y109.062 E-.15669
G1 X128.921 Y109.222 E-.068
;WIPE_END
G1 Z.4 F42000
G1 X121.046 Y125.727 Z.4
G1 Z.2
G1 E.6 F2400
;TYPE:Inner wall
;WIDTH:0.504293
G1 F3600
G1 X120.563 Y125.727 E.01781
G1 X120.51 Y125.57 E.0061
;WIDTH:0.547524
G1 X118.43 Y119.332 E.26485
;WIDTH:0.590755
G1 X116.35 Y113.094 E.28754
;WIDTH:0.633986
G1 X114.271 Y106.857 E.31023
;WIDTH:0.677217
G1 X112.191 Y100.619 E.33292
;WIDTH:0.720447
G1 X110.111 Y94.381 E.35561
G1 X110.828 Y94.381 E.03877
G1 X112.932 Y100.838 E.36728
;WIDTH:0.677217
G1 X114.961 Y107.06 E.33136
;WIDTH:0.633986
G1 X116.989 Y113.282 E.30877
;WIDTH:0.590755
G1 X119.018 Y119.505 E.28619
;WIDTH:0.547524
G1 X121.034 Y125.689 E.26199
G1 X121.675 Y126.186 F42000
;WIDTH:0.499999
G1 F3600
G1 X120.233 Y126.186 E.05264
G1 X109.32 Y93.814 E1.24642
G1 X111.241 Y93.814 E.07011
G1 X121.663 Y126.148 E1.23949
G1 X122.303 Y126.643 F42000
G1 F3600
G1 X119.904 Y126.643 E.08751
G1 X108.683 Y93.357 E1.28162
M73 P4 R6
G1 X111.574 Y93.357 E.10548
G1 X122.291 Y126.605 E1.27454
G1 X122.931 Y127.1 F42000
;TYPE:Outer wall
G1 F3600
G1 X119.576 Y127.1 E.12239
G1 X108.047 Y92.9 E1.31682
G1 X111.907 Y92.9 E.14084
G1 X122.918 Y127.062 E1.30958
;WIPE_START
G1 X120.918 Y127.085 E-.6
;WIPE_END
G1 Z.4 F42000
G1 X87.076 Y107.017 Z.4
G1 Z.2
G1 E.6 F2400
;TYPE:Inner wall
G1 F3600
G1 X86.738 Y107.178 E.01367
G1 X86.373 Y106.704 E.02183
G1 X86.105 Y106.274 E.01846
G1 X85.723 Y105.592 E.02856
G1 X85.514 Y105.12 E.0188
G1 X85.271 Y104.419 E.02708
G1 X85.089 Y103.649 E.02885
G1 X85.039 Y103.274 E.01382
G1 X84.978 Y102.759 E.01891
G1 X84.962 Y101.844 E.03341
G1 X85.025 Y100.982 E.03151
G1 X85.103 Y100.449 E.01966
G1 X85.249 Y99.801 E.02423
G1 X85.515 Y98.95 E.03253
G1 X85.744 Y98.368 E.02282
G1 X86.086 Y97.694 E.02758
G1 X86.592 Y96.923 E.03363
G1 X87.105 Y96.312 E.02913
;WIDTH:0.542892
G1 X87.192 Y96.259 E.00404
;WIDTH:0.585785
G1 X87.278 Y96.206 E.00439
;WIDTH:0.628677
M73 P5 R6
G1 X87.364 Y96.153 E.00474
;WIDTH:0.67157
G1 X87.451 Y96.1 E.00508
;WIDTH:0.714462
G1 X87.537 Y96.047 E.00543
G1 X88.011 Y95.592 E.03522
;WIDTH:0.668892
G1 X88.449 Y95.265 E.02732
;WIDTH:0.622236
G1 X88.886 Y94.937 E.02528
;WIDTH:0.575579
G1 X89.212 Y94.743 E.01613
;WIDTH:0.5426
G1 X89.538 Y94.548 E.01513
;WIDTH:0.50962
G1 X89.886 Y94.378 E.01441
;WIDTH:0.478067
G1 X90.233 Y94.208 E.01344
;WIDTH:0.446513
G1 X90.761 Y94.016 E.01809
;WIDTH:0.404179
G1 X91.289 Y93.824 E.01619
;WIDTH:0.40749
G1 X91.359 Y93.83 E.00205
;WIDTH:0.453136
G1 X91.429 Y93.836 E.0023
;WIDTH:0.498782
G1 X91.499 Y93.841 E.00256
;WIDTH:0.544428
G1 X91.569 Y93.847 E.00282
;WIDTH:0.590074
G1 X91.639 Y93.853 E.00307
;WIDTH:0.63572
G1 X91.709 Y93.859 E.00333
G1 X91.655 Y93.904 E.00333
;WIDTH:0.590074
G1 X91.601 Y93.948 E.00307
;WIDTH:0.544428
G1 X91.547 Y93.993 E.00282
;WIDTH:0.498782
G1 X91.493 Y94.038 E.00256
;WIDTH:0.453136
G1 X91.438 Y94.083 E.0023
;WIDTH:0.40749
G1 X91.384 Y94.128 E.00205
;WIDTH:0.392401
G1 X91.067 Y94.252 E.0095
;WIDTH:0.428684
G1 X90.655 Y94.455 E.01413
;WIDTH:0.464967
G1 X90.244 Y94.657 E.01546
;WIDTH:0.505093
G1 X89.884 Y94.889 E.01579
;WIDTH:0.545219
G1 X89.524 Y95.121 E.01716
;WIDTH:0.583799
G1 X89.209 Y95.372 E.0174
;WIDTH:0.622378
G1 X88.894 Y95.624 E.01864
;WIDTH:0.648025
G1 X88.638 Y95.861 E.01686
;WIDTH:0.673672
G1 X88.383 Y96.099 E.01757
;WIDTH:0.714462
G1 X88.031 Y96.5 E.02862
G1 X87.975 Y96.608 E.00649
;WIDTH:0.67157
G1 X87.919 Y96.715 E.00608
;WIDTH:0.628677
G1 X87.864 Y96.823 E.00566
;WIDTH:0.585785
G1 X87.808 Y96.931 E.00525
;WIDTH:0.542892
G1 X87.753 Y97.038 E.00483
;WIDTH:0.499999
G1 X87.331 Y97.711 E.02898
G1 X87.063 Y98.233 E.02141
G1 X86.812 Y98.835 E.0238
G1 X86.564 Y99.522 E.02665
G1 X86.407 Y100.119 E.02251
G1 X86.204 Y101.372 E.04629
G1 X86.154 Y102.183 E.02968
G1 X86.177 Y103.345 E.04238
G1 X86.278 Y104.284 E.03445
G1 X86.39 Y104.86 E.02142
G1 X86.597 Y105.719 E.03223
G1 X86.849 Y106.449 E.0282
G1 X87.062 Y106.98 E.02085
;WIPE_START
G1 X86.738 Y107.178 E-.11376
G1 X86.373 Y106.704 E-.17952
G1 X86.105 Y106.274 E-.15178
G1 X85.853 Y105.824 E-.15494
;WIPE_END
G1 Z.4 F42000
G1 X97.559 Y110.089 Z.4
G1 Z.2
G1 E.6 F2400
;WIDTH:0.51807
G1 F3600
G1 X97.078 Y110.323 E.02029
;WIDTH:0.526639
G1 X96.18 Y110.734 E.03814
G1 X95.012 Y111.174 E.0482
;WIDTH:0.515783
G1 X94.249 Y111.491 E.03119
;WIDTH:0.540918
G1 X93.039 Y112.025 E.05258
;WIDTH:0.558613
G1 X91.881 Y112.582 E.05289
;WIDTH:0.591594
G1 X90.84 Y113.135 E.05163
;WIDTH:0.618615
G1 X90.569 Y113.304 E.01466
;WIDTH:0.645635
G1 X90.299 Y113.473 E.01535
;WIDTH:0.662897
G1 X89.866 Y113.765 E.02583
;WIDTH:0.689771
G1 X89.468 Y114.09 E.02652
;WIDTH:0.716645
G1 X89.07 Y114.414 E.02762
G1 X89.027 Y114.49 E.00467
;WIDTH:0.66738
G1 X88.985 Y114.565 E.00433
;WIDTH:0.618114
G1 X88.942 Y114.641 E.00398
;WIDTH:0.568848
G1 X88.9 Y114.716 E.00364
;WIDTH:0.519582
G1 X88.567 Y115.097 E.01922
;WIDTH:0.499999
G1 X88.247 Y115.532 E.01971
G1 X87.737 Y116.32 E.03426
G1 X87.356 Y117.206 E.03519
G1 X87.22 Y117.677 E.01788
G1 X87.055 Y118.461 E.02924
G1 X86.977 Y119.474 E.03707
G1 X86.981 Y119.852 E.01377
G1 X87.041 Y120.678 E.03024
G1 X87.168 Y121.381 E.02607
;WIDTH:0.537803
G1 X87.166 Y121.447 E.0026
;WIDTH:0.575607
G1 X87.164 Y121.513 E.0028
;WIDTH:0.613411
G1 X87.162 Y121.579 E.003
;WIDTH:0.651215
G1 X87.159 Y121.645 E.0032
;WIDTH:0.677508
G1 X87.204 Y121.812 E.00878
;WIDTH:0.703801
G1 X87.248 Y121.98 E.00915
G1 X87.411 Y122.354 E.02155
;WIDTH:0.661698
G1 X87.575 Y122.728 E.02018
;WIDTH:0.619594
G1 X87.812 Y123.104 E.02043
;WIDTH:0.577644
G1 X88.05 Y123.479 E.01895
;WIDTH:0.535694
G1 X88.278 Y123.758 E.01416
;WIDTH:0.507023
G1 X88.505 Y124.036 E.01334
;WIDTH:0.478351
G1 X88.898 Y124.423 E.01915
;WIDTH:0.448256
G1 X89.386 Y124.845 E.0209
;WIDTH:0.399089
G1 X89.936 Y125.232 E.01909
;WIDTH:0.413433
G1 X89.986 Y125.29 E.00227
;WIDTH:0.45972
G1 X90.035 Y125.349 E.00255
;WIDTH:0.506007
G1 X90.085 Y125.407 E.00283
;WIDTH:0.552294
G1 X90.135 Y125.465 E.00312
;WIDTH:0.598581
G1 X90.185 Y125.524 E.0034
;WIDTH:0.644868
G1 X90.234 Y125.582 E.00368
G1 X90.155 Y125.569 E.00386
;WIDTH:0.598581
G1 X90.076 Y125.556 E.00356
;WIDTH:0.552294
G1 X89.997 Y125.543 E.00326
;WIDTH:0.506007
G1 X89.917 Y125.529 E.00297
;WIDTH:0.45972
G1 X89.838 Y125.516 E.00267
;WIDTH:0.413433
G1 X89.759 Y125.503 E.00237
;WIDTH:0.41112
G1 X88.99 Y124.998 E.02705
;WIDTH:0.458583
G1 X88.393 Y124.519 E.02538
;WIDTH:0.507949
G1 X87.979 Y124.133 E.02101
;WIDTH:0.535576
G1 X87.727 Y123.851 E.01488
;WIDTH:0.563202
G1 X87.475 Y123.568 E.01572
;WIDTH:0.597379
G1 X87.262 Y123.252 E.01687
;WIDTH:0.631556
G1 X87.049 Y122.936 E.01791
;WIDTH:0.665732
G1 X86.836 Y122.62 E.01896
;WIDTH:0.690972
G1 X86.693 Y122.327 E.01687
;WIDTH:0.716212
G1 X86.55 Y122.034 E.01753
G1 X86.496 Y121.963 E.00474
;WIDTH:0.67297
G1 X86.443 Y121.893 E.00444
;WIDTH:0.629727
G1 X86.389 Y121.823 E.00413
;WIDTH:0.586485
G1 X86.335 Y121.753 E.00383
;WIDTH:0.543242
G1 X86.282 Y121.683 E.00352
;WIDTH:0.499999
G1 X86.186 Y121.437 E.00964
G1 X85.962 Y120.602 E.03155
G1 X85.851 Y119.927 E.02496
G1 X85.815 Y119.415 E.01872
G1 X85.847 Y118.165 E.04563
G1 X85.991 Y117.355 E.03
G1 X86.185 Y116.712 E.02452
G1 X86.391 Y116.226 E.01924
G1 X86.874 Y115.448 E.0334
G1 X87.394 Y114.841 E.0292
G1 X87.796 Y114.448 E.02051
G1 X88.232 Y114.074 E.02094
;WIDTH:0.543329
G1 X88.313 Y114.039 E.00352
;WIDTH:0.586658
G1 X88.394 Y114.005 E.00382
;WIDTH:0.629987
G1 X88.474 Y113.97 E.00413
;WIDTH:0.673316
G1 X88.555 Y113.935 E.00443
;WIDTH:0.716645
G1 X88.636 Y113.9 E.00474
G1 X89.029 Y113.598 E.02664
;WIDTH:0.689259
G1 X89.536 Y113.241 E.03201
;WIDTH:0.661555
G1 X90 Y112.952 E.02699
;WIDTH:0.645635
G1 X90.334 Y112.779 E.01811
;WIDTH:0.618615
G1 X90.668 Y112.605 E.0173
;WIDTH:0.591594
G1 X91.655 Y112.119 E.04817
;WIDTH:0.560264
G1 X92.679 Y111.63 E.04687
;WIDTH:0.554739
G1 X94.089 Y111.046 E.06234
;WIDTH:0.515783
G1 X94.879 Y110.726 E.03221
;WIDTH:0.526639
G1 X96.088 Y110.251 E.05012
G1 X96.954 Y109.862 E.03667
