; HEADER_BLOCK_START
; generated by OrcaSlicer 2.1.0 on 2024-10-31 at 12:52:04
; total layer number: 96
; filament_density: 1.27
; filament_diameter: 1.75
; max_z_height: 15.20
; HEADER_BLOCK_END

; THUMBNAIL_BLOCK_START

;
; THUMBNAIL_BLOCK_END

; THUMBNAIL_BLOCK_START

;
; THUMBNAIL_BLOCK_END

; external perimeters extrusion width = 0.42mm
; perimeters extrusion width = 0.45mm
; infill extrusion width = 0.45mm
; solid infill extrusion width = 0.42mm
; top infill extrusion width = 0.42mm
; support material extrusion width = 0.42mm
; first layer extrusion width = 0.50mm

; EXECUTABLE_BLOCK_START
EXCLUDE_OBJECT_DEFINE NAME=без_стенки_блоки_.stp_id_0_copy_0 CENTER=110,110 POLYGON=[[81,68.25],[81.002,68.1673],[81.0056,68.1005],[81.0156,68.003],[81.0223,67.9519],[81.0428,67.8398],[81.0501,67.805],[81.0837,67.6788],[81.0889,67.6605],[81.1383,67.5193],[81.1981,67.3822],[81.2679,67.25],[81.2849,67.2227],[81.3475,67.1234],[81.3765,67.0836],[81.4363,67.003],[81.4791,66.9528],[81.5339,66.8897],[81.5919,66.8312],[81.6397,66.7839],[81.7137,66.7198],[81.753,66.6863],[81.8435,66.6192],[81.8734,66.5975],[81.9359,66.5566],[82,66.518],[82.0655,66.4818],[82.1218,66.4533],[82.1322,66.4481],[82.2002,66.4169],[82.2677,66.3889],[82.2693,66.3883],[82.3394,66.3622],[82.4105,66.3389],[82.4824,66.3181],[82.555,66.3001],[82.623,66.2859],[82.6282,66.2849],[82.7019,66.2723],[82.7761,66.2626],[82.8505,66.2556],[82.9252,66.2514],[83,66.25],[137,66.25],[137.075,66.2514],[137.149,66.2556],[137.224,66.2626],[137.279,66.2698],[137.298,66.2723],[137.372,66.2849],[137.445,66.3001],[137.518,66.3181],[137.59,66.3389],[137.661,66.3622],[137.731,66.3883],[137.8,66.4169],[137.868,66.4481],[137.935,66.4818],[138,66.518],[138.064,66.5566],[138.127,66.5975],[138.188,66.6408],[138.247,66.6863],[138.305,66.7341],[138.36,66.7839],[138.414,66.8358],[138.466,66.8897],[138.516,66.9454],[138.564,67.003],[138.609,67.0624],[138.652,67.1234],[138.693,67.1859],[138.732,67.25],[138.768,67.3155],[138.802,67.3822],[138.833,67.4502],[138.862,67.5193],[138.888,67.5894],[138.911,67.6605],[138.921,67.6948],[138.932,67.7324],[138.95,67.805],[138.965,67.8782],[138.978,67.9519],[138.98,67.9707],[138.987,68.0261],[138.994,68.1005],[138.999,68.1752],[139,68.25],[139,98.25],[127.961,152.142],[127.95,152.195],[127.934,152.258],[127.932,152.268],[127.911,152.34],[127.901,152.373],[127.888,152.411],[127.88,152.432],[127.862,152.481],[127.859,152.487],[127.833,152.55],[127.811,152.599],[127.802,152.618],[127.768,152.685],[127.755,152.709],[127.732,152.75],[127.693,152.814],[127.692,152.816],[127.652,152.877],[127.621,152.921],[127.609,152.938],[127.564,152.997],[127.543,153.022],[127.516,153.055],[127.466,153.11],[127.458,153.119],[127.414,153.164],[127.366,153.211],[127.36,153.216],[127.305,153.266],[127.267,153.298],[127.247,153.314],[127.188,153.359],[127.161,153.379],[127.127,153.402],[127.064,153.443],[127.049,153.453],[127,153.482],[126.935,153.518],[126.931,153.52],[126.868,153.552],[126.808,153.579],[126.8,153.583],[126.731,153.612],[126.681,153.631],[126.661,153.638],[126.59,153.661],[126.549,153.673],[126.518,153.682],[126.445,153.7],[126.415,153.706],[126.372,153.715],[126.298,153.728],[126.278,153.731],[126.224,153.737],[126.149,153.744],[126.139,153.745],[126.075,153.749],[126,153.75],[83,153.75],[82.9252,153.749],[82.8505,153.744],[82.7761,153.737],[82.7207,153.73],[82.7019,153.728],[82.6282,153.715],[82.555,153.7],[82.4824,153.682],[82.4105,153.661],[82.3394,153.638],[82.3182,153.63],[82.2693,153.612],[82.2002,153.583],[82.1322,153.552],[82.0655,153.518],[82,153.482],[81.9359,153.443],[81.8734,153.402],[81.8124,153.359],[81.753,153.314],[81.6954,153.266],[81.6397,153.216],[81.5858,153.164],[81.5339,153.11],[81.4841,153.055],[81.4363,152.997],[81.3908,152.938],[81.3475,152.877],[81.3066,152.814],[81.2679,152.75],[81.2318,152.685],[81.1981,152.618],[81.1669,152.55],[81.1383,152.481],[81.1199,152.432],[81.1122,152.411],[81.0889,152.34],[81.0682,152.268],[81.0501,152.195],[81.0349,152.122],[81.0223,152.048],[81.0198,152.029],[81.0126,151.974],[81.0056,151.899],[81.0014,151.825],[81,151.75],[81,68.25]]
M73 P0 R32
M106 S0
M106 P2 S0
;TYPE:Custom
M140 S0
M104 S0 
START_PRINT EXTRUDER_TEMP=250 BED_TEMP=80
G90
G21
M83 ; use relative distances for extrusion
; filament start gcode
M106 S0
M106 P2 S0
;LAYER_CHANGE
;Z:0.2
;HEIGHT:0.2
;BEFORE_LAYER_CHANGE
;0.2
G92 E0

G1 E-.6 F2400
;_SET_FAN_SPEED_CHANGING_LAYER
SET_VELOCITY_LIMIT ACCEL=500 ACCEL_TO_DECEL=250
SET_VELOCITY_LIMIT SQUARE_CORNER_VELOCITY=9
EXCLUDE_OBJECT_START NAME=без_стенки_блоки_.stp_id_0_copy_0
G1 Z.2 F42000
G1 X135.65 Y98.395
G1 Z.2
G1 E.6 F2400
;TYPE:Support
;WIDTH:0.5
G1 F3600
G1 X135.709 Y98.454 E.00302
G1 X135.709 Y102.43 E.14509
G1 X127.078 Y102.43 E.31491
G1 X127.078 Y91.422 E.40164
G1 X135.65 Y91.422 E.31275
G1 X135.65 Y98.326 E.25191
G1 X127.49 Y102.019 F42000
G1 F3600
G1 X127.49 Y91.833 E.37162
G1 X135.239 Y91.833 E.28273
G1 X135.239 Y98.565 E.24562
G1 X135.297 Y98.624 E.00302
G1 X135.298 Y102.019 E.12386
G1 X127.49 Y102.019 E.28489
G1 X127.997 Y101.511 F42000
G1 F3600
G1 X127.997 Y92.341 E.33456
G1 X134.731 Y92.341 E.24567
G1 X134.731 Y98.776 E.23477
G1 X134.789 Y98.834 E.00302
G1 X134.79 Y101.511 E.09766
G1 X127.997 Y101.511 E.24783
G1 X128.505 Y101.003 F42000
G1 F3600
G1 X128.505 Y92.849 E.2975
G1 X134.223 Y92.849 E.20861
M73 P0 R31
G1 X134.223 Y98.986 E.22391
G1 X134.282 Y99.045 E.00303
G1 X134.282 Y101.003 E.07145
G1 X128.505 Y101.003 E.21076
G1 X129.013 Y100.495 F42000
G1 F3600
G1 X129.013 Y93.357 E.26044
G1 X133.715 Y93.357 E.17155
G1 X133.715 Y99.196 E.21306
G1 X133.774 Y99.255 E.00303
G1 X133.774 Y100.495 E.04524
G1 X129.013 Y100.495 E.1737
G1 X129.521 Y99.987 F42000
G1 F3600
G1 X129.521 Y93.865 E.22338
G1 X133.207 Y93.865 E.13449
G1 X133.207 Y99.407 E.20221
G1 X133.266 Y99.466 E.00303
G1 X133.266 Y99.987 E.01904
G1 X129.521 Y99.987 E.13664
G1 X130.029 Y99.479 F42000
G1 F3600
G1 X130.029 Y94.373 E.18632
G1 X132.699 Y94.373 E.09743
G1 X132.699 Y99.479 E.18632
G1 X130.029 Y99.479 E.09743
G1 X130.537 Y98.972 F42000
G1 F3600
G1 X130.537 Y94.881 E.14926
G1 X132.191 Y94.881 E.06037
G1 X132.191 Y98.972 E.14926
G1 X130.537 Y98.972 E.06037
G1 X131.045 Y98.464 F42000
G1 F3600
G1 X131.045 Y95.388 E.1122
G1 X131.684 Y95.388 E.02331
G1 X131.684 Y98.464 E.1122
G1 X131.045 Y98.464 E.02331
;WIPE_START
G1 X131.684 Y98.464 E-.19169
G1 X131.684 Y97.103 E-.40831
;WIPE_END
G1 Z.4 F42000
G1 X124.862 Y69.373 Z.4
G1 Z.2
G1 E.6 F2400
;TYPE:Inner wall
;WIDTH:0.499999
G1 F3600
G1 X124.852 Y150.602 E2.96372
G1 X84.148 Y150.602 E1.48514
G1 X84.148 Y69.4 E2.96275
G1 X124.154 Y69.399 E1.45965
G1 X124.822 Y69.375 E.02439
G1 X125.356 Y68.883 F42000
G1 F3600
G1 X125.319 Y69.35 E.01709
G1 X125.31 Y69.87 E.01898
G1 X125.309 Y151.059 E2.96226
G1 X83.691 Y151.059 E1.51849
G1 X83.691 Y68.943 E2.9961
G1 X124.214 Y68.941 E1.47854
G1 X125.316 Y68.885 E.04027
G1 X125.907 Y68.354 F42000
G1 F3600
G1 X125.821 Y68.811 E.01693
G1 X125.776 Y69.358 E.02005
G1 X125.767 Y69.87 E.01869
G1 X125.766 Y151.516 E2.97894
M73 P1 R31
G1 X83.234 Y151.516 E1.55185
G1 X83.234 Y68.486 E3.02946
G1 X124.137 Y68.484 E1.4924
G1 X124.86 Y68.459 E.02639
G1 X125.867 Y68.358 E.03692
G1 X126.584 Y67.751 F42000
;TYPE:Outer wall
;WIDTH:0.38292
G1 F3600
G1 X136.018 Y67.75 E.25602
G1 X136.173 Y67.82 F42000
;WIDTH:0.467714
G1 F3600
G1 X136.333 Y67.849 E.00553
;WIDTH:0.499999
G1 X136.922 Y67.911 E.02159
G1 X137.178 Y68.112 E.01188
G1 X137.223 Y68.313 E.00751
G1 X137.221 Y97.85 E1.0777
G1 X136.4 Y97.85 E.02997
G1 X136.399 Y69.361 E1.03946
G1 X136.349 Y68.364 E.0364
G1 X136.302 Y68.111 E.0094
G1 X136.238 Y67.966 E.0058
;WIDTH:0.467714
G1 X136.189 Y67.857 E.00404
;WIPE_START
G1 X136.333 Y67.849 E-.04334
G1 X136.922 Y67.911 E-.17748
G1 X137.178 Y68.112 E-.09767
G1 X137.223 Y68.313 E-.06173
G1 X137.223 Y69.045 E-.21979
;WIPE_END
G1 Z.4 F42000
G1 X126.584 Y67.751 Z.4
G1 Z.2
G1 E.6 F2400
;WIDTH:0.413787
G1 F3600
G1 X126.509 Y67.802 E.00269
;WIDTH:0.444654
G1 X126.433 Y67.852 E.00291
;WIDTH:0.472327
G1 X126.403 Y67.988 E.00476
;WIDTH:0.499999
G1 X126.374 Y68.123 E.00507
G1 X126.374 Y68.349 E.00822
G1 X126.277 Y68.85 E.01862
G1 X126.233 Y69.366 E.01892
G1 X126.224 Y69.87 E.0184
G1 X126.223 Y151.741 E2.98712
G1 X126.123 Y151.91 E.00719
G1 X125.966 Y151.973 E.00619
G1 X83.009 Y151.973 E1.56731
G1 X82.84 Y151.873 E.00719
G1 X82.777 Y151.716 E.00619
G1 X82.777 Y68.291 E3.04384
G1 X82.855 Y68.105 E.00735
G1 X83.038 Y68.029 E.00724
G1 X124.129 Y68.027 E1.49925
G1 X124.844 Y68.002 E.02609
G1 X126.107 Y67.879 E.04631
G1 X126.266 Y67.836 E.00601
;WIDTH:0.460973
G1 X126.425 Y67.794 E.0055
;WIDTH:0.421947
G1 X126.546 Y67.762 E.00377
;WIPE_START
G1 X126.509 Y67.802 E-.01635
G1 X126.433 Y67.852 E-.02725
G1 X126.403 Y67.988 E-.04166
G1 X126.374 Y68.123 E-.04166
G1 X126.374 Y68.349 E-.06757
G1 X126.277 Y68.85 E-.15309
G1 X126.233 Y69.366 E-.15554
G1 X126.227 Y69.689 E-.09688
;WIPE_END
G1 Z.4 F42000
G1 X136.811 Y97.439 Z.4
G1 Z.2
G1 E.6 F2400
;TYPE:Inner wall
;WIDTH:0.409752
G1 F3600
G1 X136.811 Y69.366 E.82203
;WIDTH:0.435187
G1 X136.799 Y68.854 E.01604
;WIDTH:0.460622
G1 X136.786 Y68.342 E.01708
;WIPE_START
G1 X136.799 Y68.854 E-.15368
G1 X136.811 Y69.366 E-.15368
G1 X136.811 Y70.342 E-.29265
;WIPE_END
G1 Z.4 F42000
G1 X104.238 Y90.318 Z.4
G1 Z.2
G1 E.6 F2400
;WIDTH:0.499999
G1 F3600
G1 X104.476 Y90.194 E.0098
G1 X105.023 Y90.007 E.0211
G1 X105.599 Y89.902 E.02135
G1 X106.4 Y89.905 E.02923
G1 X106.753 Y89.959 E.01303
G1 X107.244 Y90.09 E.01854
G1 X107.577 Y90.221 E.01306
G1 X108.027 Y90.459 E.01856
G1 X108.543 Y90.834 E.02327
G1 X108.949 Y91.246 E.0211
G1 X109.402 Y91.914 E.02945
G1 X109.557 Y92.237 E.01307
G1 X109.725 Y92.716 E.01854
G1 X109.804 Y93.065 E.01303
G1 X109.871 Y93.656 E.02172
G1 X109.871 Y99.754 E.22247
G1 X109.828 Y100.328 E.021
G1 X109.699 Y100.892 E.02111
G1 X109.474 Y101.458 E.02221
G1 X109.131 Y102.017 E.02395
G1 X108.718 Y102.503 E.02328
G1 X108.277 Y102.878 E.0211
G1 X107.785 Y103.182 E.0211
G1 X107.254 Y103.41 E.0211
G1 X106.695 Y103.556 E.0211
G1 X106.139 Y103.615 E.02039
G1 X105.542 Y103.592 E.0218
G1 X104.756 Y103.41 E.02943
G1 X104.423 Y103.279 E.01306
G1 X103.973 Y103.041 E.01856
G1 X103.458 Y102.666 E.02325
G1 X102.911 Y102.073 E.02943
G1 X102.568 Y101.535 E.02327
G1 X102.275 Y100.784 E.02943
G1 X102.196 Y100.435 E.01303
G1 X102.129 Y99.844 E.02172
G1 X102.129 Y93.746 E.22247
G1 X102.177 Y93.143 E.02208
G1 X102.34 Y92.507 E.02397
G1 X102.47 Y92.174 E.01303
G1 X102.706 Y91.728 E.0184
G1 X103.082 Y91.209 E.02339
G1 X103.496 Y90.801 E.02119
G1 X103.963 Y90.461 E.0211
G1 X104.202 Y90.336 E.00984
G1 X104.453 Y90.719 F42000
G1 F3600
G1 X104.674 Y90.606 E.00905
G1 X105.158 Y90.443 E.01861
G1 X105.666 Y90.354 E.01884
G1 X106.383 Y90.362 E.02614
G1 X107.126 Y90.532 E.02781
G1 X107.814 Y90.863 E.02785
G1 X108.258 Y91.191 E.02016
G1 X108.614 Y91.557 E.01861
G1 X109.014 Y92.157 E.02634
G1 X109.293 Y92.867 E.02784
G1 X109.414 Y93.666 E.02947
G1 X109.414 Y99.754 E.22212
G1 X109.376 Y100.259 E.0185
G1 X109.262 Y100.757 E.01862
G1 X109.066 Y101.251 E.0194
G1 X108.744 Y101.774 E.02241
G1 X108.383 Y102.192 E.02017
G1 X107.992 Y102.52 E.01861
G1 X107.557 Y102.786 E.01861
G1 X107.087 Y102.984 E.01861
G1 X106.593 Y103.11 E.01861
G1 X106.085 Y103.161 E.01861
G1 X105.576 Y103.136 E.01861
G1 X104.874 Y102.968 E.02632
G1 X104.186 Y102.637 E.02785
G1 X103.743 Y102.309 E.02014
G1 X103.257 Y101.775 E.02633
G1 X102.964 Y101.307 E.02016
G1 X102.707 Y100.633 E.02632
G1 X102.586 Y99.834 E.02947
G1 X102.586 Y93.746 E.22212
G1 X102.627 Y93.22 E.01927
G1 X102.781 Y92.625 E.02243
G1 X103.11 Y91.941 E.02767
G1 X103.44 Y91.494 E.02029
G1 X103.806 Y91.136 E.01867
G1 X104.22 Y90.839 E.01861
G1 X104.418 Y90.737 E.00809
G1 X104.683 Y91.111 F42000
G1 F3600
G1 X104.968 Y90.98 E.01143
G1 X105.393 Y90.857 E.01616
G1 X105.861 Y90.799 E.0172
G1 X106.365 Y90.819 E.01841
G1 X107.007 Y90.973 E.0241
G1 X107.6 Y91.267 E.02413
G1 X108.011 Y91.582 E.01888
G1 X108.357 Y91.969 E.01895
G1 X108.627 Y92.4 E.01857
G1 X108.862 Y93.018 E.02412
G1 X108.957 Y93.7 E.02514
G1 X108.957 Y99.754 E.22086
G1 X108.915 Y100.241 E.01786
G1 X108.809 Y100.67 E.01612
G1 X108.627 Y101.1 E.01702
G1 X108.357 Y101.531 E.01857
G1 X108.011 Y101.918 E.01895
G1 X107.622 Y102.221 E.01796
G1 X107.236 Y102.435 E.01612
G1 X106.822 Y102.589 E.01614
G1 X106.39 Y102.68 E.0161
G1 X105.949 Y102.705 E.01612
G1 X105.484 Y102.658 E.01705
G1 X104.992 Y102.527 E.01857
G1 X104.4 Y102.233 E.02411
G1 X103.996 Y101.924 E.01855
G1 X103.603 Y101.477 E.02172
G1 X103.34 Y101.041 E.01858
G1 X103.138 Y100.482 E.02169
G1 X103.043 Y99.8 E.02514
G1 X103.043 Y93.746 E.22086
G1 X103.091 Y93.234 E.01876
G1 X103.223 Y92.743 E.01856
G1 X103.514 Y92.154 E.02396
G1 X103.832 Y91.738 E.01911
G1 X104.197 Y91.407 E.01798
G1 X104.567 Y91.165 E.01612
G1 X104.647 Y91.128 E.00323
G1 X104.873 Y91.526 F42000
;TYPE:Outer wall
G1 F3600
G1 X105.103 Y91.417 E.00929
G1 X105.461 Y91.309 E.01364
G1 X105.844 Y91.256 E.0141
G1 X106.348 Y91.275 E.01841
G1 X106.889 Y91.415 E.02039
G1 X107.386 Y91.671 E.02041
G1 X107.713 Y91.929 E.01518
G1 X107.97 Y92.212 E.01395
G1 X108.24 Y92.643 E.01857
G1 X108.43 Y93.169 E.0204
G1 X108.5 Y93.732 E.02071
G1 X108.5 Y99.754 E.21969
G1 X108.469 Y100.139 E.01412
G1 X108.383 Y100.503 E.01363
G1 X108.24 Y100.857 E.01392
G1 X107.97 Y101.288 E.01857
G1 X107.688 Y101.594 E.01519
G1 X107.394 Y101.825 E.01363
G1 X107.069 Y102.009 E.01363
G1 X106.72 Y102.144 E.01365
G1 X106.356 Y102.224 E.01361
G1 X105.983 Y102.25 E.01363
G1 X105.602 Y102.217 E.01394
G1 X105.111 Y102.085 E.01856
G1 X104.614 Y101.829 E.02041
G1 X104.282 Y101.565 E.01547
G1 X103.95 Y101.179 E.01857
G1 X103.738 Y100.811 E.01549
G1 X103.57 Y100.331 E.01856
G1 X103.5 Y99.768 E.02071
G1 X103.5 Y93.746 E.21969
G1 X103.533 Y93.353 E.01441
G1 X103.665 Y92.861 E.01856
G1 X103.918 Y92.368 E.02026
G1 X104.179 Y92.037 E.01536
G1 X104.455 Y91.785 E.01363
G1 X104.765 Y91.577 E.01363
G1 X104.836 Y91.543 E.00288
;WIPE_START
G1 X105.103 Y91.417 E-.08838
G1 X105.461 Y91.309 E-.11218
G1 X105.844 Y91.256 E-.11595
G1 X106.348 Y91.275 E-.15133
G1 X106.774 Y91.385 E-.13216
;WIPE_END
G1 Z.4 F42000
G1 X108.177 Y130.937 Z.4
G1 Z.2
G1 E.6 F2400
;TYPE:Inner wall
G1 F3600
G1 X108.037 Y131.039 E.00631
G1 X107.31 Y131.387 E.02943
G1 X106.695 Y131.556 E.02327
G1 X106.12 Y131.617 E.0211
G1 X105.542 Y131.592 E.0211
G1 X104.975 Y131.48 E.02108
G1 X104.423 Y131.27 E.02155
G1 X103.961 Y131.038 E.01887
G1 X103.504 Y130.702 E.02069
G1 X103.242 Y130.459 E.01302
G1 X102.911 Y130.073 E.01856
G1 X102.588 Y129.57 E.02181
G1 X102.443 Y129.264 E.01236
G1 X102.275 Y128.784 E.01856
G1 X102.196 Y128.435 E.01303
G1 X102.129 Y127.844 E.02172
G1 X102.129 Y121.746 E.22247
G1 X102.177 Y121.143 E.02208
G1 X102.34 Y120.507 E.02397
G1 X102.47 Y120.174 E.01303
G1 X102.706 Y119.728 E.0184
G1 X103.082 Y119.209 E.02339
G1 X103.496 Y118.801 E.02119
G1 X103.963 Y118.461 E.0211
G1 X104.476 Y118.194 E.0211
G1 X105.023 Y118.007 E.0211
G1 X105.599 Y117.902 E.02135
G1 X106.381 Y117.904 E.02853
G1 X106.754 Y117.959 E.01375
G1 X107.244 Y118.09 E.01852
G1 X107.577 Y118.221 E.01306
G1 X108.034 Y118.462 E.01885
G1 X108.543 Y118.834 E.02298
G1 X108.949 Y119.246 E.0211
G1 X109.402 Y119.914 E.02946
G1 X109.557 Y120.237 E.01307
G1 X109.725 Y120.716 E.01854
G1 X109.804 Y121.065 E.01303
G1 X109.871 Y121.656 E.02172
G1 X109.871 Y127.754 E.22247
G1 X109.842 Y128.209 E.01664
G1 X109.73 Y128.776 E.02108
G1 X109.536 Y129.32 E.0211
G1 X109.286 Y129.789 E.01937
G1 X108.918 Y130.291 E.02272
G1 X108.504 Y130.699 E.02119
G1 X108.21 Y130.913 E.01331
G1 X107.904 Y130.572 F42000
G1 F3600
G1 X107.78 Y130.661 E.00557
G1 X107.127 Y130.968 E.02633
G1 X106.593 Y131.11 E.02016
G1 X106.085 Y131.161 E.01861
G1 X105.576 Y131.136 E.01861
G1 X105.077 Y131.035 E.01859
G1 X104.606 Y130.851 E.01842
G1 X104.181 Y130.634 E.01743
G1 X103.776 Y130.334 E.01839
G1 X103.33 Y129.86 E.02372
G1 X103.133 Y129.601 E.01188
G1 X102.888 Y129.149 E.01877
G1 X102.707 Y128.633 E.01996
G1 X102.586 Y127.834 E.02947
G1 X102.586 Y121.746 E.22212
G1 X102.627 Y121.22 E.01927
G1 X102.781 Y120.625 E.02243
