; HEADER_BLOCK_START
; generated by OrcaSlicer 2.1.0 on 2024-10-31 at 15:34:36
; total layer number: 96
; filament_density: 1.27
; filament_diameter: 1.75
; max_z_height: 15.20
; HEADER_BLOCK_END

; THUMBNAIL_BLOCK_START

;
; THUMBNAIL_BLOCK_END

; THUMBNAIL_BLOCK_START

;
; THUMBNAIL_BLOCK_END

; external perimeters extrusion width = 0.42mm
; perimeters extrusion width = 0.45mm
; infill extrusion width = 0.45mm
; solid infill extrusion width = 0.42mm
; top infill extrusion width = 0.42mm
; support material extrusion width = 0.42mm
; first layer extrusion width = 0.50mm

; EXECUTABLE_BLOCK_START
EXCLUDE_OBJECT_DEFINE NAME=без_стенки_блоки_.stp_id_0_copy_0 CENTER=110,110 POLYGON=[[82.5,68.25],[82.5014,68.1752],[82.5049,68.1107],[82.5056,68.1005],[82.5126,68.0261],[82.5194,67.972],[82.5223,67.9519],[82.5349,67.8782],[82.5435,67.8351],[82.5501,67.805],[82.5682,67.7324],[82.577,67.7005],[82.5889,67.6605],[82.6122,67.5894],[82.6194,67.5692],[82.6383,67.5193],[82.6389,67.5177],[82.6669,67.4502],[82.6706,67.4417],[82.6981,67.3822],[82.7033,67.3718],[82.73,67.3189],[82.7318,67.3155],[82.7679,67.25],[82.7971,67.2012],[82.8066,67.1859],[82.8475,67.1234],[82.8713,67.0892],[82.9363,67.003],[82.9521,66.9835],[83.0339,66.8897],[83.0389,66.8842],[83.1311,66.7919],[83.1397,66.7839],[83.228,66.7067],[83.253,66.6863],[83.329,66.6287],[83.3734,66.5975],[83.4336,66.5581],[83.5,66.518],[83.5412,66.4948],[83.6322,66.4481],[83.6513,66.439],[83.7634,66.3906],[83.7693,66.3883],[83.8772,66.3494],[83.9105,66.3389],[83.9923,66.3155],[84.055,66.3001],[84.1083,66.2887],[84.2019,66.2723],[84.225,66.269],[84.3421,66.2562],[84.3505,66.2556],[84.421,66.2516],[84.5,66.25],[135.5,66.25],[135.579,66.2516],[135.649,66.2556],[135.658,66.2562],[135.775,66.269],[135.798,66.2723],[135.892,66.2887],[135.945,66.3001],[136.008,66.3155],[136.09,66.3389],[136.123,66.3494],[136.231,66.3883],[136.237,66.3906],[136.349,66.439],[136.368,66.4481],[136.459,66.4948],[136.5,66.518],[136.566,66.5581],[136.627,66.5975],[136.671,66.6287],[136.747,66.6863],[136.772,66.7067],[136.86,66.7839],[136.869,66.7919],[136.961,66.8842],[136.966,66.8897],[137.048,66.9835],[137.064,67.003],[137.129,67.0892],[137.152,67.1234],[137.193,67.1859],[137.203,67.2012],[137.232,67.25],[137.268,67.3155],[137.27,67.3189],[137.302,67.3822],[137.329,67.4417],[137.333,67.4502],[137.362,67.5193],[137.381,67.5692],[137.388,67.5894],[137.411,67.6605],[137.423,67.7005],[137.432,67.7324],[137.45,67.805],[137.456,67.8351],[137.465,67.8782],[137.478,67.9519],[137.481,67.972],[137.487,68.0261],[137.494,68.1005],[137.495,68.1107],[137.499,68.1752],[137.5,68.25],[137.5,96.25],[137.498,96.3334],[137.495,96.3893],[137.493,96.4167],[137.481,96.528],[137.474,96.5699],[137.456,96.6649],[126.465,152.122],[126.45,152.195],[126.448,152.202],[126.432,152.268],[126.411,152.34],[126.408,152.349],[126.388,152.411],[126.38,152.432],[126.362,152.481],[126.357,152.492],[126.333,152.55],[126.302,152.618],[126.296,152.631],[126.268,152.685],[126.232,152.75],[126.223,152.765],[126.193,152.814],[126.152,152.877],[126.141,152.893],[126.109,152.938],[126.064,152.997],[126.05,153.014],[126.016,153.055],[125.966,153.11],[125.949,153.128],[125.914,153.164],[125.86,153.216],[125.84,153.234],[125.805,153.266],[125.747,153.314],[125.724,153.332],[125.688,153.359],[125.627,153.402],[125.6,153.42],[125.564,153.443],[125.5,153.482],[125.47,153.499],[125.435,153.518],[125.368,153.552],[125.335,153.568],[125.3,153.583],[125.231,153.612],[125.194,153.626],[125.161,153.638],[125.09,153.661],[125.05,153.673],[125.018,153.682],[124.945,153.7],[124.902,153.709],[124.872,153.715],[124.798,153.728],[124.752,153.734],[124.724,153.737],[124.649,153.744],[124.601,153.747],[124.575,153.749],[124.5,153.75],[84.5,153.75],[84.4252,153.749],[84.421,153.748],[84.3505,153.744],[84.3421,153.744],[84.2761,153.737],[84.225,153.731],[84.2019,153.728],[84.1282,153.715],[84.1083,153.711],[84.055,153.7],[83.9923,153.684],[83.9824,153.682],[83.9105,153.661],[83.8772,153.651],[83.8394,153.638],[83.8182,153.63],[83.7693,153.612],[83.7634,153.609],[83.7002,153.583],[83.6513,153.561],[83.6322,153.552],[83.5655,153.518],[83.5412,153.505],[83.5,153.482],[83.4359,153.443],[83.4336,153.442],[83.3734,153.402],[83.329,153.371],[83.3124,153.359],[83.253,153.314],[83.228,153.293],[83.1954,153.266],[83.1397,153.216],[83.1311,153.208],[83.0858,153.164],[83.0389,153.116],[83.0339,153.11],[82.9841,153.055],[82.9521,153.017],[82.9363,152.997],[82.8908,152.938],[82.8713,152.911],[82.8475,152.877],[82.8066,152.814],[82.7971,152.799],[82.7679,152.75],[82.7318,152.685],[82.73,152.681],[82.6981,152.618],[82.6706,152.558],[82.6669,152.55],[82.6383,152.481],[82.6194,152.431],[82.6122,152.411],[82.5889,152.34],[82.577,152.299],[82.5682,152.268],[82.5501,152.195],[82.5435,152.165],[82.5349,152.122],[82.5223,152.048],[82.5194,152.028],[82.5126,151.974],[82.5056,151.899],[82.5049,151.889],[82.5014,151.825],[82.5,151.75],[82.5,68.25]]
M73 P0 R31
M106 S0
M106 P2 S0
;TYPE:Custom
M140 S0
M104 S0 
START_PRINT EXTRUDER_TEMP=250 BED_TEMP=80
G90
G21
M83 ; use relative distances for extrusion
; filament start gcode
M106 S0
M106 P2 S0
;LAYER_CHANGE
;Z:0.2
;HEIGHT:0.2
;BEFORE_LAYER_CHANGE
;0.2
G92 E0

G1 E-.6 F2400
;_SET_FAN_SPEED_CHANGING_LAYER
SET_VELOCITY_LIMIT ACCEL=500 ACCEL_TO_DECEL=250
SET_VELOCITY_LIMIT SQUARE_CORNER_VELOCITY=9
EXCLUDE_OBJECT_START NAME=без_стенки_блоки_.stp_id_0_copy_0
G1 Z.2 F42000
G1 X134.15 Y98.395
G1 Z.2
G1 E.6 F2400
;TYPE:Support
;WIDTH:0.5
G1 F3600
G1 X134.355 Y98.6 E.01058
G1 X135.709 Y98.59 E.04941
G1 X135.709 Y102.43 E.14012
G1 X127.078 Y102.43 E.31491
G1 X127.078 Y91.422 E.40164
G1 X134.15 Y91.422 E.25802
G1 X134.15 Y98.326 E.25191
G1 X127.49 Y102.019 F42000
G1 F3600
G1 X127.49 Y91.833 E.37162
G1 X133.739 Y91.833 E.228
G1 X133.739 Y98.565 E.24562
G1 X134.185 Y99.011 E.02301
G1 X135.298 Y99.011 E.04062
G1 X135.298 Y102.019 E.10973
G1 X127.49 Y102.019 E.28489
G1 X127.997 Y101.511 F42000
G1 F3600
G1 X127.997 Y92.341 E.33456
G1 X133.231 Y92.341 E.19094
G1 X133.231 Y98.776 E.23477
G1 X133.974 Y99.519 E.03836
G1 X134.79 Y99.519 E.02976
G1 X134.79 Y101.511 E.07267
G1 X127.997 Y101.511 E.24783
G1 X128.505 Y101.003 F42000
G1 F3600
G1 X128.505 Y92.849 E.2975
G1 X132.723 Y92.849 E.15388
G1 X132.723 Y98.986 E.22391
G1 X133.764 Y100.027 E.05371
G1 X134.282 Y100.027 E.01891
G1 X134.282 Y101.003 E.03561
G1 X128.505 Y101.003 E.21077
G1 X129.013 Y100.495 F42000
G1 F3600
G1 X129.013 Y93.357 E.26044
G1 X132.215 Y93.357 E.11682
G1 X132.215 Y99.196 E.21306
G1 X133.514 Y100.495 E.06701
G1 X129.013 Y100.495 E.16421
G1 X129.521 Y99.987 F42000
G1 F3600
G1 X129.521 Y93.865 E.22338
G1 X131.707 Y93.865 E.07976
G1 X131.707 Y99.407 E.20221
G1 X132.288 Y99.987 E.02995
G1 X129.521 Y99.987 E.10094
G1 X130.029 Y99.479 F42000
G1 F3600
G1 X130.029 Y94.373 E.18632
G1 X131.199 Y94.373 E.0427
G1 X131.199 Y99.479 E.18632
G1 X130.029 Y99.479 E.0427
;WIPE_START
G1 X131.199 Y99.479 E-.35113
G1 X131.199 Y98.65 E-.24887
;WIPE_END
G1 Z.4 F42000
G1 X123.35 Y69.398 Z.4
G1 Z.2
G1 E.6 F2400
;TYPE:Inner wall
;WIDTH:0.499999
G1 F3600
G1 X123.352 Y150.602 E2.9628
G1 X85.648 Y150.602 E1.37568
G1 X85.65 Y69.398 E2.96282
G1 X123.31 Y69.398 E1.37407
G1 X123.853 Y68.941 F42000
G1 F3600
G1 X123.807 Y69.079 E.00528
G1 X123.809 Y151.059 E2.99115
G1 X85.191 Y151.059 E1.40903
G1 X85.193 Y68.941 E2.99617
G1 X123.813 Y68.941 E1.4091
G1 X124.802 Y68.462 F42000
;WIDTH:0.459162
G1 F3600
G1 X124.62 Y68.555 E.0068
;WIDTH:0.499999
G1 X124.401 Y68.667 E.00896
G1 X124.264 Y69.079 E.01582
G1 X124.266 Y151.516 E3.00783
G1 X84.734 Y151.516 E1.44239
M73 P1 R31
G1 X84.736 Y68.484 E3.02953
G1 X124.31 Y68.484 E1.44391
G1 X124.574 Y68.464 E.00967
;WIDTH:0.459162
G1 X124.838 Y68.443 E.00881
G1 X124.838 Y68.444 E.00003
G1 X124.95 Y68.85 F42000
;TYPE:Outer wall
;WIDTH:0.499999
G1 F3600
G1 X124.767 Y68.941 E.00746
G1 X124.721 Y69.079 E.00527
G1 X124.723 Y151.741 E3.01601
G1 X124.623 Y151.91 E.00719
G1 X124.466 Y151.973 E.00619
G1 X84.509 Y151.973 E1.45785
G1 X84.34 Y151.873 E.00719
G1 X84.277 Y151.716 E.00619
G1 X84.279 Y68.29 E3.04388
G1 X84.363 Y68.098 E.00763
G1 X84.539 Y68.027 E.00695
G1 X134.671 Y68.027 E1.82913
G1 X135.546 Y68.047 E.03193
G1 X135.677 Y68.134 E.00574
G1 X135.721 Y68.332 E.00738
G1 X135.723 Y97.826 E1.07613
G1 X135.6 Y97.846 E.00454
G1 X134.9 Y97.849 E.02553
G1 X134.9 Y69.079 E1.04972
G1 X134.833 Y68.917 E.00639
G1 X134.671 Y68.85 E.00637
G1 X124.99 Y68.85 E.35324
G1 X124.838 Y68.443 F42000
;TYPE:Inner wall
;WIDTH:0.418324
G1 F3600
G1 X124.95 Y68.439 E.00334
;WIDTH:0.408626
G1 X134.671 Y68.439 E.28379
;WIDTH:0.452247
G1 X134.777 Y68.461 E.00353
;WIDTH:0.49601
G1 X134.883 Y68.482 E.00391
;WIDTH:0.539773
G1 X134.989 Y68.504 E.00429
;WIDTH:0.583536
G1 X135.095 Y68.526 E.00466
;WIDTH:0.627298
G1 X135.201 Y68.548 E.00504
G1 X135.223 Y68.654 E.00505
;WIDTH:0.583285
G1 X135.245 Y68.76 E.00467
;WIDTH:0.539271
G1 X135.267 Y68.866 E.00429
;WIDTH:0.495258
G1 X135.289 Y68.972 E.00391
;WIDTH:0.451244
G1 X135.311 Y69.079 E.00353
;WIDTH:0.408366
G1 X135.311 Y97.436 E.82723
;WIPE_START
G1 X135.311 Y95.436 E-.6
;WIPE_END
G1 Z.4 F42000
G1 X108.274 Y100.564 Z.4
G1 Z.2
G1 E.6 F2400
;WIDTH:0.499999
G1 F3600
G1 X108.199 Y100.892 E.01228
G1 X107.974 Y101.458 E.02221
G1 X107.631 Y102.017 E.02395
G1 X107.218 Y102.503 E.02328
G1 X106.777 Y102.878 E.0211
G1 X106.285 Y103.182 E.0211
G1 X105.754 Y103.41 E.0211
G1 X105.195 Y103.556 E.0211
G1 X104.639 Y103.615 E.02038
G1 X104.042 Y103.592 E.02181
G1 X103.256 Y103.41 E.02943
G1 X102.923 Y103.279 E.01306
G1 X102.473 Y103.041 E.01856
G1 X101.958 Y102.666 E.02325
G1 X101.411 Y102.073 E.02943
G1 X101.068 Y101.535 E.02327
G1 X100.775 Y100.784 E.02943
G1 X100.696 Y100.435 E.01303
G1 X100.629 Y99.844 E.02172
G1 X100.629 Y93.746 E.22247
G1 X100.677 Y93.143 E.02208
G1 X100.84 Y92.507 E.02397
G1 X100.97 Y92.174 E.01303
G1 X101.206 Y91.728 E.0184
G1 X101.582 Y91.209 E.02339
G1 X101.996 Y90.801 E.02119
G1 X102.463 Y90.461 E.0211
G1 X102.976 Y90.194 E.0211
G1 X103.523 Y90.007 E.0211
G1 X104.099 Y89.902 E.02135
G1 X104.9 Y89.905 E.02924
G1 X105.253 Y89.959 E.01303
G1 X105.744 Y90.09 E.01854
G1 X106.077 Y90.221 E.01306
G1 X106.527 Y90.459 E.01856
G1 X107.043 Y90.834 E.02327
G1 X107.449 Y91.246 E.0211
G1 X107.902 Y91.914 E.02946
G1 X108.057 Y92.237 E.01307
G1 X108.225 Y92.716 E.01854
G1 X108.304 Y93.065 E.01303
G1 X108.371 Y93.656 E.02172
G1 X108.371 Y99.754 E.22247
G1 X108.328 Y100.328 E.021
G1 X108.283 Y100.525 E.00738
G1 X107.83 Y100.462 F42000
G1 F3600
G1 X107.762 Y100.757 E.01103
G1 X107.566 Y101.251 E.0194
G1 X107.244 Y101.774 E.02241
G1 X106.883 Y102.192 E.02016
G1 X106.492 Y102.52 E.01861
G1 X106.057 Y102.786 E.01861
G1 X105.587 Y102.984 E.01861
G1 X105.093 Y103.11 E.01861
G1 X104.585 Y103.161 E.01861
G1 X104.076 Y103.136 E.01861
G1 X103.374 Y102.968 E.02632
G1 X102.686 Y102.637 E.02785
G1 X102.243 Y102.309 E.02014
G1 X101.757 Y101.775 E.02633
G1 X101.464 Y101.307 E.02016
G1 X101.207 Y100.633 E.02632
G1 X101.086 Y99.834 E.02947
G1 X101.086 Y93.746 E.22212
G1 X101.127 Y93.22 E.01927
G1 X101.281 Y92.625 E.02243
G1 X101.61 Y91.941 E.02767
G1 X101.94 Y91.494 E.02029
G1 X102.306 Y91.136 E.01867
G1 X102.72 Y90.839 E.01861
G1 X103.174 Y90.606 E.01861
G1 X103.658 Y90.443 E.01861
G1 X104.166 Y90.354 E.01884
G1 X104.883 Y90.362 E.02614
G1 X105.626 Y90.532 E.02781
G1 X106.314 Y90.863 E.02785
G1 X106.758 Y91.191 E.02016
G1 X107.114 Y91.557 E.01861
G1 X107.515 Y92.157 E.02634
G1 X107.793 Y92.867 E.02783
G1 X107.914 Y93.666 E.02947
G1 X107.914 Y99.754 E.22212
G1 X107.876 Y100.259 E.0185
G1 X107.839 Y100.423 E.00613
G1 X107.383 Y100.371 F42000
G1 F3600
G1 X107.309 Y100.67 E.01126
G1 X107.127 Y101.1 E.01702
G1 X106.857 Y101.531 E.01857
G1 X106.511 Y101.918 E.01895
G1 X106.122 Y102.221 E.01796
G1 X105.736 Y102.435 E.01612
G1 X105.322 Y102.589 E.01612
G1 X104.89 Y102.68 E.01611
G1 X104.449 Y102.705 E.01612
G1 X103.984 Y102.658 E.01705
G1 X103.492 Y102.527 E.01857
G1 X102.9 Y102.233 E.02411
G1 X102.496 Y101.925 E.01855
G1 X102.103 Y101.477 E.02172
G1 X101.83 Y101.022 E.01936
G1 X101.638 Y100.482 E.02092
G1 X101.543 Y99.8 E.02514
G1 X101.543 Y93.746 E.22086
G1 X101.591 Y93.234 E.01876
G1 X101.723 Y92.743 E.01856
G1 X102.014 Y92.154 E.02396
G1 X102.332 Y91.738 E.01911
G1 X102.697 Y91.407 E.01798
G1 X103.067 Y91.165 E.01612
G1 X103.468 Y90.98 E.01612
G1 X103.893 Y90.857 E.01616
G1 X104.361 Y90.799 E.0172
G1 X104.865 Y90.819 E.01841
G1 X105.507 Y90.973 E.0241
G1 X106.1 Y91.267 E.02413
G1 X106.511 Y91.582 E.01888
G1 X106.857 Y91.969 E.01895
G1 X107.127 Y92.4 E.01857
G1 X107.362 Y93.018 E.02411
G1 X107.457 Y93.7 E.02513
G1 X107.457 Y99.754 E.22086
G1 X107.415 Y100.241 E.01786
G1 X107.392 Y100.332 E.0034
G1 X106.941 Y100.26 F42000
;TYPE:Outer wall
G1 F3600
G1 X106.883 Y100.503 E.00911
G1 X106.74 Y100.857 E.01392
G1 X106.47 Y101.288 E.01857
G1 X106.188 Y101.594 E.01519
G1 X105.894 Y101.825 E.01363
G1 X105.569 Y102.009 E.01363
G1 X105.22 Y102.144 E.01363
G1 X104.856 Y102.224 E.01363
G1 X104.483 Y102.25 E.01363
G1 X104.102 Y102.217 E.01394
G1 X103.611 Y102.085 E.01856
G1 X103.114 Y101.829 E.02041
G1 X102.782 Y101.565 E.01547
G1 X102.45 Y101.179 E.01857
G1 X102.238 Y100.811 E.01549
G1 X102.07 Y100.331 E.01856
G1 X102 Y99.768 E.02071
G1 X102 Y93.746 E.21969
G1 X102.033 Y93.353 E.01441
G1 X102.165 Y92.861 E.01856
G1 X102.418 Y92.368 E.02026
G1 X102.679 Y92.037 E.01536
G1 X102.955 Y91.785 E.01363
G1 X103.265 Y91.577 E.01363
G1 X103.603 Y91.417 E.01363
G1 X103.961 Y91.309 E.01364
G1 X104.344 Y91.256 E.0141
G1 X104.848 Y91.275 E.01841
G1 X105.389 Y91.415 E.02039
G1 X105.886 Y91.671 E.02041
G1 X106.213 Y91.929 E.01518
G1 X106.47 Y92.212 E.01395
G1 X106.74 Y92.643 E.01857
G1 X106.93 Y93.169 E.02039
G1 X107 Y93.732 E.02071
G1 X107 Y99.754 E.21969
G1 X106.969 Y100.139 E.01412
G1 X106.95 Y100.221 E.00306
;WIPE_START
G1 X106.883 Y100.503 E-.08691
G1 X106.74 Y100.857 E-.11447
G1 X106.47 Y101.288 E-.15268
G1 X106.188 Y101.594 E-.12488
G1 X105.894 Y101.825 E-.11208
G1 X105.868 Y101.84 E-.00898
;WIPE_END
G1 Z.4 F42000
G1 X108.275 Y128.56 Z.4
G1 Z.2
G1 E.6 F2400
;TYPE:Inner wall
G1 F3600
G1 X108.199 Y128.892 E.01242
G1 X108.001 Y129.402 E.01996
G1 X107.71 Y129.914 E.02152
G1 X107.377 Y130.339 E.01967
G1 X107.004 Y130.699 E.01891
G1 X106.543 Y131.035 E.02085
G1 X106.024 Y131.306 E.02133
G1 X105.372 Y131.509 E.02492
G1 X104.958 Y131.592 E.01541
G1 X104.404 Y131.619 E.02023
G1 X103.831 Y131.561 E.02103
G1 X103.274 Y131.421 E.02094
G1 X102.719 Y131.18 E.02208
G1 X102.254 Y130.887 E.02004
G1 X101.826 Y130.549 E.01991
G1 X101.484 Y130.159 E.01893
G1 X101.238 Y129.83 E.01499
G1 X100.943 Y129.264 E.02327
G1 X100.775 Y128.784 E.01856
G1 X100.696 Y128.435 E.01303
G1 X100.629 Y127.844 E.02172
G1 X100.629 Y121.746 E.22247
G1 X100.677 Y121.143 E.02208
G1 X100.84 Y120.507 E.02397
G1 X100.97 Y120.174 E.01303
G1 X101.206 Y119.728 E.0184
G1 X101.582 Y119.209 E.02339
G1 X101.996 Y118.801 E.02119
G1 X102.463 Y118.461 E.0211
G1 X102.976 Y118.194 E.0211
G1 X103.523 Y118.007 E.0211
G1 X104.099 Y117.902 E.02135
G1 X104.881 Y117.904 E.02852
G1 X105.254 Y117.959 E.01375
G1 X105.744 Y118.09 E.01854
G1 X106.077 Y118.221 E.01306
G1 X106.534 Y118.462 E.01885
G1 X107.043 Y118.834 E.02298
G1 X107.449 Y119.246 E.0211
G1 X107.902 Y119.914 E.02946
G1 X108.057 Y120.237 E.01307
G1 X108.225 Y120.716 E.01854
G1 X108.304 Y121.065 E.01303
G1 X108.371 Y121.656 E.02172
G1 X108.371 Y127.754 E.22247
G1 X108.328 Y128.328 E.021
G1 X108.284 Y128.521 E.00724
G1 X107.831 Y128.458 F42000
G1 F3600
G1 X107.762 Y128.757 E.01117
G1 X107.564 Y129.255 E.01957
G1 X107.304 Y129.697 E.01871
G1 X106.942 Y130.133 E.02066
G1 X106.56 Y130.47 E.01859
G1 X106.132 Y130.747 E.01862
G1 X105.626 Y130.968 E.02013
G1 X105.134 Y131.1 E.01857
G1 X104.585 Y131.161 E.02016
G1 X104.076 Y131.136 E.01861
G1 X103.577 Y131.035 E.01859
G1 X103.106 Y130.851 E.01842
G1 X102.681 Y130.634 E.01743
G1 X102.276 Y130.334 E.01839
G1 X101.83 Y129.86 E.02372
G1 X101.633 Y129.601 E.01188
G1 X101.375 Y129.113 E.02016
G1 X101.207 Y128.633 E.01856
G1 X101.086 Y127.834 E.02947
G1 X101.086 Y121.746 E.22212
G1 X101.127 Y121.22 E.01927
