; HEADER_BLOCK_START
; generated by OrcaSlicer 2.1.0 on 2024-10-31 at 15:36:03
; total layer number: 94
; filament_density: 1.27
; filament_diameter: 1.75
; max_z_height: 15.20
; HEADER_BLOCK_END

; THUMBNAIL_BLOCK_START

;
; THUMBNAIL_BLOCK_END

; THUMBNAIL_BLOCK_START

;
; THUMBNAIL_BLOCK_END

; external perimeters extrusion width = 0.42mm
; perimeters extrusion width = 0.45mm
; infill extrusion width = 0.45mm
; solid infill extrusion width = 0.42mm
; top infill extrusion width = 0.42mm
; support material extrusion width = 0.42mm
; first layer extrusion width = 0.50mm

; EXECUTABLE_BLOCK_START
EXCLUDE_OBJECT_DEFINE NAME=без_стенки_БЛОКИ_С_3_ДЫРКАМИ.stp_id_0_copy_0 CENTER=110,110 POLYGON=[[82.5,68.25],[82.5014,68.1752],[82.5056,68.1005],[82.5126,68.0261],[82.5198,67.9707],[82.5223,67.9519],[82.5349,67.8782],[82.5501,67.805],[82.5682,67.7324],[82.5889,67.6605],[82.6122,67.5894],[82.6383,67.5193],[82.6669,67.4502],[82.6981,67.3822],[82.7318,67.3155],[82.7679,67.25],[82.8066,67.1859],[82.8475,67.1234],[82.8908,67.0624],[82.9363,67.003],[82.9841,66.9454],[83.0339,66.8897],[83.0858,66.8358],[83.1397,66.7839],[83.1954,66.7341],[83.253,66.6863],[83.3124,66.6408],[83.3734,66.5975],[83.4359,66.5566],[83.5,66.518],[83.5655,66.4818],[83.6322,66.4481],[83.7002,66.4169],[83.7693,66.3883],[83.8394,66.3622],[83.9105,66.3389],[83.9824,66.3181],[84.055,66.3001],[84.1282,66.2849],[84.2019,66.2723],[84.2207,66.2698],[84.2761,66.2626],[84.3505,66.2556],[84.4252,66.2514],[84.5,66.25],[124.5,66.25],[124.649,66.2556],[124.798,66.2723],[124.945,66.3001],[125.09,66.3389],[125.231,66.3883],[125.368,66.4481],[125.5,66.518],[125.627,66.5975],[125.747,66.6863],[125.86,66.7839],[125.966,66.8897],[126.064,67.003],[126.152,67.1234],[126.193,67.1859],[126.232,67.25],[126.268,67.3155],[126.302,67.3822],[126.333,67.4502],[126.362,67.5193],[126.388,67.5894],[126.411,67.6605],[126.421,67.6947],[126.432,67.7324],[126.45,67.805],[126.465,67.8782],[137.5,121.75],[137.5,153.75],[84.5,153.75],[84.4252,153.749],[84.3505,153.744],[84.2761,153.737],[84.2019,153.728],[84.1282,153.715],[84.123,153.714],[84.055,153.7],[83.9824,153.682],[83.9105,153.661],[83.8394,153.638],[83.7693,153.612],[83.7677,153.611],[83.7002,153.583],[83.6322,153.552],[83.6218,153.547],[83.5655,153.518],[83.5,153.482],[83.4359,153.443],[83.3734,153.402],[83.3435,153.381],[83.253,153.314],[83.2137,153.28],[83.1397,153.216],[83.0919,153.169],[83.0339,153.11],[82.9791,153.047],[82.9363,152.997],[82.8765,152.916],[82.8475,152.877],[82.7849,152.777],[82.7679,152.75],[82.6981,152.618],[82.6383,152.481],[82.5889,152.34],[82.5837,152.321],[82.5501,152.195],[82.5428,152.16],[82.5223,152.048],[82.5056,151.899],[82.502,151.833],[82.5,151.75],[82.5,68.25]]
M73 P0 R32
M106 S0
M106 P2 S0
;TYPE:Custom
M140 S0
M104 S0 
START_PRINT EXTRUDER_TEMP=250 BED_TEMP=80
G90
G21
M83 ; use relative distances for extrusion
; filament start gcode
M106 S0
M106 P2 S0
;LAYER_CHANGE
;Z:0.2
;HEIGHT:0.2
;BEFORE_LAYER_CHANGE
;0.2
G92 E0

G1 E-.6 F2400
;_SET_FAN_SPEED_CHANGING_LAYER
SET_VELOCITY_LIMIT ACCEL=500 ACCEL_TO_DECEL=250
SET_VELOCITY_LIMIT SQUARE_CORNER_VELOCITY=9
EXCLUDE_OBJECT_START NAME=без_стенки_БЛОКИ_С_3_ДЫРКАМИ.stp_id_0_copy_0
G1 Z.2 F42000
G1 X135.709 Y122.779
G1 Z.2
G1 E.6 F2400
;TYPE:Support
;WIDTH:0.5
G1 F3600
G1 X134.355 Y122.779 E.04941
G1 X134.15 Y122.984 E.01058
G1 X134.15 Y128.578 E.20412
G1 X125.473 Y128.578 E.31659
G1 X125.473 Y117.57 E.40164
G1 X135.709 Y117.57 E.37349
G1 X135.709 Y122.71 E.18755
G1 X125.884 Y117.981 F42000
G1 F3600
G1 X135.298 Y117.981 E.34347
G1 X135.298 Y122.367 E.16003
G1 X134.185 Y122.367 E.04062
G1 X133.739 Y122.813 E.02301
G1 X133.739 Y128.167 E.19532
G1 X125.884 Y128.167 E.28657
G1 X125.884 Y117.981 E.37162
G1 X126.392 Y118.489 F42000
G1 F3600
G1 X134.79 Y118.489 E.30641
G1 X134.79 Y121.859 E.12297
G1 X133.974 Y121.859 E.02976
G1 X133.231 Y122.603 E.03836
G1 X133.231 Y127.659 E.18447
G1 X126.392 Y127.659 E.24951
G1 X126.392 Y118.489 E.33456
G1 X126.9 Y118.997 F42000
G1 F3600
G1 X134.282 Y118.997 E.26935
G1 X134.282 Y121.352 E.08591
G1 X133.764 Y121.352 E.01891
G1 X132.723 Y122.393 E.05371
G1 X132.723 Y127.151 E.17361
G1 X126.9 Y127.151 E.21245
G1 X126.9 Y118.997 E.2975
G1 X127.408 Y119.505 F42000
G1 F3600
G1 X133.774 Y119.505 E.23229
G1 X133.774 Y120.844 E.04885
G1 X133.554 Y120.844 E.00805
G1 X132.215 Y122.182 E.06907
G1 X132.215 Y126.643 E.16276
G1 X127.408 Y126.643 E.17539
G1 X127.408 Y119.505 E.26044
G1 X127.916 Y120.013 F42000
G1 F3600
G1 X133.266 Y120.013 E.19523
G1 X133.266 Y120.413 E.01459
G1 X131.707 Y121.972 E.08046
G1 X131.707 Y126.135 E.1519
G1 X127.916 Y126.135 E.13833
G1 X127.916 Y120.013 E.22338
G1 X128.424 Y120.521 F42000
G1 F3600
G1 X132.44 Y120.521 E.14655
G1 X131.199 Y121.761 E.06403
G1 X131.199 Y125.627 E.14105
G1 X128.424 Y125.627 E.10127
G1 X128.424 Y120.521 E.18632
G1 X128.931 Y121.028 F42000
G1 F3600
G1 X131.214 Y121.028 E.08328
G1 X130.691 Y121.551 E.02697
G1 X130.691 Y125.119 E.1302
G1 X128.932 Y125.119 E.06421
G1 X128.931 Y121.028 E.14926
G1 X129.439 Y121.536 F42000
G1 F3600
G1 X130.184 Y121.536 E.02716
G1 X130.184 Y124.612 E.1122
G1 X129.439 Y124.612 E.02715
G1 X129.439 Y121.536 E.1122
;WIPE_START
G1 X129.439 Y123.536 E-.6
;WIPE_END
G1 Z.4 F42000
G1 X134.15 Y152.516 Z.4
G1 Z.2
G1 E.6 F2400
G1 F3600
G1 X134.355 Y152.721 E.01058
G1 X135.709 Y152.721 E.04941
G1 X135.709 Y157.103 E.15987
G1 X127.078 Y157.103 E.31491
G1 X127.078 Y148.472 E.31491
G1 X134.15 Y148.472 E.25802
G1 X134.15 Y152.448 E.14506
G1 X127.49 Y148.883 F42000
G1 F3600
G1 X133.739 Y148.883 E.228
G1 X133.739 Y152.687 E.13877
G1 X134.185 Y153.133 E.02301
G1 X135.298 Y153.133 E.04062
G1 X135.298 Y156.692 E.12985
G1 X127.49 Y156.692 E.28489
G1 X127.49 Y148.883 E.28489
G1 X127.997 Y149.391 F42000
G1 F3600
G1 X133.231 Y149.391 E.19094
G1 X133.231 Y152.897 E.12792
G1 X133.974 Y153.641 E.03836
G1 X134.79 Y153.641 E.02976
G1 X134.79 Y156.184 E.09279
G1 X127.997 Y156.184 E.24783
G1 X127.997 Y149.391 E.24783
G1 X128.505 Y149.899 F42000
G1 F3600
G1 X132.723 Y149.899 E.15388
G1 X132.723 Y153.107 E.11706
G1 X133.764 Y154.148 E.05371
G1 X134.282 Y154.148 E.01891
G1 X134.282 Y155.676 E.05573
G1 X128.505 Y155.676 E.21077
G1 X128.505 Y149.899 E.21077
G1 X129.013 Y150.407 F42000
G1 F3600
G1 X132.215 Y150.407 E.11682
G1 X132.215 Y153.318 E.10621
G1 X133.554 Y154.656 E.06907
G1 X133.774 Y154.656 E.00805
G1 X133.774 Y155.168 E.01867
G1 X129.013 Y155.168 E.17371
G1 X129.013 Y150.407 E.17371
G1 X129.521 Y150.915 F42000
G1 F3600
G1 X131.707 Y150.915 E.07976
G1 X131.707 Y153.528 E.09535
G1 X132.839 Y154.66 E.05841
G1 X129.521 Y154.66 E.12106
G1 X129.521 Y150.915 E.13665
G1 X130.029 Y151.423 F42000
G1 F3600
G1 X131.199 Y151.423 E.0427
G1 X131.199 Y153.739 E.0845
G1 X131.613 Y154.152 E.02135
G1 X130.029 Y154.152 E.0578
G1 X130.029 Y151.423 E.09959
;WIPE_START
G1 X130.029 Y153.423 E-.6
;WIPE_END
G1 Z.4 F42000
G1 X123.352 Y150.602 Z.4
G1 Z.2
G1 E.6 F2400
;TYPE:Inner wall
;WIDTH:0.499999
G1 F3600
G1 X108.06 Y150.602 E.55797
G1 X108.349 Y150.133 E.0201
G1 X108.576 Y149.602 E.02107
G1 X108.722 Y149.042 E.0211
G1 X108.788 Y148.351 E.02532
G1 X108.778 Y142.366 E.21838
G1 X108.722 Y141.869 E.01826
G1 X108.643 Y141.521 E.013
G1 X108.474 Y141.036 E.01874
G1 X108.317 Y140.711 E.01317
G1 X107.865 Y140.043 E.02943
G1 X107.411 Y139.595 E.02326
G1 X106.833 Y139.184 E.02588
G1 X106.237 Y138.916 E.02385
G1 X105.833 Y138.796 E.01539
G1 X105.087 Y138.683 E.02754
G1 X104.442 Y138.711 E.02352
G1 X103.939 Y138.804 E.01867
G1 X103.392 Y138.992 E.0211
G1 X102.879 Y139.259 E.0211
G1 X102.412 Y139.599 E.0211
G1 X101.964 Y140.053 E.02327
G1 X101.508 Y140.718 E.02943
G1 X101.256 Y141.304 E.02326
G1 X101.075 Y142.09 E.02942
G1 X101.045 Y142.902 E.02966
G1 X101.045 Y148.468 E.20306
G1 X101.192 Y149.382 E.03379
G1 X101.485 Y150.134 E.02944
G1 X101.773 Y150.601 E.02003
G1 X85.648 Y150.6 E.58833
G1 X85.648 Y69.398 E2.96275
G1 X123.35 Y69.399 E1.37561
M73 P1 R32
G1 X123.352 Y150.562 E2.96135
G1 X123.81 Y151.06 F42000
G1 F3600
G1 X106.988 Y151.059 E.61375
G1 X107.359 Y150.731 E.01806
G1 X107.69 Y150.335 E.01884
G1 X107.953 Y149.904 E.0184
G1 X108.151 Y149.435 E.01858
G1 X108.277 Y148.941 E.01861
G1 X108.331 Y148.351 E.02159
G1 X108.323 Y142.417 E.21652
G1 X108.211 Y141.671 E.02751
G1 X107.93 Y140.954 E.02811
G1 X107.53 Y140.354 E.02633
G1 X107.14 Y139.963 E.02014
G1 X106.61 Y139.583 E.02379
G1 X106.055 Y139.335 E.0222
G1 X105.748 Y139.245 E.01165
G1 X105.086 Y139.14 E.02445
G1 X104.583 Y139.152 E.01838
G1 X104.074 Y139.241 E.01884
G1 X103.591 Y139.404 E.01861
G1 X103.137 Y139.636 E.01861
G1 X102.723 Y139.934 E.01861
G1 X102.332 Y140.324 E.02016
G1 X101.919 Y140.917 E.02633
G1 X101.698 Y141.422 E.02014
G1 X101.531 Y142.124 E.02632
G1 X101.502 Y142.902 E.02841
G1 X101.502 Y148.432 E.20175
G1 X101.623 Y149.231 E.0295
G1 X101.791 Y149.711 E.01858
G1 X102.05 Y150.199 E.02013
G1 X102.358 Y150.605 E.01861
G1 X102.854 Y151.058 E.0245
G1 X85.191 Y151.057 E.64445
G1 X85.191 Y68.941 E2.9961
G1 X123.807 Y68.942 E1.40896
G1 X123.81 Y151.02 E2.9947
M73 P1 R31
G1 X124.267 Y151.517 F42000
G1 F3600
G1 X106.143 Y151.516 E.66125
G1 X105.829 Y151.539 E.0115
;WIDTH:0.453922
G1 X105.514 Y151.562 E.01034
;WIDTH:0.407845
G1 X104.916 Y151.577 E.01742
;WIDTH:0.403261
G1 X104.367 Y151.564 E.01582
;WIDTH:0.45163
G1 X104.112 Y151.54 E.00834
;WIDTH:0.499999
G1 X103.858 Y151.515 E.00932
G1 X84.734 Y151.514 E.69777
G1 X84.734 Y68.484 E3.02946
G1 X124.264 Y68.484 E1.44231
G1 X124.267 Y151.477 E3.02806
G1 X124.724 Y151.974 F42000
;TYPE:Outer wall
G1 F3600
G1 X84.54 Y151.971 E1.46616
G1 X84.348 Y151.887 E.00763
G1 X84.277 Y151.711 E.00695
G1 X84.277 Y68.288 E3.04378
G1 X84.354 Y68.109 E.0071
G1 X84.539 Y68.027 E.00737
G1 X124.516 Y68.027 E1.45862
G1 X124.677 Y68.134 E.00706
G1 X124.721 Y68.332 E.00738
G1 X124.724 Y151.934 E3.0503
;WIPE_START
G1 X122.724 Y151.936 E-.6
;WIPE_END
G1 Z.4 F42000
G1 X104.723 Y79.601 Z.4
G1 Z.2
G1 E.6 F2400
;TYPE:Inner wall
G1 F3600
G1 X105.316 Y79.603 E.02164
G1 X105.669 Y79.656 E.01302
G1 X106.16 Y79.788 E.01857
G1 X106.746 Y80.039 E.02325
G1 X107.411 Y80.495 E.02942
G1 X107.674 Y80.739 E.01307
G1 X108.006 Y81.124 E.01857
G1 X108.348 Y81.662 E.02326
G1 X108.641 Y82.413 E.02942
G1 X108.721 Y82.762 E.01305
G1 X108.788 Y83.354 E.02174
G1 X108.788 Y89.251 E.21518
G1 X108.744 Y89.825 E.021
G1 X108.616 Y90.39 E.02112
G1 X108.411 Y90.913 E.02049
G1 X108.153 Y91.371 E.01918
G1 X107.832 Y91.79 E.01927
G1 X107.421 Y92.197 E.0211
G1 X106.954 Y92.537 E.02108
G1 X106.231 Y92.883 E.02923
G1 X105.734 Y93.025 E.01889
G1 X105.036 Y93.115 E.02567
G1 X104.459 Y93.089 E.02108
G1 X103.869 Y92.96 E.02202
G1 X103.392 Y92.804 E.01831
G1 X102.889 Y92.539 E.02075
G1 X102.593 Y92.337 E.01306
G1 X102.208 Y92.006 E.01855
G1 X101.789 Y91.525 E.02327
G1 X101.467 Y91.003 E.02236
G1 X101.192 Y90.282 E.02816
G1 X101.112 Y89.933 E.01306
G1 X101.045 Y89.341 E.02173
G1 X101.045 Y83.444 E.21516
G1 X101.093 Y82.841 E.02208
G1 X101.256 Y82.204 E.02399
G1 X101.511 Y81.612 E.02353
G1 X101.819 Y81.13 E.02086
G1 X102.369 Y80.541 E.0294
G1 X102.879 Y80.159 E.02327
G1 X103.392 Y79.892 E.0211
G1 X103.939 Y79.704 E.0211
G1 X104.515 Y79.6 E.02136
G1 X104.683 Y79.601 E.00611
G1 X104.728 Y80.054 F42000
G1 F3600
G1 X105.299 Y80.06 E.0208
G1 X106.042 Y80.229 E.02783
G1 X106.548 Y80.451 E.02014
G1 X107.14 Y80.863 E.02631
G1 X107.659 Y81.423 E.02787
G1 X107.952 Y81.89 E.02014
G1 X108.209 Y82.564 E.02631
G1 X108.331 Y83.363 E.02949
G1 X108.331 Y89.251 E.21483
G1 X108.292 Y89.757 E.0185
G1 X108.179 Y90.255 E.01862
G1 X107.965 Y90.783 E.02082
G1 X107.687 Y91.24 E.0195
G1 X107.359 Y91.631 E.01861
G1 X106.976 Y91.968 E.01861
G1 X106.51 Y92.262 E.0201
G1 X106.048 Y92.464 E.0184
G1 X105.511 Y92.608 E.02029
G1 X105.002 Y92.659 E.01867
G1 X104.493 Y92.634 E.01859
G1 X103.987 Y92.519 E.01892
G1 X103.552 Y92.373 E.01674
G1 X103.103 Y92.135 E.01856
G1 X102.506 Y91.659 E.02784
G1 X102.146 Y91.24 E.02016
G1 X101.857 Y90.763 E.02036
G1 X101.623 Y90.131 E.02458
G1 X101.502 Y89.332 E.0295
G1 X101.502 Y83.444 E.21481
G1 X101.544 Y82.918 E.01927
G1 X101.698 Y82.322 E.02244
G1 X101.923 Y81.811 E.02039
G1 X102.196 Y81.388 E.01838
G1 X102.692 Y80.864 E.02631
G1 X103.137 Y80.536 E.02016
G1 X103.591 Y80.304 E.01861
G1 X104.074 Y80.141 E.01861
G1 X104.583 Y80.052 E.01884
G1 X104.688 Y80.053 E.00386
G1 X104.644 Y80.514 F42000
G1 F3600
G1 X104.777 Y80.497 E.00491
G1 X105.281 Y80.516 E.01839
G1 X105.924 Y80.671 E.02412
G1 X106.406 Y80.893 E.01939
G1 X106.868 Y81.231 E.02086
G1 X107.313 Y81.721 E.02415
G1 X107.586 Y82.175 E.01934
G1 X107.778 Y82.715 E.02092
G1 X107.873 Y83.398 E.02516
G1 X107.873 Y89.251 E.21356
G1 X107.831 Y89.739 E.01786
G1 X107.725 Y90.168 E.01612
G1 X107.557 Y90.577 E.01613
G1 X107.329 Y90.955 E.0161
G1 X107.048 Y91.295 E.01612
G1 X106.719 Y91.59 E.01612
G1 X106.283 Y91.862 E.01876
G1 X105.797 Y92.071 E.01927
G1 X105.306 Y92.178 E.01834
G1 X104.62 Y92.185 E.02505
G1 X104.105 Y92.077 E.01916
G1 X103.766 Y91.969 E.01301
G1 X103.316 Y91.731 E.01856
G1 X102.804 Y91.313 E.02412
G1 X102.482 Y90.927 E.01832
G1 X102.223 Y90.46 E.01949
G1 X102.055 Y89.98 E.01858
G1 X101.959 Y89.297 E.02516
G1 X101.959 Y83.444 E.21354
G1 X102.008 Y82.932 E.01876
G1 X102.139 Y82.44 E.01857
G1 X102.361 Y81.96 E.01931
G1 X102.655 Y81.547 E.01849
G1 X103.015 Y81.187 E.01857
G1 X103.483 Y80.863 E.02077
M73 P2 R31
G1 X103.884 Y80.678 E.01612
G1 X104.31 Y80.555 E.01616
G1 X104.604 Y80.519 E.01082
G1 X104.697 Y80.963 F42000
;TYPE:Outer wall
G1 F3600
G1 X104.76 Y80.954 E.00232
G1 X105.264 Y80.973 E.01839
G1 X105.806 Y81.112 E.02042
G1 X106.187 Y81.296 E.01547
G1 X106.597 Y81.598 E.01856
G1 X106.966 Y82.019 E.02043
G1 X107.179 Y82.386 E.01547
G1 X107.347 Y82.866 E.01856
G1 X107.416 Y83.43 E.02073
G1 X107.416 Y89.251 E.21239
G1 X107.385 Y89.637 E.01412
G1 X107.3 Y90.001 E.01363
G1 X107.161 Y90.348 E.01365
G1 X106.813 Y90.869 E.02284
G1 X106.461 Y91.213 E.01796
G1 X106.1 Y91.444 E.01566
G1 X105.642 Y91.64 E.01818
G1 X105.149 Y91.731 E.01827
G1 X104.561 Y91.722 E.02146
G1 X104.027 Y91.583 E.02012
G1 X103.53 Y91.327 E.02042
G1 X103.102 Y90.966 E.02041
G1 X102.854 Y90.661 E.01437
G1 X102.654 Y90.309 E.01474
G1 X102.486 Y89.829 E.01858
G1 X102.416 Y89.265 E.02073
G1 X102.416 Y83.444 E.21238
G1 X102.449 Y83.05 E.01442
G1 X102.581 Y82.559 E.01857
G1 X102.763 Y82.179 E.01535
G1 X102.978 Y81.87 E.01375
G1 X103.338 Y81.51 E.01857
G1 X103.681 Y81.275 E.01518
G1 X104.019 Y81.115 E.01363
G1 X104.377 Y81.007 E.01364
G1 X104.657 Y80.968 E.01032
;WIPE_START
G1 X104.76 Y80.954 E-.03105
G1 X105.264 Y80.973 E-.15121
G1 X105.806 Y81.112 E-.16786
G1 X106.187 Y81.296 E-.12717
G1 X106.517 Y81.539 E-.12271
;WIPE_END
G1 Z.4 F42000
G1 X104.157 Y110.028 Z.4
G1 Z.2
G1 E.6 F2400
;TYPE:Inner wall
G1 F3600
G1 X103.939 Y109.991 E.00806
G1 X103.392 Y109.804 E.0211
G1 X102.879 Y109.537 E.0211
G1 X102.421 Y109.2 E.02075
G1 X102.159 Y108.957 E.01306
G1 X101.827 Y108.571 E.01855
G1 X101.625 Y108.276 E.01307
G1 X101.388 Y107.826 E.01857
G1 X101.173 Y107.225 E.02328
G1 X101.045 Y106.362 E.03181
G1 X101.045 Y100.444 E.21593
G1 X101.093 Y99.841 E.02208
G1 X101.256 Y99.204 E.02399
G1 X101.511 Y98.612 E.02353
G1 X101.819 Y98.13 E.02086
G1 X102.369 Y97.541 E.0294
G1 X102.879 Y97.159 E.02327
G1 X103.392 Y96.892 E.0211
G1 X103.939 Y96.704 E.0211
G1 X104.515 Y96.6 E.02136
G1 X105.1 Y96.595 E.02132
G1 X105.613 Y96.642 E.01882
G1 X106.16 Y96.788 E.02063
G1 X106.536 Y96.941 E.01483
G1 X107.045 Y97.215 E.02108
G1 X107.459 Y97.532 E.01901
G1 X107.95 Y98.06 E.02633
G1 X108.179 Y98.368 E.01401
G1 X108.423 Y98.809 E.0184
G1 X108.641 Y99.413 E.02342
G1 X108.721 Y99.762 E.01305
G1 X108.788 Y100.354 E.02174
G1 X108.788 Y106.251 E.21518
G1 X108.744 Y106.825 E.021
G1 X108.616 Y107.39 E.02111
G1 X108.391 Y107.955 E.02221
G1 X108.052 Y108.507 E.02364
G1 X107.634 Y109.001 E.02358
G1 X107.194 Y109.375 E.02111
G1 X106.702 Y109.68 E.0211
G1 X106.176 Y109.906 E.0209
G1 X105.613 Y110.053 E.02121
G1 X105.036 Y110.115 E.02117
G1 X104.425 Y110.074 E.02236
G1 X104.196 Y110.035 E.00845
G1 X104.241 Y109.582 F42000
G1 F3600
G1 X104.074 Y109.554 E.00618
G1 X103.591 Y109.392 E.01861
