; HEADER_BLOCK_START
; generated by OrcaSlicer 2.1.0 on 2025-01-08 at 21:17:53
; total layer number: 743
; filament_density: 1.27
; filament_diameter: 1.75
; max_z_height: 116.80
; HEADER_BLOCK_END

; THUMBNAIL_BLOCK_START

;
; THUMBNAIL_BLOCK_END

; THUMBNAIL_BLOCK_START

;
; THUMBNAIL_BLOCK_END

; external perimeters extrusion width = 0.42mm
; perimeters extrusion width = 0.45mm
; infill extrusion width = 0.45mm
; solid infill extrusion width = 0.42mm
; top infill extrusion width = 0.42mm
; support material extrusion width = 0.42mm
; first layer extrusion width = 0.50mm

; EXECUTABLE_BLOCK_START
EXCLUDE_OBJECT_DEFINE NAME=держать_писюны_MIR2_MIR.stp_id_0_copy_0 CENTER=111.775,109.302 POLYGON=[[81.5489,108.921],[81.6926,105.725],[82.0608,97.5329],[82.0608,97.5329],[106.809,98.6453],[133.089,99.8265],[142,100.227],[141.488,111.616],[141.488,111.616],[106.881,121.071],[106.579,121.058],[95.7227,120.57],[86.5994,120.16],[81.5489,108.921]]
M73 P0 R90
M106 S0
M106 P2 S0
;TYPE:Custom
M140 S0
M104 S0 
START_PRINT EXTRUDER_TEMP=250 BED_TEMP=80
G90
G21
M83 ; use relative distances for extrusion
; filament start gcode
M106 S0
M106 P2 S0
;LAYER_CHANGE
;Z:0.2
;HEIGHT:0.2
;BEFORE_LAYER_CHANGE
;0.2
G92 E0

G1 E-.6 F2400
;_SET_FAN_SPEED_CHANGING_LAYER
SET_VELOCITY_LIMIT ACCEL=500 ACCEL_TO_DECEL=250
SET_VELOCITY_LIMIT SQUARE_CORNER_VELOCITY=9
EXCLUDE_OBJECT_START NAME=держать_писюны_MIR2_MIR.stp_id_0_copy_0
G1 Z.2 F42000
G1 X120.844 Y111.038
G1 Z.2
G1 E.6 F2400
;TYPE:Support
;WIDTH:0.5
G1 F3600
G1 X120.844 Y113.618 E.09412
G1 X118.467 Y113.618 E.08673
G1 X118.467 Y115.995 E.08673
G1 X113.713 Y115.995 E.17346
G1 X113.713 Y118.372 E.08673
G1 X111.336 Y118.372 E.08673
G1 X111.336 Y123.126 E.17346
G1 X102.705 Y123.126 E.31491
G1 X102.705 Y121.234 E.06903
G1 X106.708 Y121.414 E.14621
G1 X106.922 Y121.218 E.01058
G1 X107.407 Y110.434 E.39387
G1 X120.776 Y111.035 E.48826
G1 X107.8 Y110.863 F42000
G1 F3600
G1 X120.433 Y111.431 E.4614
G1 X120.433 Y113.206 E.06476
G1 X118.056 Y113.206 E.08673
G1 X118.056 Y115.583 E.08673
G1 X113.302 Y115.583 E.17346
G1 X113.302 Y117.96 E.08673
G1 X110.925 Y117.96 E.08673
G1 X110.925 Y122.714 E.17346
G1 X103.116 Y122.714 E.28489
G1 X103.116 Y121.664 E.03833
G1 X106.86 Y121.832 E.13673
G1 X107.325 Y121.407 E.02301
G1 X107.8 Y110.863 E.38507
G1 X108.284 Y111.394 F42000
G1 F3600
G1 X119.925 Y111.917 E.42516
G1 X119.925 Y112.698 E.02851
G1 X117.548 Y112.698 E.08673
G1 X117.548 Y115.075 E.08673
G1 X112.794 Y115.075 E.17346
G1 X112.794 Y117.452 E.08673
G1 X110.417 Y117.452 E.08673
G1 X110.417 Y122.207 E.17346
G1 X107.203 Y122.207 E.11725
G1 X107.823 Y121.64 E.03066
G1 X108.284 Y111.394 E.37422
G1 X108.769 Y111.924 F42000
G1 F3600
G1 X117.04 Y112.296 E.30209
G1 X117.04 Y114.568 E.0829
G1 X112.286 Y114.568 E.17346
G1 X112.286 Y116.945 E.08673
G1 X109.909 Y116.945 E.08673
G1 X109.909 Y121.699 E.17346
G1 X108.329 Y121.699 E.05764
G1 X108.769 Y111.924 E.35701
G1 X108.954 Y119.105 F42000
G1 F3600
G1 X109.401 Y119.115 E.01631
G1 X109.401 Y121.191 E.07575
G1 X108.86 Y121.191 E.01973
G1 X108.954 Y119.105 E.07619
G1 X109.074 Y116.437 F42000
G1 F3600
G1 X109.253 Y112.454 E.14546
G1 X116.532 Y112.781 E.26585
G1 X116.532 Y114.06 E.04665
G1 X111.778 Y114.06 E.17346
G1 X111.778 Y116.437 E.08673
G1 X109.074 Y116.437 E.09865
G1 X109.605 Y115.929 F42000
G1 F3600
G1 X109.738 Y112.984 E.10755
G1 X112.428 Y113.105 E.09824
G1 X112.418 Y113.552 E.01631
G1 X111.27 Y113.552 E.04187
G1 X111.27 Y115.929 E.08673
G1 X109.605 Y115.929 E.06074
G1 X110.137 Y115.421 F42000
G1 F3600
G1 X110.222 Y113.514 E.06964
G1 X110.762 Y113.539 E.01972
G1 X110.762 Y115.421 E.06869
G1 X110.137 Y115.421 E.02283
;WIPE_START
G1 X110.762 Y115.421 E-.18772
G1 X110.762 Y114.047 E-.41228
;WIPE_END
G1 Z.4 F42000
G1 X135.107 Y97.855 Z.4
G1 Z.2
G1 E.6 F2400
G1 F3600
G1 X144.615 Y97.855 E.34692
G1 X144.615 Y111.24 E.48837
G1 X141.856 Y111.24 E.10068
G1 X141.988 Y108.29 E.10777
G1 X141.793 Y108.076 E.01058
G1 X81.563 Y105.368 E2.19974
G1 X81.349 Y105.564 E.01058
G1 X81.201 Y108.863 E.1205
G1 X78.934 Y108.863 E.08272
G1 X78.934 Y95.478 E.48837
G1 X135.107 Y95.478 E2.04952
G1 X135.107 Y97.787 E.08423
G1 X134.695 Y98.267 F42000
G1 F3600
G1 X144.204 Y98.267 E.34692
G1 X144.204 Y110.829 E.45835
G1 X142.286 Y110.829 E.06997
G1 X142.407 Y108.138 E.09829
G1 X141.981 Y107.672 E.02301
G1 X81.412 Y104.95 E2.21218
G1 X80.946 Y105.375 E.02301
G1 X80.808 Y108.452 E.11237
G1 X79.345 Y108.452 E.05336
G1 X79.345 Y95.89 E.45835
G1 X134.695 Y95.89 E2.0195
G1 X134.695 Y98.267 E.08673
G1 X134.188 Y98.774 F42000
G1 F3600
G1 X143.696 Y98.774 E.34692
G1 X143.696 Y110.321 E.42129
G1 X142.817 Y110.321 E.03206
G1 X142.924 Y107.951 E.08658
G1 X142.214 Y107.174 E.03836
G1 X81.224 Y104.433 E2.22753
G1 X80.448 Y105.142 E.03836
G1 X80.322 Y107.944 E.10233
G1 X79.853 Y107.944 E.01711
G1 X79.853 Y96.397 E.42129
G1 X134.188 Y96.397 E1.98244
G1 X134.188 Y98.774 E.08673
G1 X133.68 Y99.282 F42000
G1 F3600
G1 X143.188 Y99.282 E.34692
G1 X143.188 Y107.487 E.29935
G1 X142.447 Y106.676 E.04006
G1 X81.037 Y103.916 E2.24288
G1 X80.361 Y104.534 E.0334
G1 X80.361 Y96.905 E.27834
G1 X133.68 Y96.905 E1.94538
G1 X133.68 Y99.282 E.08673
G1 X133.172 Y99.79 F42000
G1 F3600
G1 X142.68 Y99.79 E.34692
G1 X142.68 Y106.179 E.23309
G1 X80.869 Y103.4 E2.25752
G1 X80.869 Y97.413 E.21845
G1 X133.172 Y97.413 E1.90832
G1 X133.172 Y99.79 E.08673
G1 X132.664 Y100.298 F42000
G1 F3600
G1 X142.172 Y100.298 E.34692
G1 X142.172 Y105.647 E.19517
G1 X81.377 Y102.915 E2.22042
G1 X81.377 Y97.921 E.1822
G1 X132.664 Y97.921 E1.87126
G1 X132.664 Y100.298 E.08673
G1 X132.156 Y100.806 F42000
G1 F3600
G1 X141.664 Y100.806 E.34692
G1 X141.664 Y105.116 E.15726
G1 X81.885 Y102.429 E2.18332
G1 X81.885 Y98.429 E.14596
G1 X132.156 Y98.429 E1.8342
G1 X132.156 Y100.806 E.08673
G1 X131.648 Y101.314 F42000
G1 F3600
G1 X141.156 Y101.314 E.34692
G1 X141.156 Y104.585 E.11935
G1 X82.393 Y101.944 E2.14623
G1 X82.393 Y98.937 E.10971
G1 X131.648 Y98.937 E1.79714
G1 X131.648 Y101.314 E.08673
G1 X131.14 Y101.822 F42000
G1 F3600
G1 X140.649 Y101.822 E.34692
G1 X140.649 Y104.054 E.08144
G1 X82.901 Y101.458 E2.10913
G1 X82.901 Y99.445 E.07347
G1 X131.14 Y99.445 E1.76008
G1 X131.14 Y101.822 E.08673
M73 P0 R89
G1 X130.632 Y102.33 F42000
G1 F3600
G1 X140.141 Y102.33 E.34692
G1 X140.141 Y103.523 E.04353
G1 X83.408 Y100.973 E2.07203
G1 X83.408 Y99.952 E.03722
G1 X130.632 Y99.952 E1.72302
G1 X130.632 Y102.33 E.08673
G1 X130.125 Y102.564 F42000
G1 F3600
G1 X93.263 Y100.907 E1.3463
G1 X93.273 Y100.46 E.01631
G1 X130.125 Y100.46 E1.34458
G1 X130.125 Y102.564 E.07675
G1 X129.617 Y102.033 F42000
G1 F3600
G1 X115.872 Y101.415 E.50198
G1 X115.882 Y100.968 E.01631
G1 X129.617 Y100.968 E.50111
G1 X129.617 Y102.033 E.03884
;WIPE_START
G1 X129.617 Y100.968 E-.31937
G1 X128.681 Y100.968 E-.28063
;WIPE_END
G1 Z.4 F42000
G1 X130.088 Y91.557 Z.4
G1 Z.2
G1 E.6 F2400
;TYPE:Brim
G1 F3600
G1 X142.361 Y92.109 E.44825
G1 X143.625 Y92.215 E.04631
G1 X144.874 Y92.419 E.04614
G1 X146.102 Y92.719 E.04614
G1 X147.303 Y93.114 E.04614
G1 X148.468 Y93.601 E.04605
G1 X150.205 Y94.54 E.07205
G1 X151.255 Y95.241 E.04608
G1 X152.249 Y96.024 E.04614
G1 X153.178 Y96.882 E.04614
G1 X154.038 Y97.809 E.04614
G1 X154.823 Y98.8 E.04614
G1 X155.529 Y99.85 E.04614
G1 X156.15 Y100.952 E.04614
G1 X156.684 Y102.098 E.04614
G1 X157.127 Y103.283 E.04614
G1 X157.477 Y104.498 E.04614
G1 X157.73 Y105.737 E.04614
G1 X157.887 Y106.992 E.04614
G1 X157.945 Y108.257 E.04621
G1 X157.932 Y109.025 E.028
G1 X157.802 Y112.268 E.11843
G1 X157.701 Y113.533 E.04631
G1 X157.503 Y114.782 E.04614
G1 X157.209 Y116.012 E.04614
G1 X156.819 Y117.215 E.04614
G1 X156.337 Y118.385 E.04614
G1 X155.765 Y119.514 E.04621
G1 X155.37 Y120.186 E.02842
G1 X154.666 Y121.239 E.04623
G1 X153.883 Y122.232 E.04614
G1 X153.025 Y123.162 E.04614
G1 X152.098 Y124.022 E.04614
G1 X151.106 Y124.807 E.04614
G1 X150.057 Y125.512 E.04614
G1 X148.955 Y126.134 E.04614
G1 X147.809 Y126.668 E.04614
G1 X146.624 Y127.111 E.04614
G1 X145.409 Y127.46 E.04614
G1 X144.17 Y127.714 E.04614
G1 X142.915 Y127.87 E.04614
G1 X141.65 Y127.928 E.0462
G1 X140.813 Y127.913 E.03053
G1 X121.903 Y127.071 E.69065
G1 X121.76 Y127.113 E.00544
G1 X121.682 Y127.211 E.00457
G1 X121.396 Y127.894 E.02701
G1 X120.508 Y129.549 E.06854
G1 X119.756 Y130.682 E.0496
G1 X118.973 Y131.675 E.04613
G1 X118.116 Y132.604 E.04614
G1 X117.188 Y133.464 E.04614
G1 X116.197 Y134.249 E.04614
G1 X115.147 Y134.955 E.04614
G1 X114.046 Y135.576 E.04614
G1 X112.899 Y136.11 E.04614
G1 X111.715 Y136.553 E.04614
G1 X110.499 Y136.902 E.04614
G1 X109.26 Y137.156 E.04614
G1 X108.005 Y137.312 E.04614
G1 X106.74 Y137.37 E.0462
G1 X105.925 Y137.356 E.02974
G1 X97.175 Y136.978 E.31957
G1 X95.969 Y136.879 E.04415
G1 X95.066 Y136.868 E.03293
G1 X85.898 Y136.471 E.33483
G1 X84.633 Y136.366 E.04631
G1 X83.384 Y136.165 E.04614
G1 X82.155 Y135.866 E.04614
G1 X80.953 Y135.473 E.04614
G1 X79.786 Y134.988 E.04614
G1 X78.657 Y134.412 E.04622
G1 X78.111 Y134.091 E.02309
G1 X76.976 Y133.337 E.04976
G1 X75.982 Y132.554 E.04613
G1 X75.053 Y131.697 E.04614
G1 X74.193 Y130.769 E.04614
G1 X73.408 Y129.778 E.04614
G1 X72.703 Y128.728 E.04614
G1 X72.081 Y127.627 E.04614
G1 X71.547 Y126.48 E.04614
G1 X71.104 Y125.295 E.04614
G1 X70.755 Y124.08 E.04614
G1 X70.501 Y122.841 E.04614
G1 X70.345 Y121.585 E.0462
G1 X70.3 Y120.821 E.0279
G1 X70.231 Y120.67 E.00606
G1 X69.753 Y120.208 E.02425
G1 X68.915 Y119.261 E.04614
G1 X68.154 Y118.251 E.04614
G1 X67.474 Y117.185 E.04614
G1 X66.878 Y116.067 E.0462
G1 X66.524 Y115.285 E.03132
G1 X66.046 Y114.021 E.04932
G1 X65.696 Y112.806 E.04613
G1 X65.441 Y111.567 E.04614
G1 X65.283 Y110.312 E.04614
G1 X65.223 Y109.048 E.0462
G1 X65.239 Y108.185 E.03147
G1 X65.383 Y104.996 E.11648
G1 X65.489 Y103.731 E.04631
G1 X65.693 Y102.483 E.04614
G1 X65.993 Y101.255 E.04614
G1 X66.388 Y100.053 E.04614
G1 X66.875 Y98.888 E.04607
G1 X67.763 Y97.233 E.06854
G1 X68.516 Y96.101 E.0496
G1 X69.298 Y95.108 E.04613
G1 X70.156 Y94.178 E.04614
G1 X71.083 Y93.318 E.04614
G1 X72.074 Y92.533 E.04614
G1 X73.124 Y91.828 E.04614
G1 X74.226 Y91.206 E.04614
G1 X75.372 Y90.672 E.04614
G1 X76.557 Y90.229 E.04614
G1 X77.772 Y89.88 E.04614
G1 X79.012 Y89.626 E.04618
G1 X79.959 Y89.499 E.03484
G1 X81.222 Y89.409 E.04621
G1 X82.475 Y89.417 E.04571
G1 X130.048 Y91.555 E1.7375
G1 X130.027 Y92.012 F42000
G1 F3600
G1 X142.329 Y92.565 E.44929
G1 X143.564 Y92.669 E.04523
G1 X144.777 Y92.866 E.04484
G1 X145.971 Y93.158 E.04484
G1 X147.139 Y93.541 E.04484
G1 X148.277 Y94.017 E.04502
G1 X149.975 Y94.935 E.07042
G1 X150.991 Y95.615 E.0446
G1 X151.948 Y96.369 E.04445
G1 X152.851 Y97.202 E.04484
G1 X153.694 Y98.111 E.04523
G1 X154.457 Y99.075 E.04484
G1 X155.136 Y100.086 E.04445
G1 X155.741 Y101.156 E.04484
G1 X156.264 Y102.28 E.04523
G1 X156.691 Y103.421 E.04445
G1 X157.031 Y104.602 E.04484
G1 X157.278 Y105.806 E.04484
G1 X157.431 Y107.036 E.04523
G1 X157.488 Y108.268 E.045
G1 X157.475 Y109.013 E.02719
G1 X157.345 Y112.238 E.11776
G1 X157.246 Y113.485 E.04562
G1 X157.055 Y114.688 E.04445
G1 X156.77 Y115.883 E.04484
G1 X156.388 Y117.063 E.04523
G1 X155.919 Y118.199 E.04484
G1 X155.365 Y119.291 E.04468
G1 X154.98 Y119.946 E.02772
G1 X154.292 Y120.974 E.04515
G1 X153.531 Y121.94 E.04484
G1 X152.705 Y122.835 E.04445
G1 X151.804 Y123.671 E.04484
G1 X150.832 Y124.44 E.04523
G1 X149.821 Y125.12 E.04445
G1 X148.751 Y125.724 E.04484
G1 X147.637 Y126.244 E.04484
G1 X146.476 Y126.678 E.04523
G1 X145.294 Y127.017 E.04484
G1 X144.09 Y127.263 E.04484
G1 X142.881 Y127.414 E.04445
G1 X141.648 Y127.471 E.04504
G1 X140.826 Y127.456 E.03
G1 X121.935 Y126.615 E.68996
G1 X121.762 Y126.636 E.00634
G1 X121.65 Y126.669 E.00425
G1 X121.389 Y126.845 E.01148
G1 X121.33 Y126.919 E.00345
G1 X121.256 Y127.044 E.0053
G1 X120.98 Y127.704 E.02609
G1 X120.119 Y129.309 E.06647
G1 X119.382 Y130.418 E.04857
G1 X118.629 Y131.374 E.04441
G1 X117.796 Y132.277 E.04484
G1 X116.895 Y133.113 E.04484
G1 X115.923 Y133.883 E.04523
G1 X114.902 Y134.568 E.04484
G1 X113.841 Y135.167 E.04445
G1 X112.717 Y135.69 E.04523
G1 X111.566 Y136.12 E.04484
G1 X110.385 Y136.459 E.04484
G1 X109.181 Y136.705 E.04484
G1 X107.972 Y136.856 E.04445
G1 X106.738 Y136.913 E.04505
G1 X105.941 Y136.899 E.0291
G1 X97.206 Y136.521 E.31901
G1 X95.97 Y136.422 E.04525
G1 X95.077 Y136.411 E.03258
G1 X85.929 Y136.015 E.33407
G1 X84.693 Y135.913 E.04523
G1 X83.48 Y135.717 E.04484
G1 X82.286 Y135.428 E.04484
G1 X81.117 Y135.046 E.04484
G1 X79.973 Y134.57 E.04523
G1 X78.881 Y134.012 E.04474
G1 X78.357 Y133.705 E.02214
G1 X77.249 Y132.969 E.04855
G1 X76.283 Y132.209 E.04482
G1 X75.38 Y131.376 E.04484
G1 X74.544 Y130.475 E.04484
G1 X73.774 Y129.503 E.04523
G1 X73.089 Y128.483 E.04484
G1 X72.49 Y127.422 E.04445
G1 X71.971 Y126.308 E.04484
G1 X71.537 Y125.147 E.04523
G1 X71.198 Y123.966 E.04484
G1 X70.954 Y122.772 E.04445
G1 X70.801 Y121.547 E.04503
G1 X70.757 Y120.807 E.02705
G1 X70.71 Y120.619 E.00708
G1 X70.652 Y120.491 E.00512
G1 X70.539 Y120.333 E.00708
G1 X70.08 Y119.888 E.02333
G1 X69.266 Y118.967 E.04484
G1 X68.527 Y117.985 E.04484
G1 X67.872 Y116.958 E.04445
G1 X67.29 Y115.87 E.04503
G1 X66.949 Y115.114 E.03025
G1 X66.482 Y113.882 E.04808
G1 X66.139 Y112.691 E.04521
G1 X65.891 Y111.487 E.04484
G1 X65.738 Y110.268 E.04484
G1 X65.681 Y109.046 E.04464
G1 X65.696 Y108.202 E.0308
G1 X65.839 Y105.028 E.1159
G1 X65.942 Y103.793 E.04523
G1 X66.142 Y102.569 E.04523
G1 X66.435 Y101.375 E.04484
G1 X66.815 Y100.218 E.04445
G1 X67.286 Y99.091 E.04456
G1 X68.153 Y97.474 E.06696
G1 X68.883 Y96.374 E.04817
G1 X69.65 Y95.401 E.04521
G1 X70.483 Y94.498 E.04484
G1 X71.377 Y93.669 E.04445
G1 X72.349 Y92.9 E.04523
G1 X73.36 Y92.22 E.04445
G1 X74.43 Y91.616 E.04484
G1 X75.544 Y91.097 E.04484
G1 X76.705 Y90.662 E.04523
G1 X77.886 Y90.323 E.04484
G1 X79.084 Y90.078 E.0446
G1 X80.01 Y89.953 E.03407
G1 X81.231 Y89.867 E.04469
G1 X82.46 Y89.874 E.04484
G1 X129.987 Y92.01 E1.73582
G1 X129.967 Y92.467 F42000
G1 F3600
G1 X142.296 Y93.021 E.45032
G1 X143.503 Y93.122 E.04417
G1 X144.681 Y93.314 E.04354
G1 X145.84 Y93.596 E.04354
G1 X146.974 Y93.968 E.04353
G1 X148.086 Y94.433 E.04397
G1 X149.744 Y95.331 E.06879
G1 X150.726 Y95.988 E.04313
G1 X151.647 Y96.713 E.04277
G1 X152.524 Y97.522 E.04354
G1 X153.35 Y98.413 E.04432
G1 X154.084 Y99.34 E.04315
G1 X154.744 Y100.322 E.04316
G1 X155.336 Y101.37 E.04393
G1 X155.844 Y102.462 E.04393
G1 X156.258 Y103.57 E.04315
G1 X156.585 Y104.706 E.04315
G1 X156.825 Y105.875 E.04354
G1 X156.975 Y107.07 E.04392
G1 X157.03 Y108.279 E.04418
G1 X157.018 Y109.002 E.02637
G1 X156.889 Y112.208 E.11708
G1 X156.791 Y113.436 E.04494
G1 X156.606 Y114.604 E.04316
G1 X156.33 Y115.754 E.04315
G1 X155.96 Y116.9 E.04393
G1 X155.501 Y118.013 E.04393
G1 X154.966 Y119.068 E.04316
G1 X154.591 Y119.706 E.02701
G1 X153.919 Y120.71 E.04406
G1 X153.187 Y121.639 E.04316
G1 X152.385 Y122.508 E.04316
G1 X151.502 Y123.327 E.04393
G1 X150.558 Y124.074 E.04393
G1 X149.576 Y124.733 E.04315
G1 X148.546 Y125.315 E.04315
G1 X147.455 Y125.824 E.04393
G1 X146.327 Y126.245 E.04392
G1 X145.18 Y126.574 E.04354
G1 X144.021 Y126.811 E.04316
G1 X142.848 Y126.957 E.04316
G1 X141.646 Y127.013 E.04389
G1 X140.839 Y126.999 E.02947
G1 X121.966 Y126.159 E.68926
G1 X121.628 Y126.2 E.01244
G1 X121.383 Y126.298 E.00962
G1 X121.143 Y126.46 E.01056
G1 X121.027 Y126.567 E.00574
G1 X120.934 Y126.691 E.00566
G1 X120.832 Y126.874 E.00767
G1 X120.564 Y127.513 E.02525
G1 X119.729 Y129.068 E.06441
G1 X119.008 Y130.154 E.04755
G1 X118.277 Y131.081 E.04308
G1 X117.475 Y131.95 E.04316
G1 X116.601 Y132.762 E.04354
G1 X115.649 Y133.516 E.04432
G1 X114.667 Y134.176 E.04315
G1 X113.637 Y134.757 E.04315
G1 X112.536 Y135.27 E.04432
G1 X111.418 Y135.687 E.04354
G1 X110.271 Y136.016 E.04354
G1 X109.112 Y136.253 E.04315
G1 X107.938 Y136.399 E.04316
G1 X106.736 Y136.455 E.0439
G1 X105.957 Y136.442 E.02845
G1 X97.237 Y136.065 E.31846
G1 X95.971 Y135.965 E.04633
G1 X95.087 Y135.953 E.03224
G1 X85.96 Y135.558 E.33332
G1 X84.754 Y135.459 E.04416
G1 X83.576 Y135.27 E.04354
G1 X82.416 Y134.989 E.04354
G1 X81.282 Y134.619 E.04354
G1 X80.16 Y134.152 E.04432
G1 X79.104 Y133.613 E.04327
