; HEADER_BLOCK_START
; generated by OrcaSlicer 2.1.0 on 2025-05-22 at 18:12:41
; total layer number: 10
; filament_density: 1.27
; filament_diameter: 1.75
; max_z_height: 2.00
; HEADER_BLOCK_END

; THUMBNAIL_BLOCK_START

;
; THUMBNAIL_BLOCK_END

; THUMBNAIL_BLOCK_START

;
; THUMBNAIL_BLOCK_END

; external perimeters extrusion width = 0.42mm
; perimeters extrusion width = 0.45mm
; infill extrusion width = 0.45mm
; solid infill extrusion width = 0.42mm
; top infill extrusion width = 0.42mm
; support material extrusion width = 0.42mm
; first layer extrusion width = 0.50mm

; EXECUTABLE_BLOCK_START
EXCLUDE_OBJECT_DEFINE NAME=вроде_норм_пластина_для_виктора.stp_id_0_copy_0 CENTER=110,110 POLYGON=[[45,19],[175,19],[175,201],[45,201],[45,19]]
M73 P0 R52
M106 S0
M106 P2 S0
;TYPE:Custom
M140 S0
M104 S0 
START_PRINT EXTRUDER_TEMP=250 BED_TEMP=90
M106 P3 S153
G90
G21
M83 ; use relative distances for extrusion
; filament start gcode
M106 S0
M106 P2 S0
;LAYER_CHANGE
;Z:0.2
;HEIGHT:0.2
;BEFORE_LAYER_CHANGE
;0.2
G92 E0

G1 E-.6 F2400
;_SET_FAN_SPEED_CHANGING_LAYER
SET_VELOCITY_LIMIT ACCEL=500 ACCEL_TO_DECEL=250
SET_VELOCITY_LIMIT SQUARE_CORNER_VELOCITY=9
EXCLUDE_OBJECT_START NAME=вроде_норм_пластина_для_виктора.stp_id_0_copy_0
G1 Z.2 F42000
G1 X173.229 Y199.229
G1 Z.2
G1 E.6 F2400
;TYPE:Inner wall
;WIDTH:0.499999
G1 F3600
G1 X46.771 Y199.229 E4.56587
G1 X46.771 Y20.771 E6.44338
G1 X173.229 Y20.771 E4.56587
G1 X173.229 Y199.189 E6.44194
G1 X173.686 Y199.686 F42000
G1 F3600
G1 X46.314 Y199.686 E4.59888
G1 X46.314 Y20.314 E6.47639
G1 X173.686 Y20.314 E4.59888
G1 X173.686 Y199.646 E6.47494
G1 X174.143 Y200.143 F42000
G1 F3600
G1 X45.857 Y200.143 E4.63188
G1 X45.857 Y19.857 E6.50939
G1 X174.143 Y19.857 E4.63188
G1 X174.143 Y200.103 E6.50795
M73 P1 R52
G1 X174.6 Y200.6 F42000
;TYPE:Outer wall
G1 F3600
G1 X45.4 Y200.6 E4.66489
G1 X45.4 Y19.4 E6.5424
G1 X174.6 Y19.4 E4.66489
G1 X174.6 Y200.56 E6.54096
;WIPE_START
G1 X172.6 Y200.561 E-.6
;WIPE_END
G1 Z.4 F42000
G1 X164.601 Y163.761 Z.4
M73 P1 R51
G1 Z.2
G1 E.6 F2400
;TYPE:Inner wall
G1 F3600
G1 X164.404 Y163.764 E.00709
G1 X163.499 Y163.677 E.03284
G1 X162.544 Y163.426 E.03566
G1 X161.452 Y162.893 E.04385
G1 X161.162 Y162.7 E.0126
G1 X160.464 Y162.116 E.03285
G1 X160.223 Y161.865 E.01254
G1 X159.675 Y161.154 E.03244
G1 X159.201 Y160.276 E.03602
G1 X158.844 Y159.113 E.04393
G1 X158.734 Y158.131 E.03566
G1 X158.792 Y157.174 E.03461
G1 X159.09 Y156.01 E.04337
G1 X159.505 Y155.116 E.0356
G1 X160.119 Y154.271 E.03771
G1 X160.463 Y153.885 E.01865
G1 X161.151 Y153.308 E.03244
G1 X162.009 Y152.798 E.03602
G1 X163.157 Y152.394 E.04394
G1 X164.147 Y152.244 E.03617
G1 X165.348 Y152.298 E.04339
G1 X165.689 Y152.36 E.01254
G1 X166.562 Y152.617 E.03285
G1 X167.464 Y153.053 E.03617
G1 X168.423 Y153.777 E.04339
G1 X168.669 Y154.019 E.01248
G1 X169.237 Y154.716 E.03244
G1 X169.735 Y155.58 E.03602
G1 X170.064 Y156.483 E.03471
G1 X170.255 Y157.67 E.04339
G1 X170.264 Y158.017 E.01254
G1 X170.19 Y158.924 E.03285
G1 X170.124 Y159.266 E.0126
G1 X169.854 Y160.135 E.03284
G1 X169.414 Y161.019 E.03565
G1 X168.671 Y161.979 E.04385
G1 X167.932 Y162.635 E.03567
G1 X166.885 Y163.248 E.04381
G1 X165.955 Y163.581 E.03566
G1 X164.753 Y163.759 E.04386
G1 X164.641 Y163.76 E.00406
G1 X164.507 Y163.291 F42000
G1 F3600
G1 X163.542 Y163.222 E.03491
G1 X162.673 Y162.987 E.03252
G1 X161.663 Y162.487 E.0407
G1 X160.757 Y161.765 E.04181
G1 X160.037 Y160.875 E.04136
G1 X159.609 Y160.07 E.03289
G1 X159.284 Y158.989 E.04076
G1 X159.19 Y158.094 E.03252
G1 X159.248 Y157.212 E.03188
G1 X159.53 Y156.134 E.04025
G1 X159.914 Y155.321 E.03248
G1 X160.481 Y154.549 E.03457
G1 X160.756 Y154.236 E.01507
G1 X161.445 Y153.658 E.03244
G1 X162.231 Y153.198 E.03289
G1 X163.298 Y152.829 E.04077
G1 X164.202 Y152.697 E.03299
G1 X165.316 Y152.754 E.04026
G1 X166.433 Y153.055 E.04177
G1 X167.253 Y153.458 E.03299
G1 X168.139 Y154.135 E.04026
G1 X168.883 Y155.004 E.04131
G1 X169.333 Y155.797 E.03289
G1 X169.631 Y156.63 E.03196
G1 X169.802 Y157.732 E.04026
G1 X169.734 Y158.886 E.04177
G1 X169.418 Y160 E.0418
G1 X169.011 Y160.803 E.03251
G1 X168.316 Y161.691 E.04071
G1 X167.639 Y162.285 E.03252
G1 X166.663 Y162.848 E.04067
G1 X165.813 Y163.146 E.03252
G1 X164.697 Y163.305 E.04071
G1 X164.547 Y163.294 E.00545
G1 X164.535 Y162.843 F42000
G1 F3600
G1 X163.586 Y162.767 E.03435
G1 X162.802 Y162.549 E.02938
G1 X161.873 Y162.081 E.03756
G1 X161.051 Y161.415 E.03822
G1 X160.399 Y160.596 E.03779
G1 X160.017 Y159.865 E.02976
G1 X159.724 Y158.866 E.03759
G1 X159.645 Y158.056 E.02938
G1 X159.703 Y157.251 E.02916
G1 X159.97 Y156.258 E.03712
G1 X160.323 Y155.525 E.02935
G1 X160.843 Y154.828 E.03143
G1 X161.05 Y154.586 E.01149
G1 X161.739 Y154.009 E.03244
G1 X162.453 Y153.598 E.02976
G1 X163.439 Y153.264 E.0376
G1 X164.258 Y153.151 E.02982
G1 X165.284 Y153.21 E.03713
G1 X166.304 Y153.494 E.0382
G1 X167.042 Y153.864 E.02982
G1 X167.855 Y154.493 E.03713
G1 X168.529 Y155.293 E.03776
G1 X168.93 Y156.013 E.02976
G1 X169.198 Y156.776 E.0292
G1 X169.349 Y157.793 E.03713
G1 X169.279 Y158.849 E.0382
G1 X168.981 Y159.865 E.03821
G1 X168.608 Y160.588 E.02937
G1 X167.961 Y161.402 E.03757
G1 X167.345 Y161.934 E.02938
G1 X166.442 Y162.448 E.03753
G1 X165.672 Y162.712 E.02938
G1 X164.641 Y162.852 E.03757
G1 X164.574 Y162.846 E.00242
G1 X164.569 Y162.397 F42000
;TYPE:Outer wall
G1 F3600
G1 X163.63 Y162.312 E.03406
G1 X162.932 Y162.11 E.02624
G1 X162.083 Y161.675 E.03442
G1 X161.344 Y161.064 E.03464
G1 X160.761 Y160.317 E.03422
G1 X160.426 Y159.66 E.02663
G1 X160.164 Y158.743 E.03442
G1 X160.101 Y158.019 E.02624
G1 X160.159 Y157.289 E.02643
G1 X160.41 Y156.382 E.03399
G1 X160.731 Y155.73 E.02623
G1 X161.344 Y154.936 E.0362
G1 X162.032 Y154.359 E.03244
G1 X162.675 Y153.997 E.02663
G1 X163.581 Y153.698 E.03443
G1 X164.313 Y153.605 E.02665
G1 X165.253 Y153.666 E.034
G1 X166.174 Y153.932 E.03463
G1 X166.831 Y154.269 E.02665
G1 X167.571 Y154.851 E.034
G1 X168.174 Y155.582 E.03421
G1 X168.527 Y156.23 E.02663
G1 X168.765 Y156.923 E.02645
G1 X168.896 Y157.855 E.034
G1 X168.823 Y158.812 E.03463
G1 X168.545 Y159.729 E.03463
G1 X168.205 Y160.372 E.02623
G1 X167.607 Y161.114 E.03443
G1 X167.052 Y161.583 E.02624
G1 X166.221 Y162.048 E.03439
G1 X165.531 Y162.277 E.02624
G1 X164.609 Y162.395 E.03356
;WIPE_START
G1 X163.63 Y162.312 E-.2948
G1 X162.932 Y162.11 E-.21802
G1 X162.673 Y161.978 E-.08718
;WIPE_END
G1 Z.4 F42000
G1 X167.649 Y57.193 Z.4
G1 Z.2
G1 E.6 F2400
;TYPE:Inner wall
G1 F3600
G1 X168.423 Y57.777 E.035
G1 X168.669 Y58.019 E.01248
G1 X169.237 Y58.716 E.03244
G1 X169.735 Y59.58 E.03602
G1 X170.064 Y60.483 E.03471
G1 X170.255 Y61.67 E.04339
G1 X170.264 Y62.017 E.01254
G1 X170.19 Y62.924 E.03285
G1 X170.124 Y63.266 E.0126
G1 X169.854 Y64.135 E.03284
G1 X169.414 Y65.019 E.03565
G1 X168.671 Y65.979 E.04385
G1 X167.932 Y66.635 E.03567
G1 X166.885 Y67.248 E.04381
G1 X165.955 Y67.581 E.03566
G1 X164.753 Y67.759 E.04386
G1 X164.404 Y67.764 E.0126
G1 X163.499 Y67.677 E.03284
G1 X162.544 Y67.426 E.03566
G1 X161.452 Y66.893 E.04385
G1 X161.162 Y66.7 E.0126
G1 X160.464 Y66.116 E.03285
G1 X160.079 Y65.678 E.02105
G1 X159.675 Y65.154 E.0239
G1 X159.201 Y64.276 E.03602
G1 X158.844 Y63.113 E.04393
G1 X158.734 Y62.131 E.03566
G1 X158.792 Y61.174 E.03461
G1 X159.09 Y60.01 E.04337
G1 X159.505 Y59.116 E.0356
G1 X160.222 Y58.136 E.04385
G1 X160.463 Y57.885 E.01254
G1 X161.151 Y57.308 E.03244
G1 X162.009 Y56.798 E.03602
G1 X163.157 Y56.394 E.04394
G1 X164.147 Y56.244 E.03617
G1 X165.348 Y56.298 E.04339
G1 X165.689 Y56.36 E.01254
G1 X166.562 Y56.617 E.03285
G1 X167.464 Y57.053 E.03617
G1 X167.617 Y57.169 E.00694
G1 X167.382 Y57.557 F42000
G1 F3600
G1 X168.139 Y58.135 E.0344
G1 X168.883 Y59.004 E.04131
G1 X169.333 Y59.797 E.03289
G1 X169.631 Y60.63 E.03196
G1 X169.802 Y61.732 E.04026
G1 X169.734 Y62.886 E.04177
G1 X169.418 Y64 E.0418
G1 X169.011 Y64.803 E.03251
G1 X168.316 Y65.691 E.04071
G1 X167.639 Y66.285 E.03252
G1 X166.663 Y66.848 E.04067
G1 X165.813 Y67.146 E.03252
G1 X164.697 Y67.305 E.04071
G1 X163.542 Y67.222 E.0418
G1 X162.673 Y66.987 E.03252
G1 X161.663 Y66.487 E.0407
G1 X160.757 Y65.765 E.04181
G1 X160.037 Y64.875 E.04136
G1 X159.609 Y64.07 E.03289
G1 X159.284 Y62.989 E.04076
G1 X159.19 Y62.094 E.03252
G1 X159.248 Y61.212 E.03188
G1 X159.53 Y60.134 E.04025
G1 X159.914 Y59.321 E.03248
G1 X160.585 Y58.415 E.0407
G1 X161.445 Y57.658 E.04135
G1 X162.231 Y57.198 E.03289
G1 X163.298 Y56.829 E.04077
G1 X164.202 Y56.697 E.03299
G1 X165.316 Y56.754 E.04026
G1 X166.433 Y57.055 E.04177
G1 X167.253 Y57.458 E.03299
G1 X167.35 Y57.532 E.00441
G1 X167.111 Y57.917 F42000
G1 F3600
G1 X167.855 Y58.493 E.03396
G1 X168.529 Y59.293 E.03776
G1 X168.93 Y60.013 E.02976
G1 X169.198 Y60.776 E.0292
G1 X169.349 Y61.793 E.03713
G1 X169.279 Y62.849 E.0382
G1 X168.981 Y63.865 E.03821
G1 X168.608 Y64.588 E.02937
G1 X167.961 Y65.402 E.03757
G1 X167.345 Y65.934 E.02938
G1 X166.442 Y66.448 E.03753
G1 X165.672 Y66.712 E.02938
G1 X164.641 Y66.852 E.03757
G1 X163.586 Y66.767 E.03821
G1 X162.802 Y66.549 E.02938
G1 X161.873 Y66.081 E.03756
G1 X161.051 Y65.415 E.03822
G1 X160.399 Y64.596 E.03779
G1 X160.017 Y63.865 E.02976
G1 X159.724 Y62.866 E.03759
G1 X159.645 Y62.056 E.02938
G1 X159.703 Y61.251 E.02916
G1 X159.97 Y60.258 E.03712
G1 X160.323 Y59.525 E.02935
G1 X160.947 Y58.693 E.03756
G1 X161.739 Y58.009 E.03779
G1 X162.453 Y57.598 E.02976
G1 X163.439 Y57.264 E.0376
G1 X164.258 Y57.151 E.02982
G1 X165.284 Y57.21 E.03713
G1 X166.304 Y57.494 E.0382
G1 X167.042 Y57.864 E.02982
G1 X167.08 Y57.893 E.00172
G1 X166.816 Y58.262 F42000
;TYPE:Outer wall
G1 F3600
G1 X166.831 Y58.269 E.0006
G1 X167.571 Y58.851 E.034
G1 X168.174 Y59.582 E.03421
G1 X168.527 Y60.23 E.02663
G1 X168.765 Y60.923 E.02645
G1 X168.896 Y61.855 E.034
G1 X168.823 Y62.812 E.03463
G1 X168.545 Y63.729 E.03463
G1 X168.205 Y64.372 E.02623
G1 X167.607 Y65.114 E.03443
G1 X167.052 Y65.583 E.02624
G1 X166.221 Y66.048 E.03439
G1 X165.531 Y66.277 E.02624
G1 X164.585 Y66.398 E.03443
G1 X163.63 Y66.312 E.03463
G1 X162.932 Y66.11 E.02624
G1 X162.083 Y65.675 E.03442
G1 X161.344 Y65.064 E.03464
G1 X160.761 Y64.317 E.03422
G1 X160.426 Y63.66 E.02663
G1 X160.164 Y62.743 E.03442
G1 X160.101 Y62.019 E.02624
G1 X160.159 Y61.289 E.02643
G1 X160.41 Y60.382 E.03399
G1 X160.731 Y59.73 E.02623
G1 X161.309 Y58.972 E.03442
G1 X162.032 Y58.359 E.03422
G1 X162.675 Y57.997 E.02663
G1 X163.581 Y57.698 E.03443
G1 X164.313 Y57.605 E.02665
G1 X165.253 Y57.666 E.034
G1 X166.174 Y57.932 E.03463
G1 X166.781 Y58.243 E.02461
;WIPE_START
G1 X166.831 Y58.269 E-.01702
G1 X167.571 Y58.851 E-.28252
G1 X168.174 Y59.582 E-.28427
G1 X168.2 Y59.63 E-.0162
;WIPE_END
G1 Z.4 F42000
G1 X100.287 Y27.21 Z.4
G1 Z.2
G1 E.6 F2400
;TYPE:Inner wall
G1 F3600
G1 X100.354 Y27.365 E.00608
G1 X100.624 Y28.234 E.03286
G1 X100.76 Y29.212 E.03566
G1 X100.73 Y30.156 E.03409
G1 X100.463 Y31.34 E.04383
G1 X100.342 Y31.667 E.0126
G1 X99.934 Y32.481 E.03285
G1 X99.745 Y32.774 E.0126
G1 X99.171 Y33.479 E.03284
G1 X98.432 Y34.135 E.03565
G1 X97.384 Y34.748 E.04384
G1 X96.455 Y35.081 E.03565
G1 X95.253 Y35.259 E.04384
G1 X94.267 Y35.221 E.03565
G1 X93.086 Y34.937 E.04385
G1 X92.76 Y34.811 E.0126
G1 X91.952 Y34.393 E.03285
G1 X91.15 Y33.794 E.03617
G1 X90.345 Y32.901 E.04339
G1 X90.149 Y32.614 E.01254
G1 X89.72 Y31.812 E.03285
G1 X89.375 Y30.8 E.0386
G1 X89.238 Y29.673 E.041
G1 X89.292 Y28.674 E.03611
G1 X89.59 Y27.51 E.04339
G1 X89.719 Y27.189 E.01248
G1 X90.142 Y26.397 E.03244
G1 X90.748 Y25.604 E.03602
G1 X91.662 Y24.8 E.04395
G1 X92.512 Y24.297 E.03567
G1 X93.657 Y23.894 E.04383
G1 X94.647 Y23.744 E.03617
G1 X95.848 Y23.798 E.04339
G1 X96.189 Y23.86 E.01254
G1 X97.062 Y24.117 E.03285
G1 X97.384 Y24.252 E.0126
G1 X98.18 Y24.692 E.03286
G1 X98.956 Y25.303 E.03566
G1 X99.588 Y26.005 E.03409
G1 X100.215 Y27.045 E.04383
G1 X100.271 Y27.173 E.00508
G1 X99.888 Y27.479 F42000
G1 F3600
G1 X100.187 Y28.369 E.03391
G1 X100.306 Y29.262 E.03252
G1 X100.274 Y30.131 E.0314
G1 X100.02 Y31.229 E.04069
G1 X99.525 Y32.276 E.04181
G1 X99.001 Y32.963 E.03122
G1 X98.663 Y33.346 E.01843
G1 X98.139 Y33.784 E.02466
G1 X97.163 Y34.348 E.0407
G1 X96.313 Y34.646 E.03251
G1 X95.197 Y34.805 E.0407
G1 X94.298 Y34.765 E.03251
G1 X93.203 Y34.495 E.04071
G1 X92.163 Y33.987 E.04181
G1 X91.434 Y33.436 E.03299
G1 X90.692 Y32.603 E.04026
G1 X90.123 Y31.596 E.04177
G1 X89.818 Y30.682 E.0348
G1 X89.692 Y29.623 E.03849
G1 X89.748 Y28.712 E.03295
G1 X90.03 Y27.634 E.04026
G1 X90.545 Y26.612 E.04131
G1 X91.103 Y25.892 E.03289
G1 X91.955 Y25.151 E.04077
G1 X92.733 Y24.697 E.03252
G1 X93.798 Y24.329 E.04069
G1 X94.702 Y24.197 E.03299
G1 X95.816 Y24.254 E.04026
G1 X96.933 Y24.555 E.04177
G1 X97.959 Y25.092 E.04182
G1 X98.663 Y25.654 E.03252
G1 X99.241 Y26.303 E.0314
G1 X99.818 Y27.271 E.04069
G1 X99.875 Y27.441 E.00646
G1 X99.463 Y27.626 F42000
G1 F3600
G1 X99.75 Y28.504 E.03336
G1 X99.852 Y29.312 E.02937
G1 X99.817 Y30.106 E.0287
G1 X99.576 Y31.117 E.03755
G1 X99.117 Y32.071 E.03822
G1 X98.646 Y32.675 E.02763
G1 X98.37 Y32.995 E.01529
G1 X97.846 Y33.434 E.02466
G1 X96.942 Y33.948 E.03756
G1 X96.172 Y34.212 E.02937
G1 X95.141 Y34.352 E.03756
G1 X94.329 Y34.309 E.02937
G1 X93.32 Y34.054 E.03757
G1 X92.373 Y33.581 E.03822
G1 X91.718 Y33.078 E.02982
G1 X91.039 Y32.305 E.03713
G1 X90.525 Y31.381 E.0382
G1 X90.27 Y30.595 E.02982
G1 X90.147 Y29.574 E.03713
G1 X90.203 Y28.751 E.0298
G1 X90.47 Y27.758 E.03713
G1 X90.949 Y26.828 E.03776
G1 X91.458 Y26.18 E.02976
G1 X92.248 Y25.502 E.0376
G1 X92.954 Y25.097 E.02938
G1 X93.939 Y24.764 E.03755
G1 X94.758 Y24.651 E.02982
G1 X95.784 Y24.71 E.03713
G1 X96.804 Y24.994 E.0382
G1 X97.738 Y25.492 E.03823
G1 X98.37 Y26.005 E.02937
G1 X98.895 Y26.601 E.0287
G1 X99.422 Y27.498 E.03755
G1 X99.451 Y27.588 E.00343
G1 X99.038 Y27.767 F42000
;TYPE:Outer wall
G1 F3600
G1 X99.314 Y28.64 E.03306
G1 X99.397 Y29.361 E.02623
G1 X99.361 Y30.081 E.02601
G1 X99.133 Y31.006 E.03441
G1 X98.708 Y31.866 E.03464
G1 X98.076 Y32.645 E.0362
G1 X97.552 Y33.083 E.02466
G1 X96.72 Y33.548 E.03442
G1 X96.031 Y33.777 E.02623
G1 X95.085 Y33.898 E.03442
G1 X94.36 Y33.853 E.02623
G1 X93.438 Y33.612 E.03443
G1 X92.583 Y33.175 E.03464
G1 X92.002 Y32.72 E.02665
G1 X91.386 Y32.008 E.034
G1 X90.928 Y31.165 E.03463
G1 X90.707 Y30.46 E.02665
G1 X90.601 Y29.525 E.034
G1 X90.659 Y28.789 E.02665
G1 X90.91 Y27.881 E.034
G1 X91.352 Y27.043 E.03421
G1 X91.813 Y26.467 E.02663
G1 X92.542 Y25.852 E.03443
G1 X93.176 Y25.497 E.02624
G1 X94.081 Y25.198 E.03441
G1 X94.813 Y25.105 E.02665
G1 X95.753 Y25.166 E.034
G1 X96.674 Y25.432 E.03463
G1 X97.516 Y25.892 E.03465
G1 X98.076 Y26.355 E.02623
G1 X98.548 Y26.899 E.02601
G1 X99.025 Y27.725 E.03441
G1 X99.026 Y27.728 E.00014
;WIPE_START
G1 X99.314 Y28.64 E-.28673
G1 X99.397 Y29.361 E-.21797
G1 X99.381 Y29.679 E-.09531
;WIPE_END
G1 Z.4 F42000
G1 X68.118 Y188.239 Z.4
G1 Z.2
G1 E.6 F2400
;TYPE:Inner wall
G1 F3600
G1 X68.549 Y187.386 E.03451
G1 X69.149 Y186.602 E.03566
G1 X70.062 Y185.8 E.04385
G1 X70.912 Y185.297 E.03567
G1 X72.057 Y184.894 E.04383
G1 X73.047 Y184.744 E.03617
G1 X74.248 Y184.798 E.04339
G1 X74.589 Y184.86 E.01254
G1 X75.462 Y185.117 E.03285
G1 X75.784 Y185.252 E.0126
G1 X76.585 Y185.695 E.03306
G1 X77.356 Y186.303 E.03547
G1 X77.988 Y187.005 E.03409
G1 X78.615 Y188.045 E.04383
G1 X78.754 Y188.365 E.0126
G1 X79.024 Y189.234 E.03286
G1 X79.16 Y190.212 E.03566
G1 X79.092 Y191.411 E.04336
G1 X78.852 Y192.379 E.03602
G1 X78.334 Y193.481 E.04395
G1 X78.145 Y193.774 E.0126
G1 X77.57 Y194.479 E.03285
G1 X76.82 Y195.143 E.03617
G1 X75.783 Y195.749 E.04337
G1 X74.855 Y196.081 E.03559
G1 X73.653 Y196.259 E.04384
G1 X72.667 Y196.221 E.03566
G1 X71.486 Y195.937 E.04385
G1 X70.584 Y195.533 E.03567
G1 X69.595 Y194.83 E.04383
G1 X69.34 Y194.592 E.0126
G1 X68.746 Y193.902 E.03285
G1 X68.549 Y193.614 E.0126
G1 X68.12 Y192.812 E.03284
G1 X67.8 Y191.878 E.03566
G1 X67.638 Y190.674 E.04385
G1 X67.638 Y190.326 E.0126
G1 X67.737 Y189.421 E.03285
G1 X68.002 Y188.469 E.03567
G1 X68.1 Y188.275 E.00786
G1 X68.524 Y188.438 F42000
G1 F3600
G1 X68.952 Y187.602 E.03391
G1 X69.504 Y186.89 E.03252
G1 X70.355 Y186.151 E.0407
G1 X71.133 Y185.697 E.03252
