; HEADER_BLOCK_START
; generated by OrcaSlicer 2.1.0 on 2025-05-22 at 19:31:43
; total layer number: 10
; filament_density: 1.27
; filament_diameter: 1.75
; max_z_height: 2.00
; HEADER_BLOCK_END

; THUMBNAIL_BLOCK_START

;
; THUMBNAIL_BLOCK_END

; THUMBNAIL_BLOCK_START

;
; THUMBNAIL_BLOCK_END

; external perimeters extrusion width = 0.42mm
; perimeters extrusion width = 0.45mm
; infill extrusion width = 0.45mm
; solid infill extrusion width = 0.42mm
; top infill extrusion width = 0.42mm
; support material extrusion width = 0.42mm
; first layer extrusion width = 0.50mm

; EXECUTABLE_BLOCK_START
EXCLUDE_OBJECT_DEFINE NAME=вроде_норм_пластина_для_виктора.stp_id_0_copy_0 CENTER=110,110 POLYGON=[[45,38.5188],[82,19],[114,19],[154,38.5188],[175,54.5167],[175,168.5],[154,180],[93,201],[61,201],[45,180],[45,38.5188]]
M73 P0 R42
M106 S0
M106 P2 S0
;TYPE:Custom
M140 S0
M104 S0 
START_PRINT EXTRUDER_TEMP=250 BED_TEMP=90
M106 P3 S153
G90
G21
M83 ; use relative distances for extrusion
; filament start gcode
M106 S0
M106 P2 S0
;LAYER_CHANGE
;Z:0.2
;HEIGHT:0.2
;BEFORE_LAYER_CHANGE
;0.2
G92 E0

G1 E-.6 F2400
;_SET_FAN_SPEED_CHANGING_LAYER
SET_VELOCITY_LIMIT ACCEL=500 ACCEL_TO_DECEL=250
SET_VELOCITY_LIMIT SQUARE_CORNER_VELOCITY=9
EXCLUDE_OBJECT_START NAME=вроде_норм_пластина_для_виктора.stp_id_0_copy_0
G1 Z.2 F42000
G1 X152.27 Y54.984
G1 Z.2
G1 E.6 F2400
;TYPE:Inner wall
;WIDTH:0.499999
G1 F3600
G1 X152.338 Y55.27 E.01064
G1 X152.575 Y55.682 E.01714
G1 X152.923 Y56.007 E.01718
G1 X153.359 Y56.217 E.0175
G1 X153.829 Y56.288 E.01714
G1 X173.229 Y56.288 E.70046
G1 X173.229 Y81.729 E.91856
G1 X154.728 Y81.729 E.66798
G1 X153.576 Y81.749 E.04163
G1 X153.168 Y81.872 E.01537
G1 X152.813 Y82.093 E.01511
G1 X152.503 Y82.434 E.01663
G1 X152.299 Y82.858 E.017
G1 X152.229 Y83.329 E.01717
G1 X152.229 Y136.75 E1.92885
G1 X152.324 Y137.214 E.0171
G1 X152.558 Y137.643 E.01763
G1 X152.906 Y137.979 E.01747
G1 X153.342 Y138.195 E.01756
G1 X153.829 Y138.271 E.01779
G1 X173.229 Y138.271 E.70046
G1 X173.229 Y166.729 E1.02749
G1 X154.728 Y166.729 E.66798
G1 X153.576 Y166.749 E.04163
G1 X153.168 Y166.872 E.01537
G1 X152.815 Y167.091 E.01502
G1 X152.496 Y167.443 E.01714
G1 X152.302 Y167.851 E.01632
G1 X152.229 Y168.329 E.01744
G1 X152.229 Y178.229 E.35746
G1 X92.734 Y178.229 E2.1481
G1 X92.241 Y178.34 E.01826
G1 X91.821 Y178.586 E.01756
G1 X91.493 Y178.948 E.01763
G1 X91.294 Y179.378 E.01713
G1 X91.229 Y179.829 E.01644
G1 X91.229 Y199.229 E.70046
G1 X62.771 Y199.229 E1.02749
G1 X62.763 Y179.664 E.70642
G1 X62.637 Y179.188 E.01777
G1 X62.414 Y178.821 E.0155
G1 X62.054 Y178.494 E.01756
G1 X61.625 Y178.295 E.01707
G1 X61.171 Y178.229 E.01656
G1 X46.771 Y178.229 E.51993
G1 X46.771 Y40.29 E4.98041
G1 X82.322 Y40.29 E1.28358
G1 X82.828 Y40.149 E.01898
G1 X83.232 Y39.888 E.01735
G1 X83.542 Y39.515 E.01752
G1 X83.729 Y39.056 E.01792
G1 X83.771 Y38.69 E.01328
G1 X83.771 Y20.771 E.64698
G1 X112.229 Y20.771 E1.02749
G1 X112.237 Y38.85 E.65277
G1 X112.349 Y39.299 E.01669
G1 X112.577 Y39.686 E.01622
G1 X112.925 Y40.011 E.0172
G1 X113.349 Y40.217 E.01701
G1 X113.829 Y40.29 E.01751
G1 X152.229 Y40.29 E1.38648
G1 X152.229 Y54.813 E.52435
G1 X152.26 Y54.945 E.0049
G1 X152.726 Y54.955 F42000
G1 F3600
G1 X152.843 Y55.267 E.01206
G1 X153.103 Y55.571 E.01442
G1 X153.439 Y55.762 E.01397
G1 X153.829 Y55.831 E.01428
G1 X173.686 Y55.831 E.71697
G1 X173.686 Y82.186 E.95157
G1 X154.728 Y82.186 E.68448
G1 X153.586 Y82.212 E.04124
G1 X153.247 Y82.345 E.01318
G1 X152.949 Y82.599 E.01414
G1 X152.753 Y82.943 E.01427
G1 X152.686 Y83.329 E.01414
G1 X152.686 Y136.811 E1.93105
G1 X152.828 Y137.223 E.01572
G1 X153.081 Y137.536 E.01452
G1 X153.436 Y137.745 E.01487
G1 X153.829 Y137.814 E.0144
G1 X173.686 Y137.814 E.71697
G1 X173.686 Y167.186 E1.06049
G1 X154.728 Y167.186 E.68448
G1 X153.648 Y167.2 E.03901
G1 X153.279 Y167.327 E.01407
G1 X152.964 Y167.582 E.01466
G1 X152.756 Y167.935 E.01478
G1 X152.686 Y168.329 E.01445
G1 X152.686 Y178.686 E.37396
G1 X92.685 Y178.686 E2.16637
G1 X92.26 Y178.837 E.01629
G1 X91.949 Y179.099 E.01467
G1 X91.749 Y179.455 E.01477
G1 X91.686 Y179.829 E.01367
G1 X91.686 Y199.686 E.71697
G1 X62.314 Y199.686 E1.06049
G1 X62.314 Y180.52 E.69199
G1 X62.3 Y179.65 E.03142
G1 X62.168 Y179.269 E.01458
G1 X61.908 Y178.955 E.01473
G1 X61.567 Y178.757 E.01421
G1 X61.171 Y178.686 E.01452
G1 X46.314 Y178.686 E.53644
G1 X46.314 Y39.833 E5.01342
G1 X82.296 Y39.833 E1.29915
G1 X82.711 Y39.698 E.01577
G1 X83.03 Y39.445 E.01468
G1 X83.238 Y39.101 E.01453
G1 X83.314 Y38.69 E.01507
G1 X83.314 Y20.314 E.66349
G1 X112.686 Y20.314 E1.06049
G1 X112.686 Y37.996 E.63841
M73 P1 R42
G1 X112.706 Y38.906 E.03287
G1 X112.844 Y39.27 E.01407
G1 X113.082 Y39.555 E.01339
G1 X113.429 Y39.761 E.01457
G1 X113.829 Y39.833 E.01467
G1 X152.686 Y39.833 E1.40298
G1 X152.686 Y54.847 E.5421
G1 X152.712 Y54.917 E.0027
G1 X153.143 Y54.721 F42000
G1 F3600
G1 X153.143 Y54.806 E.00307
G1 X153.291 Y55.114 E.01234
G1 X153.541 Y55.311 E.01149
G1 X153.829 Y55.374 E.01062
G1 X174.143 Y55.374 E.73347
G1 X174.143 Y82.643 E.98458
G1 X154.728 Y82.643 E.70099
G1 X153.683 Y82.658 E.03773
G1 X153.411 Y82.785 E.01083
G1 X153.216 Y83.02 E.01105
G1 X153.143 Y83.329 E.01144
G1 X153.143 Y136.779 E1.9299
G1 X153.284 Y137.088 E.01225
G1 X153.522 Y137.285 E.01116
G1 X153.829 Y137.357 E.01137
G1 X174.143 Y137.357 E.73347
G1 X174.143 Y167.643 E1.0935
G1 X154.728 Y167.643 E.70099
G1 X153.683 Y167.658 E.03773
G1 X153.402 Y167.792 E.01124
G1 X153.208 Y168.036 E.01126
G1 X153.143 Y168.329 E.01081
G1 X153.143 Y179.143 E.39046
G1 X92.721 Y179.143 E2.1816
G1 X92.406 Y179.288 E.0125
G1 X92.209 Y179.534 E.01139
G1 X92.143 Y179.829 E.01089
G1 X92.143 Y200.143 E.73347
G1 X61.857 Y200.143 E1.0935
G1 X61.857 Y180.52 E.70849
G1 X61.843 Y179.688 E.03005
G1 X61.711 Y179.405 E.01126
G1 X61.465 Y179.209 E.01136
G1 X61.171 Y179.143 E.01087
G1 X45.857 Y179.143 E.55294
G1 X45.857 Y39.376 E5.04642
G1 X82.282 Y39.376 E1.31516
G1 X82.598 Y39.227 E.0126
G1 X82.79 Y38.986 E.01115
G1 X82.857 Y38.69 E.01094
G1 X82.857 Y19.857 E.67999
G1 X113.143 Y19.857 E1.0935
G1 X113.143 Y37.996 E.65491
G1 X113.171 Y38.884 E.03207
G1 X113.292 Y39.117 E.0095
G1 X113.524 Y39.305 E.01078
G1 X113.829 Y39.376 E.01128
G1 X153.143 Y39.376 E1.41948
G1 X153.143 Y54.681 E.55261
M73 P1 R41
G1 X153.6 Y54.688 F42000
;TYPE:Outer wall
G1 F3600
G1 X153.664 Y54.846 E.00616
G1 X153.829 Y54.917 E.00647
G1 X174.6 Y54.917 E.74997
G1 X174.6 Y83.1 E1.01758
G1 X153.829 Y83.1 E.74997
G1 X153.673 Y83.161 E.00605
G1 X153.6 Y83.326 E.00649
G1 X153.6 Y136.671 E1.9261
G1 X153.666 Y136.832 E.00628
G1 X153.829 Y136.9 E.00635
G1 X174.6 Y136.9 E.74997
G1 X174.6 Y168.1 E1.12651
G1 X153.829 Y168.1 E.74997
G1 X153.67 Y168.164 E.00616
G1 X153.6 Y168.329 E.00647
G1 X153.6 Y179.6 E.40697
G1 X92.829 Y179.6 E2.19421
G1 X92.674 Y179.66 E.00597
G1 X92.6 Y179.825 E.00653
G1 X92.6 Y200.6 E.75011
G1 X61.4 Y200.6 E1.12651
G1 X61.4 Y179.829 E.74997
G1 X61.337 Y179.671 E.00614
G1 X61.171 Y179.6 E.00649
G1 X45.4 Y179.6 E.56944
G1 X45.4 Y38.919 E5.07943
G1 X82.171 Y38.919 E1.32767
G1 X82.331 Y38.854 E.0062
G1 X82.4 Y38.693 E.00634
G1 X82.4 Y19.4 E.69659
G1 X113.6 Y19.4 E1.12651
G1 X113.6 Y38.69 E.69649
M73 P2 R41
G1 X113.665 Y38.85 E.00623
G1 X113.825 Y38.919 E.00628
G1 X153.6 Y38.919 E1.43611
G1 X153.6 Y54.648 E.56792
;WIPE_START
G1 X153.664 Y54.846 E-.06247
G1 X153.829 Y54.917 E-.05377
G1 X155.441 Y54.917 E-.48376
;WIPE_END
G1 Z.4 F42000
G1 X160.857 Y156.504 Z.4
G1 Z.2
G1 E.6 F2400
;TYPE:Inner wall
G1 F3600
G1 X160.723 Y156.365 E.00695
G1 X160.175 Y155.654 E.03244
G1 X159.701 Y154.776 E.03602
G1 X159.344 Y153.613 E.04393
G1 X159.234 Y152.631 E.03566
G1 X159.292 Y151.674 E.03461
G1 X159.59 Y150.51 E.04337
G1 X160.005 Y149.616 E.0356
G1 X160.722 Y148.636 E.04385
G1 X160.963 Y148.385 E.01254
G1 X161.651 Y147.808 E.03244
G1 X162.509 Y147.298 E.03602
G1 X163.657 Y146.894 E.04394
G1 X164.647 Y146.744 E.03617
G1 X165.848 Y146.798 E.04339
G1 X166.189 Y146.86 E.01254
G1 X167.062 Y147.117 E.03285
G1 X167.964 Y147.553 E.03617
G1 X168.923 Y148.277 E.04339
G1 X169.169 Y148.519 E.01248
G1 X169.737 Y149.216 E.03244
G1 X170.235 Y150.08 E.03602
G1 X170.564 Y150.983 E.03471
G1 X170.755 Y152.17 E.04339
G1 X170.764 Y152.517 E.01254
G1 X170.69 Y153.424 E.03285
G1 X170.624 Y153.766 E.0126
G1 X170.354 Y154.635 E.03284
G1 X169.914 Y155.519 E.03565
G1 X169.171 Y156.479 E.04385
G1 X168.432 Y157.135 E.03567
G1 X167.385 Y157.748 E.04381
G1 X166.455 Y158.081 E.03566
G1 X165.253 Y158.259 E.04386
G1 X164.904 Y158.264 E.0126
G1 X163.999 Y158.177 E.03284
G1 X163.044 Y157.926 E.03566
G1 X161.952 Y157.393 E.04385
G1 X161.662 Y157.2 E.0126
G1 X160.964 Y156.616 E.03285
G1 X160.884 Y156.533 E.00415
G1 X161.136 Y156.115 F42000
G1 F3600
G1 X160.537 Y155.375 E.03439
G1 X160.109 Y154.57 E.03289
G1 X159.784 Y153.489 E.04076
G1 X159.69 Y152.594 E.03252
G1 X159.748 Y151.712 E.03188
G1 X160.03 Y150.634 E.04025
G1 X160.414 Y149.821 E.03248
G1 X161.085 Y148.915 E.0407
G1 X161.945 Y148.158 E.04135
G1 X162.731 Y147.698 E.03289
G1 X163.798 Y147.329 E.04077
G1 X164.702 Y147.197 E.03299
G1 X165.816 Y147.254 E.04026
G1 X166.933 Y147.555 E.04177
G1 X167.753 Y147.958 E.03299
G1 X168.639 Y148.635 E.04026
G1 X169.383 Y149.504 E.04131
G1 X169.833 Y150.297 E.03289
G1 X170.131 Y151.13 E.03196
G1 X170.302 Y152.232 E.04026
G1 X170.234 Y153.386 E.04177
G1 X169.918 Y154.5 E.0418
G1 X169.511 Y155.303 E.03251
G1 X168.816 Y156.191 E.04071
G1 X168.139 Y156.785 E.03252
G1 X167.163 Y157.348 E.04067
G1 X166.313 Y157.646 E.03252
G1 X165.197 Y157.805 E.04071
G1 X164.042 Y157.722 E.0418
G1 X163.173 Y157.487 E.03252
G1 X162.163 Y156.987 E.0407
G1 X161.257 Y156.265 E.04181
G1 X161.161 Y156.146 E.00552
G1 X161.482 Y155.829 F42000
G1 F3600
G1 X160.899 Y155.096 E.03383
G1 X160.517 Y154.365 E.02976
G1 X160.224 Y153.366 E.03759
G1 X160.145 Y152.556 E.02938
G1 X160.203 Y151.751 E.02916
G1 X160.47 Y150.758 E.03712
G1 X160.823 Y150.025 E.02935
G1 X161.447 Y149.193 E.03756
G1 X162.239 Y148.509 E.03779
G1 X162.953 Y148.098 E.02976
G1 X163.939 Y147.764 E.0376
G1 X164.758 Y147.651 E.02982
G1 X165.784 Y147.71 E.03713
G1 X166.804 Y147.994 E.0382
G1 X167.542 Y148.364 E.02982
G1 X168.355 Y148.993 E.03713
G1 X169.029 Y149.793 E.03776
G1 X169.43 Y150.513 E.02976
G1 X169.698 Y151.276 E.0292
G1 X169.849 Y152.293 E.03713
G1 X169.779 Y153.349 E.0382
G1 X169.481 Y154.365 E.03821
G1 X169.108 Y155.088 E.02937
G1 X168.461 Y155.902 E.03757
G1 X167.845 Y156.434 E.02938
G1 X166.942 Y156.948 E.03753
G1 X166.172 Y157.212 E.02938
G1 X165.141 Y157.352 E.03757
G1 X164.086 Y157.267 E.03821
G1 X163.302 Y157.049 E.02938
G1 X162.373 Y156.581 E.03756
G1 X161.551 Y155.915 E.03822
G1 X161.507 Y155.86 E.00251
G1 X161.832 Y155.549 F42000
;TYPE:Outer wall
G1 F3600
G1 X161.261 Y154.817 E.03354
G1 X160.926 Y154.16 E.02663
G1 X160.664 Y153.243 E.03442
G1 X160.601 Y152.519 E.02624
G1 X160.659 Y151.789 E.02643
G1 X160.91 Y150.882 E.03399
G1 X161.231 Y150.23 E.02623
G1 X161.809 Y149.472 E.03442
G1 X162.532 Y148.859 E.03422
G1 X163.175 Y148.497 E.02663
G1 X164.081 Y148.198 E.03443
G1 X164.813 Y148.105 E.02665
G1 X165.753 Y148.166 E.034
G1 X166.674 Y148.432 E.03463
G1 X167.331 Y148.769 E.02665
G1 X168.071 Y149.351 E.034
G1 X168.674 Y150.082 E.03421
G1 X169.027 Y150.73 E.02663
G1 X169.265 Y151.423 E.02645
G1 X169.396 Y152.355 E.034
G1 X169.323 Y153.312 E.03463
G1 X169.045 Y154.229 E.03463
G1 X168.705 Y154.872 E.02623
G1 X168.107 Y155.614 E.03443
G1 X167.552 Y156.083 E.02624
G1 X166.721 Y156.548 E.03439
G1 X166.031 Y156.777 E.02624
G1 X165.085 Y156.898 E.03443
G1 X164.13 Y156.812 E.03463
G1 X163.432 Y156.61 E.02624
G1 X162.583 Y156.175 E.03442
G1 X161.86 Y155.577 E.03388
;WIPE_START
G1 X161.261 Y154.817 E-.29051
G1 X160.926 Y154.16 E-.22129
G1 X160.845 Y153.877 E-.0882
;WIPE_END
G1 Z.4 F42000
G1 X163.891 Y61.859 Z.4
G1 Z.2
G1 E.6 F2400
;TYPE:Inner wall
G1 F3600
G1 X164.647 Y61.744 E.02762
G1 X165.848 Y61.798 E.04339
G1 X166.189 Y61.86 E.01254
G1 X167.062 Y62.117 E.03285
G1 X167.964 Y62.553 E.03617
G1 X168.923 Y63.277 E.04339
G1 X169.169 Y63.519 E.01248
G1 X169.737 Y64.216 E.03244
G1 X170.235 Y65.08 E.03602
G1 X170.564 Y65.983 E.03471
G1 X170.755 Y67.17 E.04339
G1 X170.764 Y67.517 E.01254
G1 X170.69 Y68.424 E.03285
G1 X170.624 Y68.766 E.0126
G1 X170.354 Y69.635 E.03284
G1 X169.914 Y70.519 E.03565
G1 X169.171 Y71.479 E.04385
G1 X168.432 Y72.135 E.03567
G1 X167.385 Y72.748 E.04381
G1 X166.455 Y73.081 E.03566
G1 X165.253 Y73.259 E.04386
G1 X164.904 Y73.264 E.0126
G1 X163.999 Y73.177 E.03284
G1 X163.044 Y72.926 E.03566
G1 X161.952 Y72.393 E.04385
G1 X161.662 Y72.2 E.0126
G1 X160.964 Y71.616 E.03285
G1 X160.723 Y71.365 E.01254
G1 X160.175 Y70.654 E.03244
G1 X159.701 Y69.776 E.03602
G1 X159.344 Y68.613 E.04393
G1 X159.237 Y67.661 E.03458
G1 X159.292 Y66.674 E.03568
G1 X159.59 Y65.51 E.04337
G1 X160.005 Y64.616 E.0356
G1 X160.722 Y63.636 E.04385
G1 X160.963 Y63.385 E.01254
G1 X161.651 Y62.808 E.03244
G1 X162.509 Y62.298 E.03602
G1 X163.657 Y61.894 E.04394
G1 X163.851 Y61.865 E.0071
G1 X163.965 Y62.305 F42000
G1 F3600
G1 X164.702 Y62.197 E.02689
G1 X165.816 Y62.254 E.04026
G1 X166.933 Y62.555 E.04177
G1 X167.753 Y62.958 E.03299
G1 X168.639 Y63.635 E.04026
G1 X169.383 Y64.504 E.04131
G1 X169.833 Y65.297 E.03289
G1 X170.131 Y66.13 E.03196
G1 X170.302 Y67.232 E.04026
G1 X170.234 Y68.386 E.04177
G1 X169.918 Y69.5 E.0418
G1 X169.511 Y70.303 E.03251
G1 X168.816 Y71.191 E.04071
G1 X168.139 Y71.785 E.03252
G1 X167.163 Y72.348 E.04067
G1 X166.313 Y72.646 E.03252
G1 X165.197 Y72.805 E.04071
G1 X164.042 Y72.722 E.0418
G1 X163.173 Y72.487 E.03252
G1 X162.163 Y71.987 E.0407
G1 X161.257 Y71.265 E.04181
G1 X160.537 Y70.375 E.04136
G1 X160.109 Y69.57 E.03289
G1 X159.784 Y68.489 E.04076
G1 X159.692 Y67.624 E.03144
G1 X159.748 Y66.712 E.03296
G1 X160.03 Y65.634 E.04025
G1 X160.414 Y64.821 E.03248
G1 X161.085 Y63.915 E.0407
G1 X161.945 Y63.158 E.04135
G1 X162.731 Y62.698 E.03289
G1 X163.798 Y62.329 E.04077
G1 X163.926 Y62.31 E.00466
G1 X164.035 Y62.751 F42000
G1 F3600
G1 X164.758 Y62.651 E.02635
G1 X165.784 Y62.71 E.03713
G1 X166.804 Y62.994 E.0382
G1 X167.542 Y63.364 E.02982
G1 X168.355 Y63.993 E.03713
G1 X169.029 Y64.793 E.03776
G1 X169.43 Y65.513 E.02976
G1 X169.698 Y66.276 E.0292
G1 X169.849 Y67.293 E.03713
G1 X169.779 Y68.349 E.0382
G1 X169.481 Y69.365 E.03821
G1 X169.108 Y70.088 E.02937
G1 X168.461 Y70.902 E.03757
G1 X167.845 Y71.434 E.02938
G1 X166.942 Y71.948 E.03753
G1 X166.172 Y72.212 E.02938
G1 X165.141 Y72.352 E.03757
G1 X164.086 Y72.267 E.03821
G1 X163.302 Y72.049 E.02938
G1 X162.373 Y71.581 E.03756
G1 X161.551 Y70.915 E.03822
G1 X160.899 Y70.096 E.03779
G1 X160.517 Y69.365 E.02976
G1 X160.224 Y68.366 E.03759
G1 X160.148 Y67.586 E.02829
G1 X160.203 Y66.751 E.03023
G1 X160.47 Y65.758 E.03712
G1 X160.823 Y65.025 E.02935
G1 X161.447 Y64.193 E.03756
G1 X162.239 Y63.509 E.03779
G1 X162.953 Y63.098 E.02976
G1 X163.939 Y62.764 E.0376
G1 X163.995 Y62.756 E.00203
G1 X164.097 Y63.196 F42000
;TYPE:Outer wall
G1 F3600
G1 X164.813 Y63.105 E.02605
G1 X165.753 Y63.166 E.034
G1 X166.674 Y63.432 E.03463
G1 X167.331 Y63.769 E.02665
G1 X168.071 Y64.351 E.034
G1 X168.674 Y65.082 E.03421
G1 X169.027 Y65.73 E.02663
G1 X169.265 Y66.423 E.02645
G1 X169.396 Y67.355 E.034
G1 X169.323 Y68.312 E.03463
G1 X169.045 Y69.229 E.03463
G1 X168.705 Y69.872 E.02623
G1 X168.107 Y70.614 E.03443
G1 X167.552 Y71.083 E.02624
G1 X166.721 Y71.548 E.03439
G1 X166.031 Y71.777 E.02624
G1 X165.085 Y71.898 E.03443
G1 X164.13 Y71.812 E.03463
G1 X163.432 Y71.61 E.02624
G1 X162.583 Y71.175 E.03442
G1 X161.844 Y70.564 E.03464
G1 X161.261 Y69.817 E.03422
G1 X160.926 Y69.16 E.02663
G1 X160.664 Y68.243 E.03442
G1 X160.603 Y67.549 E.02515
G1 X160.659 Y66.789 E.0275
G1 X160.91 Y65.882 E.03399
G1 X161.231 Y65.23 E.02623
G1 X161.809 Y64.472 E.03442
G1 X162.532 Y63.859 E.03422
G1 X163.175 Y63.497 E.02663
G1 X164.059 Y63.206 E.03359
;WIPE_START
G1 X164.813 Y63.105 E-.22834
G1 X165.753 Y63.166 E-.28252
G1 X166.038 Y63.249 E-.08914
;WIPE_END
G1 Z.4 F42000
G1 X101.955 Y33.171 Z.4
G1 Z.2
G1 E.6 F2400
;TYPE:Inner wall
G1 F3600
G1 X101.432 Y33.635 E.02523
G1 X100.384 Y34.248 E.04384
G1 X99.455 Y34.581 E.03565
