; HEADER_BLOCK_START
; generated by OrcaSlicer 2.1.0 on 2025-05-22 at 18:45:03
; total layer number: 10
; filament_density: 1.27
; filament_diameter: 1.75
; max_z_height: 2.00
; HEADER_BLOCK_END

; THUMBNAIL_BLOCK_START

;
; THUMBNAIL_BLOCK_END

; THUMBNAIL_BLOCK_START

;
; THUMBNAIL_BLOCK_END

; external perimeters extrusion width = 0.42mm
; perimeters extrusion width = 0.45mm
; infill extrusion width = 0.45mm
; solid infill extrusion width = 0.42mm
; top infill extrusion width = 0.42mm
; support material extrusion width = 0.42mm
; first layer extrusion width = 0.50mm

; EXECUTABLE_BLOCK_START
EXCLUDE_OBJECT_DEFINE NAME=вроде_норм_пластина_для_виктора.stp_id_0_copy_0 CENTER=110,110 POLYGON=[[45,19],[175,19],[175,201],[45,201],[45,19]]
M73 P0 R52
M106 S0
M106 P2 S0
;TYPE:Custom
M140 S0
M104 S0 
START_PRINT EXTRUDER_TEMP=250 BED_TEMP=90
M106 P3 S153
G90
G21
M83 ; use relative distances for extrusion
; filament start gcode
M106 S0
M106 P2 S0
;LAYER_CHANGE
;Z:0.2
;HEIGHT:0.2
;BEFORE_LAYER_CHANGE
;0.2
G92 E0

G1 E-.6 F2400
;_SET_FAN_SPEED_CHANGING_LAYER
SET_VELOCITY_LIMIT ACCEL=500 ACCEL_TO_DECEL=250
SET_VELOCITY_LIMIT SQUARE_CORNER_VELOCITY=9
EXCLUDE_OBJECT_START NAME=вроде_норм_пластина_для_виктора.stp_id_0_copy_0
G1 Z.2 F42000
G1 X173.229 Y199.229
G1 Z.2
G1 E.6 F2400
;TYPE:Inner wall
;WIDTH:0.499999
G1 F3600
G1 X46.771 Y199.229 E4.56587
G1 X46.771 Y20.771 E6.44338
G1 X173.229 Y20.771 E4.56587
G1 X173.229 Y199.189 E6.44194
G1 X173.686 Y199.686 F42000
G1 F3600
G1 X46.314 Y199.686 E4.59888
G1 X46.314 Y20.314 E6.47639
G1 X173.686 Y20.314 E4.59888
G1 X173.686 Y199.646 E6.47494
G1 X174.143 Y200.143 F42000
G1 F3600
G1 X45.857 Y200.143 E4.63188
G1 X45.857 Y19.857 E6.50939
G1 X174.143 Y19.857 E4.63188
G1 X174.143 Y200.103 E6.50795
M73 P1 R52
G1 X174.6 Y200.6 F42000
;TYPE:Outer wall
G1 F3600
G1 X45.4 Y200.6 E4.66489
G1 X45.4 Y19.4 E6.5424
G1 X174.6 Y19.4 E4.66489
G1 X174.6 Y200.56 E6.54096
;WIPE_START
G1 X172.6 Y200.561 E-.6
;WIPE_END
G1 Z.4 F42000
G1 X169.031 Y148.383 Z.4
G1 Z.2
G1 E.6 F2400
;TYPE:Inner wall
G1 F3600
G1 X169.169 Y148.519 E.00703
G1 X169.737 Y149.216 E.03244
G1 X170.235 Y150.08 E.03602
G1 X170.564 Y150.983 E.03471
G1 X170.755 Y152.17 E.04339
G1 X170.764 Y152.517 E.01254
G1 X170.69 Y153.424 E.03285
G1 X170.624 Y153.766 E.0126
G1 X170.354 Y154.635 E.03284
G1 X169.914 Y155.519 E.03565
G1 X169.171 Y156.479 E.04385
G1 X168.432 Y157.135 E.03567
G1 X167.385 Y157.748 E.04381
G1 X166.455 Y158.081 E.03566
G1 X165.253 Y158.259 E.04386
G1 X164.904 Y158.264 E.0126
G1 X163.999 Y158.177 E.03284
G1 X163.044 Y157.926 E.03566
G1 X161.952 Y157.393 E.04385
G1 X161.662 Y157.2 E.0126
G1 X160.964 Y156.616 E.03285
G1 X160.723 Y156.365 E.01254
G1 X160.175 Y155.654 E.03244
G1 X159.701 Y154.776 E.03602
G1 X159.344 Y153.613 E.04393
G1 X159.234 Y152.631 E.03566
G1 X159.292 Y151.674 E.03461
G1 X159.59 Y150.51 E.04337
G1 X160.005 Y149.616 E.0356
G1 X160.722 Y148.636 E.04385
G1 X160.963 Y148.385 E.01254
G1 X161.651 Y147.808 E.03244
G1 X162.509 Y147.298 E.03602
G1 X163.657 Y146.894 E.04394
G1 X164.647 Y146.744 E.03617
G1 X165.848 Y146.798 E.04339
G1 X166.189 Y146.86 E.01254
G1 X167.062 Y147.117 E.03285
G1 X167.964 Y147.553 E.03617
G1 X168.923 Y148.277 E.04339
G1 X169.002 Y148.355 E.00401
G1 X168.762 Y148.778 F42000
G1 F3600
G1 X169.383 Y149.504 E.03449
G1 X169.833 Y150.297 E.03289
G1 X170.131 Y151.13 E.03196
G1 X170.302 Y152.232 E.04026
G1 X170.234 Y153.386 E.04177
G1 X169.918 Y154.5 E.0418
G1 X169.511 Y155.303 E.03251
G1 X168.816 Y156.191 E.04071
G1 X168.139 Y156.785 E.03252
G1 X167.163 Y157.348 E.04067
G1 X166.313 Y157.646 E.03252
G1 X165.197 Y157.805 E.04071
G1 X164.042 Y157.722 E.0418
G1 X163.173 Y157.487 E.03252
G1 X162.163 Y156.987 E.0407
G1 X161.257 Y156.265 E.04181
G1 X160.537 Y155.375 E.04136
G1 X160.109 Y154.57 E.03289
G1 X159.784 Y153.489 E.04076
G1 X159.69 Y152.594 E.03252
G1 X159.748 Y151.712 E.03188
G1 X160.03 Y150.634 E.04025
G1 X160.414 Y149.821 E.03248
G1 X161.085 Y148.915 E.0407
G1 X161.945 Y148.158 E.04135
G1 X162.731 Y147.698 E.03289
G1 X163.798 Y147.329 E.04077
G1 X164.702 Y147.197 E.03299
G1 X165.816 Y147.254 E.04026
G1 X166.933 Y147.555 E.04177
G1 X167.753 Y147.958 E.03299
G1 X168.639 Y148.635 E.04026
G1 X168.736 Y148.748 E.00538
G1 X168.424 Y149.074 F42000
G1 F3600
G1 X169.029 Y149.793 E.03394
G1 X169.43 Y150.513 E.02976
G1 X169.698 Y151.276 E.0292
G1 X169.849 Y152.293 E.03713
G1 X169.779 Y153.349 E.0382
G1 X169.481 Y154.365 E.03821
G1 X169.108 Y155.088 E.02937
G1 X168.461 Y155.902 E.03757
G1 X167.845 Y156.434 E.02938
G1 X166.942 Y156.948 E.03753
G1 X166.172 Y157.212 E.02938
G1 X165.141 Y157.352 E.03757
G1 X164.086 Y157.267 E.03821
G1 X163.302 Y157.049 E.02938
G1 X162.373 Y156.581 E.03756
G1 X161.551 Y155.915 E.03822
G1 X160.899 Y155.096 E.03779
G1 X160.517 Y154.365 E.02976
G1 X160.224 Y153.366 E.03759
G1 X160.145 Y152.556 E.02938
G1 X160.203 Y151.751 E.02916
G1 X160.47 Y150.758 E.03712
G1 X160.823 Y150.025 E.02935
G1 X161.447 Y149.193 E.03756
G1 X162.239 Y148.509 E.03779
G1 X162.953 Y148.098 E.02976
G1 X163.939 Y147.764 E.0376
G1 X164.758 Y147.651 E.02982
G1 X165.784 Y147.71 E.03713
G1 X166.804 Y147.994 E.0382
G1 X167.542 Y148.364 E.02982
G1 X168.355 Y148.993 E.03713
G1 X168.398 Y149.043 E.00238
G1 X168.081 Y149.363 F42000
;TYPE:Outer wall
G1 F3600
G1 X168.674 Y150.082 E.03365
G1 X169.027 Y150.73 E.02663
G1 X169.265 Y151.423 E.02645
G1 X169.396 Y152.355 E.034
G1 X169.323 Y153.312 E.03463
G1 X169.045 Y154.229 E.03463
G1 X168.705 Y154.872 E.02623
G1 X168.107 Y155.614 E.03443
G1 X167.552 Y156.083 E.02624
G1 X166.721 Y156.548 E.03439
G1 X166.031 Y156.777 E.02624
G1 X165.085 Y156.898 E.03443
G1 X164.13 Y156.812 E.03463
G1 X163.432 Y156.61 E.02624
G1 X162.583 Y156.175 E.03442
G1 X161.844 Y155.564 E.03464
M73 P1 R51
G1 X161.261 Y154.817 E.03422
G1 X160.926 Y154.16 E.02663
G1 X160.664 Y153.243 E.03442
G1 X160.601 Y152.519 E.02624
G1 X160.659 Y151.789 E.02643
G1 X160.91 Y150.882 E.03399
G1 X161.231 Y150.23 E.02623
G1 X161.809 Y149.472 E.03442
G1 X162.532 Y148.859 E.03422
G1 X163.175 Y148.497 E.02663
G1 X164.081 Y148.198 E.03443
G1 X164.813 Y148.105 E.02665
G1 X165.753 Y148.166 E.034
G1 X166.674 Y148.432 E.03463
G1 X167.331 Y148.769 E.02665
G1 X168.052 Y149.336 E.03312
;WIPE_START
G1 X168.674 Y150.082 E-.2914
G1 X169.027 Y150.73 E-.22129
G1 X169.122 Y151.005 E-.08731
;WIPE_END
G1 Z.4 F42000
G1 X168.149 Y62.693 Z.4
G1 Z.2
G1 E.6 F2400
;TYPE:Inner wall
G1 F3600
G1 X168.923 Y63.277 E.035
G1 X169.169 Y63.519 E.01248
G1 X169.737 Y64.216 E.03244
G1 X170.235 Y65.08 E.03602
G1 X170.564 Y65.983 E.03471
G1 X170.755 Y67.17 E.04339
G1 X170.764 Y67.517 E.01254
G1 X170.69 Y68.424 E.03285
G1 X170.624 Y68.766 E.0126
G1 X170.354 Y69.635 E.03284
G1 X169.914 Y70.519 E.03565
G1 X169.171 Y71.479 E.04385
G1 X168.432 Y72.135 E.03567
G1 X167.385 Y72.748 E.04381
G1 X166.455 Y73.081 E.03566
G1 X165.253 Y73.259 E.04386
G1 X164.904 Y73.264 E.0126
G1 X163.999 Y73.177 E.03284
G1 X163.044 Y72.926 E.03566
G1 X161.952 Y72.393 E.04385
G1 X161.662 Y72.2 E.0126
G1 X160.964 Y71.616 E.03285
G1 X160.723 Y71.365 E.01254
G1 X160.173 Y70.651 E.03258
G1 X159.701 Y69.776 E.03588
G1 X159.344 Y68.613 E.04393
G1 X159.234 Y67.631 E.03566
G1 X159.292 Y66.674 E.03461
G1 X159.59 Y65.51 E.04337
G1 X160.005 Y64.616 E.0356
G1 X160.722 Y63.636 E.04385
G1 X160.963 Y63.385 E.01254
G1 X161.651 Y62.808 E.03244
G1 X162.509 Y62.298 E.03602
G1 X163.657 Y61.894 E.04394
G1 X164.647 Y61.744 E.03617
G1 X165.848 Y61.798 E.04339
G1 X166.189 Y61.86 E.01254
G1 X167.062 Y62.117 E.03285
G1 X167.964 Y62.553 E.03617
G1 X168.117 Y62.669 E.00694
G1 X167.882 Y63.057 F42000
G1 F3600
G1 X168.639 Y63.635 E.0344
G1 X169.383 Y64.504 E.04131
G1 X169.833 Y65.297 E.03289
G1 X170.131 Y66.13 E.03196
G1 X170.302 Y67.232 E.04026
G1 X170.234 Y68.386 E.04177
G1 X169.918 Y69.5 E.0418
G1 X169.511 Y70.303 E.03251
G1 X168.816 Y71.191 E.04071
G1 X168.139 Y71.785 E.03252
G1 X167.163 Y72.348 E.04067
G1 X166.313 Y72.646 E.03252
G1 X165.197 Y72.805 E.04071
G1 X164.042 Y72.722 E.0418
G1 X163.173 Y72.487 E.03252
G1 X162.163 Y71.987 E.0407
G1 X161.257 Y71.265 E.04181
G1 X160.537 Y70.375 E.04136
G1 X160.109 Y69.57 E.03289
G1 X159.784 Y68.489 E.04076
G1 X159.69 Y67.594 E.03252
G1 X159.748 Y66.712 E.03188
G1 X160.03 Y65.634 E.04025
G1 X160.414 Y64.821 E.03248
G1 X161.085 Y63.915 E.0407
G1 X161.945 Y63.158 E.04135
G1 X162.731 Y62.698 E.03289
G1 X163.798 Y62.329 E.04077
G1 X164.702 Y62.197 E.03299
G1 X165.816 Y62.254 E.04026
G1 X166.933 Y62.555 E.04177
G1 X167.753 Y62.958 E.03299
G1 X167.85 Y63.033 E.00441
G1 X167.611 Y63.418 F42000
G1 F3600
G1 X168.355 Y63.993 E.03396
G1 X169.029 Y64.793 E.03776
G1 X169.43 Y65.513 E.02976
G1 X169.698 Y66.276 E.0292
G1 X169.849 Y67.293 E.03713
G1 X169.779 Y68.349 E.0382
G1 X169.481 Y69.365 E.03821
G1 X169.108 Y70.088 E.02937
G1 X168.461 Y70.902 E.03757
G1 X167.845 Y71.434 E.02938
G1 X166.942 Y71.948 E.03753
G1 X166.172 Y72.212 E.02938
G1 X165.141 Y72.352 E.03757
G1 X164.086 Y72.267 E.03821
G1 X163.302 Y72.049 E.02938
G1 X162.373 Y71.581 E.03756
G1 X161.551 Y70.915 E.03822
G1 X160.899 Y70.096 E.03779
G1 X160.517 Y69.365 E.02976
G1 X160.224 Y68.366 E.03759
G1 X160.145 Y67.556 E.02938
G1 X160.203 Y66.751 E.02916
G1 X160.47 Y65.758 E.03712
G1 X160.823 Y65.025 E.02935
G1 X161.447 Y64.193 E.03756
G1 X162.239 Y63.509 E.03779
G1 X162.953 Y63.098 E.02976
G1 X163.939 Y62.764 E.0376
G1 X164.758 Y62.651 E.02982
G1 X165.784 Y62.71 E.03713
G1 X166.804 Y62.994 E.0382
G1 X167.542 Y63.364 E.02982
G1 X167.58 Y63.393 E.00172
G1 X167.316 Y63.762 F42000
;TYPE:Outer wall
G1 F3600
G1 X167.331 Y63.769 E.0006
G1 X168.071 Y64.351 E.034
G1 X168.674 Y65.082 E.03421
G1 X169.027 Y65.73 E.02663
G1 X169.265 Y66.423 E.02645
G1 X169.396 Y67.355 E.034
G1 X169.323 Y68.312 E.03463
G1 X169.045 Y69.229 E.03463
G1 X168.705 Y69.872 E.02623
G1 X168.107 Y70.614 E.03443
G1 X167.552 Y71.083 E.02624
G1 X166.721 Y71.548 E.03439
G1 X166.031 Y71.777 E.02624
G1 X165.085 Y71.898 E.03443
G1 X164.13 Y71.812 E.03463
G1 X163.432 Y71.61 E.02624
G1 X162.583 Y71.175 E.03442
G1 X161.844 Y70.564 E.03464
G1 X161.261 Y69.817 E.03422
G1 X160.926 Y69.16 E.02663
G1 X160.664 Y68.243 E.03442
G1 X160.601 Y67.519 E.02624
G1 X160.659 Y66.789 E.02643
G1 X160.91 Y65.882 E.03399
G1 X161.231 Y65.23 E.02623
G1 X161.809 Y64.472 E.03442
G1 X162.532 Y63.859 E.03422
G1 X163.175 Y63.497 E.02663
G1 X164.081 Y63.198 E.03443
G1 X164.813 Y63.105 E.02665
G1 X165.753 Y63.166 E.034
G1 X166.674 Y63.432 E.03463
G1 X167.281 Y63.743 E.02461
;WIPE_START
G1 X167.331 Y63.769 E-.01701
G1 X168.071 Y64.351 E-.28252
G1 X168.674 Y65.082 E-.28427
G1 X168.7 Y65.13 E-.0162
;WIPE_END
G1 Z.4 F42000
G1 X101.954 Y33.173 Z.4
G1 Z.2
G1 E.6 F2400
;TYPE:Inner wall
G1 F3600
G1 X101.432 Y33.635 E.02515
G1 X100.384 Y34.248 E.04384
G1 X99.455 Y34.581 E.03565
G1 X98.437 Y34.736 E.03716
G1 X97.948 Y34.767 E.01769
G1 X97.267 Y34.721 E.02467
G1 X96.086 Y34.437 E.04385
G1 X95.76 Y34.311 E.0126
G1 X94.952 Y33.893 E.03285
G1 X94.662 Y33.7 E.0126
G1 X93.964 Y33.116 E.03285
G1 X93.318 Y32.368 E.03567
G1 X92.72 Y31.312 E.04383
G1 X92.397 Y30.364 E.03617
G1 X92.238 Y29.173 E.04339
G1 X92.238 Y28.826 E.01254
G1 X92.337 Y27.921 E.03284
G1 X92.602 Y26.97 E.03566
G1 X93.142 Y25.897 E.04338
G1 X93.748 Y25.104 E.03602
G1 X94.662 Y24.3 E.04395
G1 X95.512 Y23.797 E.03567
G1 X96.657 Y23.394 E.04383
G1 X97.647 Y23.244 E.03617
G1 X98.848 Y23.298 E.04339
G1 X99.189 Y23.36 E.01254
G1 X100.062 Y23.617 E.03285
G1 X100.384 Y23.752 E.0126
G1 X101.18 Y24.192 E.03286
G1 X101.956 Y24.803 E.03566
G1 X102.588 Y25.505 E.03409
G1 X103.215 Y26.545 E.04383
G1 X103.354 Y26.865 E.0126
G1 X103.624 Y27.734 E.03286
G1 X103.76 Y28.712 E.03566
G1 X103.69 Y29.924 E.04382
G1 X103.452 Y30.882 E.03566
G1 X102.934 Y31.981 E.04385
G1 X102.745 Y32.274 E.0126
G1 X102.165 Y32.986 E.03316
G1 X101.984 Y33.147 E.00874
G1 X101.649 Y32.837 F42000
G1 F3600
G1 X101.139 Y33.284 E.0245
G1 X100.163 Y33.848 E.0407
G1 X99.313 Y34.146 E.03251
G1 X98.381 Y34.283 E.03402
G1 X97.979 Y34.311 E.01454
G1 X97.298 Y34.265 E.02467
G1 X96.203 Y33.995 E.0407
G1 X95.163 Y33.487 E.04181
G1 X94.257 Y32.765 E.04181
G1 X93.673 Y32.08 E.03252
G1 X93.123 Y31.096 E.04069
G1 X92.833 Y30.229 E.03299
G1 X92.692 Y29.123 E.04026
G1 X92.792 Y27.971 E.04175
G1 X93.038 Y27.105 E.03252
G1 X93.545 Y26.112 E.04025
G1 X94.103 Y25.392 E.03289
G1 X94.955 Y24.651 E.04077
G1 X95.733 Y24.197 E.03252
G1 X96.798 Y23.829 E.04069
G1 X97.702 Y23.697 E.03299
G1 X98.816 Y23.754 E.04026
G1 X99.933 Y24.055 E.04177
G1 X100.959 Y24.592 E.04182
G1 X101.663 Y25.154 E.03252
G1 X102.241 Y25.803 E.0314
G1 X102.818 Y26.771 E.04069
G1 X103.187 Y27.869 E.04181
G1 X103.306 Y28.762 E.03252
G1 X103.234 Y29.886 E.04068
G1 X103.012 Y30.759 E.03252
G1 X102.525 Y31.776 E.0407
G1 X101.816 Y32.691 E.0418
G1 X101.679 Y32.811 E.00656
G1 X101.348 Y32.5 F42000
G1 F3600
G1 X100.846 Y32.934 E.02396
G1 X99.942 Y33.448 E.03756
G1 X99.172 Y33.712 E.02937
G1 X98.325 Y33.829 E.03088
G1 X98.011 Y33.855 E.0114
G1 X97.329 Y33.809 E.02467
G1 X96.32 Y33.554 E.03756
G1 X95.373 Y33.081 E.03822
G1 X94.551 Y32.415 E.03822
G1 X94.027 Y31.791 E.02938
G1 X93.525 Y30.881 E.03755
G1 X93.27 Y30.095 E.02982
G1 X93.147 Y29.074 E.03713
G1 X93.246 Y28.021 E.03819
G1 X93.475 Y27.24 E.02938
G1 X93.949 Y26.328 E.03712
G1 X94.458 Y25.68 E.02976
G1 X95.248 Y25.002 E.0376
G1 X95.954 Y24.597 E.02938
G1 X96.939 Y24.264 E.03755
G1 X97.758 Y24.151 E.02982
G1 X98.784 Y24.21 E.03713
G1 X99.804 Y24.494 E.0382
G1 X100.738 Y24.992 E.03823
G1 X101.37 Y25.505 E.02937
G1 X101.895 Y26.101 E.0287
G1 X102.422 Y26.998 E.03755
G1 X102.75 Y28.004 E.03823
G1 X102.852 Y28.812 E.02937
G1 X102.779 Y29.849 E.03754
G1 X102.571 Y30.635 E.02938
G1 X102.117 Y31.571 E.03756
G1 X101.462 Y32.402 E.03821
G1 X101.378 Y32.474 E.00396
G1 X101.053 Y32.16 F42000
;TYPE:Outer wall
G1 F3600
G1 X100.552 Y32.583 E.02367
G1 X99.72 Y33.048 E.03442
G1 X99.031 Y33.277 E.02623
G1 X98.042 Y33.399 E.03599
G1 X97.356 Y33.352 E.0248
G1 X96.438 Y33.112 E.03429
G1 X95.583 Y32.675 E.03464
G1 X94.844 Y32.064 E.03464
G1 X94.382 Y31.503 E.02624
G1 X93.928 Y30.665 E.03441
G1 X93.707 Y29.96 E.02665
G1 X93.601 Y29.025 E.034
G1 X93.7 Y28.071 E.03462
G1 X93.912 Y27.376 E.02624
G1 X94.352 Y26.543 E.034
G1 X94.813 Y25.967 E.02663
G1 X95.542 Y25.352 E.03443
G1 X96.176 Y24.997 E.02624
G1 X97.081 Y24.698 E.03441
G1 X97.813 Y24.605 E.02665
G1 X98.753 Y24.666 E.034
G1 X99.674 Y24.932 E.03463
G1 X100.516 Y25.392 E.03465
G1 X101.076 Y25.855 E.02623
G1 X101.548 Y26.399 E.02601
G1 X102.025 Y27.225 E.03441
G1 X102.314 Y28.14 E.03465
G1 X102.397 Y28.861 E.02623
G1 X102.323 Y29.811 E.0344
G1 X102.131 Y30.512 E.02624
G1 X101.708 Y31.366 E.03442
G1 X101.107 Y32.114 E.03463
G1 X101.083 Y32.134 E.00112
;WIPE_START
G1 X100.552 Y32.583 E-.20867
G1 X99.72 Y33.048 E-.28597
G1 X99.387 Y33.159 E-.10536
;WIPE_END
G1 Z.4 F42000
G1 X82.296 Y188.76 Z.4
G1 Z.2
G1 E.6 F2400
;TYPE:Inner wall
G1 F3600
G1 X82.561 Y189.47 E.02735
G1 X82.755 Y190.668 E.04383
G1 X82.764 Y191.017 E.0126
G1 X82.69 Y191.924 E.03285
G1 X82.624 Y192.266 E.0126
G1 X82.354 Y193.135 E.03285
G1 X82.215 Y193.455 E.0126
G1 X81.764 Y194.245 E.03284
G1 X81.143 Y195.013 E.03565
G1 X80.432 Y195.635 E.0341
G1 X79.384 Y196.248 E.04384
G1 X78.455 Y196.581 E.03565
G1 X77.253 Y196.759 E.04384
G1 X76.266 Y196.721 E.03566
G1 X75.086 Y196.437 E.04385
G1 X74.76 Y196.311 E.0126
G1 X73.952 Y195.893 E.03285
G1 X73.662 Y195.7 E.0126
G1 X72.964 Y195.116 E.03285
G1 X72.723 Y194.865 E.01254
G1 X72.175 Y194.154 E.03244
G1 X71.701 Y193.276 E.03602
G1 X71.344 Y192.113 E.04394
G1 X71.234 Y191.131 E.03566
G1 X71.292 Y190.174 E.03461
G1 X71.59 Y189.01 E.04339
G1 X71.72 Y188.688 E.01254
G1 X72.149 Y187.886 E.03283
G1 X72.749 Y187.102 E.03566
G1 X73.662 Y186.3 E.04385
G1 X74.512 Y185.797 E.03567
G1 X75.657 Y185.394 E.04383
G1 X76.647 Y185.244 E.03617
G1 X77.848 Y185.298 E.04339
G1 X78.189 Y185.36 E.01254
G1 X79.062 Y185.617 E.03285
G1 X79.384 Y185.752 E.0126
G1 X80.18 Y186.192 E.03284
G1 X80.956 Y186.803 E.03566
G1 X81.588 Y187.505 E.03411
G1 X82.215 Y188.545 E.04383
G1 X82.282 Y188.723 E.00688
G1 X81.875 Y188.925 F42000
G1 F3600
G1 X82.128 Y189.617 E.02662
G1 X82.302 Y190.73 E.04069
