; HEADER_BLOCK_START
; generated by OrcaSlicer 2.1.0 on 2025-02-26 at 18:54:55
; total layer number: 111
; filament_density: 1.27
; filament_diameter: 1.75
; max_z_height: 15.00
; HEADER_BLOCK_END

; THUMBNAIL_BLOCK_START

;
; THUMBNAIL_BLOCK_END

; THUMBNAIL_BLOCK_START

;
; THUMBNAIL_BLOCK_END

; external perimeters extrusion width = 0.42mm
; perimeters extrusion width = 0.45mm
; infill extrusion width = 0.45mm
; solid infill extrusion width = 0.42mm
; top infill extrusion width = 0.42mm
; support material extrusion width = 0.42mm
; first layer extrusion width = 0.50mm

; EXECUTABLE_BLOCK_START
EXCLUDE_OBJECT_DEFINE NAME=встав_для_крюка.stp_id_0_copy_0 CENTER=110,110 POLYGON=[[75,97.5],[140.75,97.5],[145,101.75],[145,118.25],[140.75,122.5],[75,122.5],[75,97.5]]
M73 P0 R25
M106 S0
M106 P2 S0
;TYPE:Custom
M140 S0
M104 S0 
START_PRINT EXTRUDER_TEMP=250 BED_TEMP=90
M106 P3 S153
G90
G21
M83 ; use relative distances for extrusion
; filament start gcode
M106 S0
M106 P2 S0
;LAYER_CHANGE
;Z:0.2
;HEIGHT:0.2
;BEFORE_LAYER_CHANGE
;0.2
G92 E0

G1 E-.6 F2400
;_SET_FAN_SPEED_CHANGING_LAYER
SET_VELOCITY_LIMIT ACCEL=500 ACCEL_TO_DECEL=250
SET_VELOCITY_LIMIT SQUARE_CORNER_VELOCITY=9
EXCLUDE_OBJECT_START NAME=встав_для_крюка.stp_id_0_copy_0
G1 Z.2 F42000
G1 X93.241 Y102.347
G1 Z.2
G1 E.6 F2400
;TYPE:Inner wall
;WIDTH:0.499999
G1 F3600
G1 X93.229 Y102.492 E.00523
G1 X93.229 Y117.053 E.52574
G1 X93.252 Y117.778 E.02621
G1 X93.336 Y118.083 E.01141
G1 X93.505 Y118.407 E.01319
G1 X93.78 Y118.717 E.01499
G1 X94.167 Y118.965 E.01658
G1 X94.638 Y119.097 E.01766
G1 X95.136 Y119.078 E.01799
G1 X115.61 Y115.071 E.75325
G1 X143.229 Y115.071 E.99722
G1 X143.229 Y117.516 E.08828
G1 X140.016 Y120.729 E.16403
G1 X76.771 Y120.729 E2.28352
G1 X76.771 Y112.526 E.29617
G1 X77.205 Y112.952 E.02196
G1 X77.924 Y113.433 E.03124
G1 X78.674 Y113.73 E.02913
G1 X79.302 Y113.845 E.02303
G1 X80.109 Y113.847 E.02913
G1 X80.734 Y113.725 E.02301
G1 X81.486 Y113.432 E.02913
G1 X82.023 Y113.089 E.02301
G1 X82.409 Y112.758 E.01837
G1 X82.652 Y112.495 E.01292
G1 X83.096 Y111.856 E.02808
G1 X83.301 Y111.392 E.01832
G1 X83.499 Y111.837 E.01759
G1 X83.77 Y112.268 E.01837
G1 X84.182 Y112.753 E.023
G1 X84.466 Y112.998 E.01353
G1 X85.07 Y113.409 E.02638
G1 X85.656 Y113.66 E.02301
G1 X86.502 Y113.845 E.03127
G1 X87.309 Y113.847 E.02911
G1 X87.934 Y113.725 E.02301
G1 X88.737 Y113.401 E.03127
G1 X89.447 Y112.907 E.03123
G1 X89.998 Y112.318 E.02913
G1 X90.334 Y111.775 E.02302
G1 X90.643 Y110.967 E.03124
G1 X90.765 Y110.17 E.02913
G1 X90.747 Y109.592 E.02088
G1 X90.625 Y108.966 E.02303
G1 X90.301 Y108.163 E.03124
G1 X89.849 Y107.496 E.02913
G1 X89.443 Y107.084 E.02088
G1 X88.927 Y106.709 E.02302
G1 X88.477 Y106.471 E.01837
G1 X88.144 Y106.34 E.01292
G1 X87.358 Y106.158 E.02913
G1 X86.781 Y106.133 E.02086
G1 X86.147 Y106.209 E.02306
G1 X85.376 Y106.444 E.02911
G1 X84.814 Y106.745 E.02299
G1 X84.404 Y107.048 E.0184
G1 X83.988 Y107.47 E.02141
G1 X83.627 Y107.939 E.02136
G1 X83.297 Y108.6 E.02668
G1 X82.977 Y107.946 E.02631
G1 X82.649 Y107.496 E.02011
G1 X82.195 Y107.048 E.023
G1 X81.786 Y106.746 E.01835
G1 X81.475 Y106.566 E.01299
G1 X80.725 Y106.27 E.02911
G1 X80.158 Y106.158 E.02086
G1 X79.522 Y106.139 E.023
G1 X78.666 Y106.275 E.03128
G1 X77.863 Y106.599 E.03127
G1 X77.153 Y107.093 E.03123
G1 X76.771 Y107.478 E.01959
G1 X76.771 Y99.271 E.29633
G1 X140.016 Y99.271 E2.28352
G1 X143.229 Y102.484 E.16403
G1 X143.229 Y104.929 E.08828
G1 X115.61 Y104.929 E.99722
G1 X95.136 Y100.922 E.75325
G1 X94.638 Y100.903 E.01799
G1 X94.167 Y101.035 E.01766
G1 X93.78 Y101.283 E.01658
G1 X93.505 Y101.593 E.01499
G1 X93.336 Y101.917 E.01319
G1 X93.252 Y102.222 E.01141
G1 X93.244 Y102.307 E.00311
G1 X93.714 Y102.338 F42000
G1 F3600
G1 X93.686 Y102.492 E.00566
G1 X93.686 Y117.508 E.54219
G1 X93.762 Y117.919 E.01508
G1 X93.883 Y118.15 E.00942
G1 X94.08 Y118.372 E.0107
G1 X94.356 Y118.549 E.01184
G1 X94.631 Y118.634 E.0104
G1 X95.048 Y118.63 E.01505
G1 X115.565 Y114.614 E.75485
G1 X143.686 Y114.614 E1.01532
G1 X143.686 Y117.706 E.11162
G1 X140.206 Y121.186 E.1777
G1 X76.314 Y121.186 E2.30686
G1 X76.314 Y111.407 E.35306
;WIDTH:0.546002
G1 X76.337 Y110.707 E.02785
G1 X76.396 Y110.887 E.00752
;WIDTH:0.523756
G1 X76.686 Y111.593 E.02901
;WIDTH:0.499999
G1 X77.086 Y112.194 E.02605
G1 X77.476 Y112.585 E.01995
G1 X78.107 Y113.015 E.02756
G1 X78.776 Y113.285 E.02605
G1 X79.319 Y113.388 E.01995
G1 X80.04 Y113.395 E.02605
G1 X80.583 Y113.293 E.01993
G1 X81.257 Y113.036 E.02605
G1 X81.783 Y112.693 E.02265
G1 X82.285 Y112.224 E.02481
G1 X82.714 Y111.593 E.02755
G1 X82.986 Y110.918 E.02628
G1 X83.079 Y110.381 E.01968
;WIDTH:0.480958
G1 X83.092 Y109.872 E.0176
;WIDTH:0.493849
G1 X83.043 Y109.399 E.01696
;WIDTH:0.499999
G1 X82.918 Y108.873 E.0195
G1 X82.611 Y108.22 E.02605
G1 X82.314 Y107.806 E.0184
G1 X81.924 Y107.415 E.01995
G1 X81.292 Y106.985 E.02758
G1 X80.623 Y106.715 E.02604
G1 X80.124 Y106.614 E.0184
G1 X79.573 Y106.593 E.01992
G1 X78.817 Y106.707 E.02759
G1 X78.106 Y106.986 E.02758
G1 X77.476 Y107.416 E.02754
G1 X76.98 Y107.94 E.02605
G1 X76.685 Y108.407 E.01994
G1 X76.407 Y109.118 E.02756
G1 X76.313 Y109.618 E.01837
G1 X76.314 Y98.814 E.39008
G1 X140.206 Y98.814 E2.30686
G1 X143.686 Y102.294 E.1777
G1 X143.686 Y105.386 E.11162
G1 X115.565 Y105.386 E1.01532
G1 X95.048 Y101.37 E.75485
G1 X94.692 Y101.357 E.01285
G1 X94.356 Y101.451 E.01262
G1 X94.08 Y101.628 E.01184
G1 X93.883 Y101.85 E.0107
G1 X93.762 Y102.081 E.00942
G1 X93.722 Y102.298 E.00797
G1 X94.157 Y102.415 F42000
G1 F3600
G1 X94.143 Y102.492 E.00283
G1 X94.143 Y117.508 E.54219
G1 X94.189 Y117.755 E.00905
G1 X94.379 Y118.026 E.01198
G1 X94.71 Y118.184 E.01322
G1 X94.96 Y118.181 E.00903
G1 X115.521 Y114.157 E.75645
G1 X144.143 Y114.157 E1.03342
G1 X144.143 Y117.895 E.13496
G1 X140.395 Y121.643 E.19138
M73 P1 R25
G1 X75.857 Y121.643 E2.3302
G1 X75.857 Y98.357 E.84076
G1 X140.395 Y98.357 E2.3302
G1 X144.143 Y102.105 E.19138
G1 X144.143 Y105.843 E.13496
G1 X115.521 Y105.843 E1.03342
G1 X94.96 Y101.819 E.75645
G1 X94.71 Y101.816 E.00903
G1 X94.379 Y101.974 E.01322
G1 X94.189 Y102.245 E.01198
G1 X94.165 Y102.375 E.00477
G1 X94.6 Y102.492 F42000
;TYPE:Outer wall
G1 F3600
G1 X94.6 Y117.053 E.52574
G1 X94.615 Y117.59 E.01942
G1 X94.734 Y117.716 E.00625
G1 X94.872 Y117.733 E.00503
G1 X115.477 Y113.7 E.75805
G1 X144.6 Y113.7 E1.05153
G1 X144.6 Y118.084 E.1583
G1 X140.584 Y122.1 E.20505
G1 X75.4 Y122.1 E2.35354
G1 X75.4 Y97.9 E.87376
G1 X140.584 Y97.9 E2.35354
G1 X144.6 Y101.916 E.20505
G1 X144.6 Y106.3 E.1583
G1 X115.477 Y106.3 E1.05153
G1 X94.807 Y102.255 E.76044
G1 X94.639 Y102.363 E.00722
G1 X94.612 Y102.453 E.0034
;WIPE_START
G1 X94.61 Y104.453 E-.6
;WIPE_END
G1 Z.4 F42000
G1 X84.344 Y107.767 Z.4
G1 Z.2
G1 E.6 F2400
;TYPE:Inner wall
G1 F3600
G1 X84.488 Y107.59 E.00824
G1 X85.085 Y107.113 E.02758
G1 X85.574 Y106.856 E.01993
G1 X86.265 Y106.65 E.02604
G1 X86.815 Y106.589 E.01998
G1 X87.324 Y106.614 E.0184
G1 X88.026 Y106.782 E.02605
G1 X88.714 Y107.113 E.02756
G1 X89.158 Y107.441 E.01995
G1 X89.514 Y107.806 E.01841
G1 X89.914 Y108.407 E.02605
G1 X90.193 Y109.117 E.02756
G1 X90.295 Y109.66 E.01995
G1 X90.308 Y110.17 E.01841
G1 X90.193 Y110.882 E.02605
G1 X89.915 Y111.593 E.02756
G1 X89.62 Y112.06 E.01995
G1 X89.124 Y112.584 E.02605
G1 X88.494 Y113.014 E.02754
G1 X87.783 Y113.293 E.02758
G1 X87.24 Y113.395 E.01993
G1 X86.519 Y113.388 E.02604
G1 X85.774 Y113.218 E.02758
G1 X85.269 Y112.997 E.01993
G1 X84.738 Y112.63 E.02331
G1 X84.287 Y112.194 E.02265
G1 X83.886 Y111.594 E.02604
G1 X83.609 Y110.889 E.02736
G1 X83.517 Y110.356 E.01951
;WIDTH:0.482423
G1 X83.521 Y109.619 E.02559
;WIDTH:0.499999
G1 X83.615 Y109.076 E.0199
G1 X83.79 Y108.597 E.01841
G1 X84.033 Y108.149 E.0184
G1 X84.319 Y107.798 E.01635
G1 X84.705 Y108.039 F42000
G1 F3600
G1 X84.835 Y107.888 E.00717
G1 X85.357 Y107.481 E.0239
G1 X85.892 Y107.223 E.02145
G1 X86.383 Y107.092 E.01837
G1 X86.9 Y107.043 E.01875
G1 X87.416 Y107.092 E.0187
G1 X87.907 Y107.223 E.01837
G1 X88.5 Y107.517 E.02388
G1 X88.948 Y107.868 E.02055
G1 X89.257 Y108.219 E.01687
G1 X89.527 Y108.65 E.01837
G1 X89.762 Y109.268 E.02388
G1 X89.851 Y109.83 E.02055
G1 X89.839 Y110.297 E.01687
G1 X89.744 Y110.797 E.01837
G1 X89.496 Y111.41 E.02388
G1 X89.161 Y111.901 E.02147
G1 X88.801 Y112.261 E.01837
G1 X88.251 Y112.627 E.02386
G1 X87.632 Y112.862 E.0239
G1 X87.07 Y112.951 E.02054
G1 X86.536 Y112.931 E.01929
G1 X85.893 Y112.777 E.0239
G1 X85.4 Y112.548 E.01963
G1 X85.009 Y112.262 E.01747
G1 X84.622 Y111.883 E.01957
G1 X84.273 Y111.351 E.02297
G1 X84.04 Y110.738 E.02368
G1 X83.95 Y110.145 E.02166
G1 X83.969 Y109.636 E.01838
G1 X84.091 Y109.08 E.02055
G1 X84.26 Y108.672 E.01595
G1 X84.503 Y108.274 E.01685
G1 X84.679 Y108.069 E.00975
G1 X85.052 Y108.34 F42000
;TYPE:Outer wall
G1 F3600
G1 X85.181 Y108.186 E.00725
G1 X85.628 Y107.849 E.02022
G1 X86.011 Y107.665 E.01531
G1 X86.502 Y107.533 E.01837
G1 X86.917 Y107.501 E.01505
G1 X87.298 Y107.533 E.01378
G1 X87.789 Y107.665 E.01837
G1 X88.286 Y107.921 E.0202
G1 X88.613 Y108.179 E.01502
G1 X88.87 Y108.462 E.01379
G1 X89.14 Y108.893 E.01837
G1 X89.33 Y109.419 E.0202
G1 X89.394 Y109.83 E.01502
G1 X89.39 Y110.212 E.01379
G1 X89.295 Y110.712 E.01837
G1 X89.077 Y111.227 E.0202
G1 X88.838 Y111.578 E.01533
G1 X88.478 Y111.938 E.01837
G1 X88.008 Y112.24 E.02019
G1 X87.481 Y112.43 E.02022
G1 X87.062 Y112.494 E.01531
G1 X86.553 Y112.475 E.01837
G1 X86.011 Y112.335 E.02022
G1 X85.629 Y112.151 E.01531
G1 X85.28 Y111.894 E.01563
G1 X84.931 Y111.538 E.01802
G1 X84.66 Y111.108 E.01837
G1 X84.472 Y110.587 E.02
G1 X84.406 Y110.162 E.01553
G1 X84.425 Y109.653 E.01838
G1 X84.538 Y109.193 E.0171
G1 X84.815 Y108.624 E.02283
G1 X85.027 Y108.371 E.01194
;WIPE_START
G1 X85.181 Y108.186 E-.07226
G1 X85.628 Y107.849 E-.16798
G1 X86.011 Y107.665 E-.12723
G1 X86.502 Y107.533 E-.1526
G1 X86.767 Y107.512 E-.07992
;WIPE_END
G1 Z.4 F42000
G1 X82.547 Y109.277 Z.4
G1 Z.2
G1 E.6 F2400
;TYPE:Inner wall
G1 F3600
G1 X82.639 Y109.703 E.01571
G1 X82.633 Y110.329 E.02261
G1 X82.539 Y110.822 E.01813
G1 X82.295 Y111.41 E.02299
G1 X81.917 Y111.952 E.02387
G1 X81.485 Y112.347 E.02113
G1 X81.029 Y112.64 E.01957
G1 X80.432 Y112.862 E.02298
G1 X79.916 Y112.949 E.01889
G1 X79.336 Y112.931 E.02096
G1 X78.756 Y112.799 E.02147
G1 X78.29 Y112.596 E.01837
G1 X77.748 Y112.217 E.02388
G1 X77.343 Y111.781 E.02147
G1 X77.073 Y111.35 E.01837
G1 X76.838 Y110.732 E.02388
G1 X76.749 Y110.17 E.02055
G1 X76.761 Y109.703 E.01687
G1 X76.856 Y109.203 E.01837
G1 X77.104 Y108.59 E.02388
G1 X77.439 Y108.099 E.02147
G1 X77.799 Y107.739 E.01837
G1 X78.349 Y107.373 E.02386
G1 X78.968 Y107.138 E.0239
G1 X79.624 Y107.047 E.02391
G1 X80.191 Y107.085 E.02053
G1 X80.643 Y107.201 E.01685
G1 X81.11 Y107.404 E.01837
G1 X81.652 Y107.783 E.0239
G1 X82.029 Y108.178 E.0197
G1 X82.295 Y108.59 E.01771
G1 X82.499 Y109.056 E.01838
G1 X82.538 Y109.238 E.00673
G1 X82.107 Y109.375 F42000
;TYPE:Outer wall
G1 F3600
G1 X82.19 Y109.788 E.01519
G1 X82.176 Y110.312 E.01893
G1 X82.08 Y110.761 E.01658
G1 X81.877 Y111.228 E.01838
G1 X81.549 Y111.681 E.02019
G1 X81.129 Y112.05 E.0202
G1 X80.761 Y112.262 E.01531
G1 X80.281 Y112.43 E.01838
G1 X79.862 Y112.494 E.01531
G1 X79.353 Y112.475 E.01838
G1 X78.939 Y112.38 E.01533
G1 X78.473 Y112.177 E.01837
G1 X78.019 Y111.849 E.0202
G1 X77.73 Y111.538 E.01533
G1 X77.46 Y111.107 E.01837
G1 X77.27 Y110.581 E.0202
G1 X77.206 Y110.17 E.01502
G1 X77.21 Y109.788 E.01379
G1 X77.305 Y109.288 E.01837
G1 X77.523 Y108.773 E.0202
G1 X77.762 Y108.422 E.01533
G1 X78.122 Y108.062 E.01837
G1 X78.592 Y107.76 E.02019
G1 X79.119 Y107.57 E.02022
G1 X79.675 Y107.501 E.02022
G1 X80.089 Y107.531 E.01501
G1 X80.461 Y107.62 E.01378
G1 X80.927 Y107.823 E.01837
G1 X81.381 Y108.151 E.02022
G1 X81.665 Y108.455 E.01502
G1 X81.877 Y108.772 E.01378
G1 X82.08 Y109.239 E.01838
G1 X82.1 Y109.336 E.00357
;WIPE_START
G1 X82.19 Y109.788 E-.13822
G1 X82.176 Y110.312 E-.15729
G1 X82.08 Y110.761 E-.13777
G1 X81.877 Y111.228 E-.15273
G1 X81.849 Y111.265 E-.014
;WIPE_END
G1 Z.4 F42000
G1 X76.337 Y110.707 Z.4
G1 Z.2
G1 E.6 F2400
;TYPE:Inner wall
;WIDTH:0.546002
G1 F3600
G1 X76.32 Y110.438 E.01069
;WIDTH:0.511938
G1 X76.303 Y110.17 E.00997
;WIDTH:0.497792
G1 X76.313 Y109.618 E.01983
;WIPE_START
G1 X76.303 Y110.17 E-.30378
G1 X76.32 Y110.438 E-.14811
G1 X76.337 Y110.707 E-.14811
;WIPE_END
G1 Z.4 F42000
G1 X77.518 Y106.654 Z.4
G1 Z.2
G1 E.6 F2400
;TYPE:Bottom surface
;WIDTH:0.501519
G1 F6300
G1 X77.114 Y106.25 E.02067
G1 X77.114 Y105.602 E.02349
G1 X77.775 Y106.263 E.03384
G1 X78.066 Y106.122 E.01172
G1 X78.227 Y106.066 E.00616
G1 X77.114 Y104.953 E.057
G1 X77.114 Y104.305 E.02349
G1 X78.722 Y105.913 E.08236
G1 X78.971 Y105.856 E.00926
G1 X79.279 Y105.821 E.01122
G1 X77.114 Y103.656 E.1109
G1 X77.114 Y103.008 E.02349
G1 X79.904 Y105.798 E.14293
G1 X80.464 Y105.858 E.02042
G1 X80.657 Y105.902 E.00717
G1 X77.114 Y102.359 E.18153
G1 X77.114 Y101.711 E.02349
G1 X81.694 Y106.291 E.23465
M73 P2 R25
G1 X81.985 Y106.467 E.01232
G1 X82.526 Y106.874 E.02452
G1 X83.041 Y107.433 E.02754
G1 X83.305 Y107.826 E.01715
G1 X83.531 Y107.478 E.01502
G1 X77.114 Y101.062 E.32872
G1 X77.114 Y100.413 E.02349
G1 X83.831 Y107.13 E.34409
G1 X84.076 Y106.872 E.01288
G1 X84.16 Y106.811 E.00378
G1 X77.114 Y99.765 E.36097
G1 X77.114 Y99.614 E.00547
G1 X77.612 Y99.614 E.01803
G1 X84.534 Y106.536 E.35463
G1 X84.765 Y106.366 E.01039
G1 X84.93 Y106.284 E.00669
G1 X78.26 Y99.614 E.3417
G1 X78.909 Y99.614 E.02349
G1 X85.375 Y106.08 E.33126
G1 X85.871 Y105.928 E.01881
G1 X79.557 Y99.614 E.32345
G1 X80.206 Y99.614 E.02349
G1 X86.409 Y105.817 E.3178
G1 X86.762 Y105.791 E.01281
G1 X87.043 Y105.802 E.01019
G1 X80.855 Y99.614 E.31704
G1 X81.503 Y99.614 E.02349
G1 X87.776 Y105.887 E.32135
G1 X88.239 Y106.011 E.01738
G1 X88.632 Y106.165 E.01528
G1 X88.782 Y106.244 E.00614
G1 X82.152 Y99.614 E.33967
G1 X82.8 Y99.614 E.02349
G1 X92.886 Y109.7 E.51671
G1 X92.886 Y109.051 E.02349
G1 X83.449 Y99.614 E.48348
G1 X84.097 Y99.614 E.02349
G1 X92.886 Y108.403 E.45025
G1 X92.886 Y107.754 E.02349
G1 X84.746 Y99.614 E.41703
G1 X85.394 Y99.614 E.02349
G1 X92.886 Y107.106 E.3838
G1 X92.886 Y106.457 E.02349
G1 X86.043 Y99.614 E.35058
G1 X86.692 Y99.614 E.02349
G1 X92.886 Y105.808 E.31735
G1 X92.886 Y105.16 E.02349
G1 X87.34 Y99.614 E.28412
M73 P2 R24
G1 X87.989 Y99.614 E.02349
G1 X92.886 Y104.511 E.2509
G1 X92.886 Y103.863 E.02349
G1 X88.637 Y99.614 E.21767
G1 X89.286 Y99.614 E.02349
G1 X92.886 Y103.214 E.18444
G1 X92.886 Y102.566 E.02349
G1 X89.934 Y99.614 E.15122
G1 X90.583 Y99.614 E.02349
G1 X92.961 Y101.992 E.12181
G1 X93.015 Y101.793 E.00748
G1 X93.151 Y101.534 E.0106
G1 X91.231 Y99.614 E.09834
G1 X91.88 Y99.614 E.02349
G1 X93.43 Y101.164 E.07942
G1 X93.556 Y101.023 E.00686
G1 X93.788 Y100.874 E.01
G1 X92.529 Y99.614 E.06453
G1 X93.177 Y99.614 E.02349
G1 X94.224 Y100.661 E.05362
G1 X94.487 Y100.579 E.00999
G1 X94.764 Y100.553 E.01008
G1 X93.826 Y99.614 E.04809
G1 X94.474 Y99.614 E.02349
G1 X95.505 Y100.645 E.05282
G1 X96.312 Y100.803 E.02977
G1 X95.123 Y99.614 E.06091
G1 X95.771 Y99.614 E.02349
G1 X97.118 Y100.961 E.06899
G1 X97.924 Y101.118 E.02977
G1 X96.42 Y99.614 E.07707
G1 X97.068 Y99.614 E.02349
G1 X98.731 Y101.276 E.08516
G1 X99.537 Y101.434 E.02977
G1 X97.717 Y99.614 E.09324
G1 X98.366 Y99.614 E.02349
G1 X100.343 Y101.592 E.10133
G1 X101.15 Y101.75 E.02977
G1 X99.014 Y99.614 E.10941
G1 X99.663 Y99.614 E.02349
G1 X101.956 Y101.908 E.1175
G1 X102.762 Y102.065 E.02977
G1 X100.311 Y99.614 E.12558
G1 X100.96 Y99.614 E.02349
G1 X103.569 Y102.223 E.13367
G1 X104.375 Y102.381 E.02977
G1 X101.608 Y99.614 E.14175
G1 X102.257 Y99.614 E.02349
G1 X105.182 Y102.539 E.14983
G1 X105.988 Y102.697 E.02977
G1 X102.905 Y99.614 E.15792
G1 X103.554 Y99.614 E.02349
G1 X106.794 Y102.854 E.166
G1 X107.601 Y103.012 E.02977
G1 X104.203 Y99.614 E.17409
G1 X104.851 Y99.614 E.02349
G1 X108.407 Y103.17 E.18217
G1 X109.213 Y103.328 E.02977
G1 X105.5 Y99.614 E.19026
G1 X106.148 Y99.614 E.02349
G1 X110.02 Y103.486 E.19834
G1 X110.826 Y103.643 E.02977
G1 X106.797 Y99.614 E.20643
G1 X107.445 Y99.614 E.02349
G1 X111.632 Y103.801 E.21451
G1 X112.439 Y103.959 E.02977
