; HEADER_BLOCK_START
; generated by OrcaSlicer 2.1.0 on 2024-10-31 at 11:47:30
; total layer number: 75
; filament_density: 1.27
; filament_diameter: 1.75
; max_z_height: 15.00
; HEADER_BLOCK_END

; THUMBNAIL_BLOCK_START

;
; THUMBNAIL_BLOCK_END

; THUMBNAIL_BLOCK_START

;
; THUMBNAIL_BLOCK_END

; external perimeters extrusion width = 0.42mm
; perimeters extrusion width = 0.45mm
; infill extrusion width = 0.45mm
; solid infill extrusion width = 0.42mm
; top infill extrusion width = 0.42mm
; support material extrusion width = 0.42mm
; first layer extrusion width = 0.50mm

; external perimeters extrusion width = 0.42mm
; perimeters extrusion width = 0.45mm
; infill extrusion width = 0.45mm
; solid infill extrusion width = 0.42mm
; top infill extrusion width = 0.42mm
; support material extrusion width = 0.42mm
; first layer extrusion width = 0.50mm

; EXECUTABLE_BLOCK_START
EXCLUDE_OBJECT_DEFINE NAME=втулка_славы.stp_id_0_copy_0 CENTER=34.9299,193.873 POLYGON=[[30.0303,193.935],[30.0333,193.692],[30.0482,193.45],[30.0752,193.209],[30.114,192.97],[30.1646,192.733],[30.2268,192.499],[30.3006,192.268],[30.3857,192.041],[30.4819,191.818],[30.589,191.601],[30.7067,191.389],[30.8348,191.183],[30.9728,190.984],[31.1206,190.792],[31.2777,190.607],[31.4437,190.431],[31.6182,190.262],[31.8009,190.103],[31.9912,189.953],[32.1887,189.812],[32.3929,189.682],[32.6034,189.561],[32.8195,189.452],[33.0407,189.353],[33.2666,189.265],[33.4966,189.188],[33.7301,189.123],[33.9665,189.07],[34.2053,189.028],[34.4458,188.998],[34.6876,188.98],[34.9299,188.974],[35.1722,188.98],[35.4139,188.998],[35.6545,189.028],[35.8933,189.07],[36.1297,189.123],[36.3631,189.188],[36.5931,189.265],[36.819,189.353],[37.0403,189.452],[37.2564,189.561],[37.4668,189.682],[37.671,189.812],[37.8685,189.953],[38.0589,190.103],[38.2415,190.262],[38.4161,190.431],[38.5821,190.607],[38.7392,190.792],[38.8869,190.984],[39.025,191.183],[39.1531,191.389],[39.2708,191.601],[39.3779,191.818],[39.4741,192.041],[39.5592,192.268],[39.6329,192.499],[39.6952,192.733],[39.7458,192.97],[39.7846,193.209],[39.8115,193.45],[39.8265,193.692],[39.8295,193.935],[39.8205,194.177],[39.7996,194.418],[39.7667,194.658],[39.722,194.897],[39.6655,195.132],[39.5975,195.365],[39.518,195.594],[39.4274,195.819],[39.3257,196.039],[39.2132,196.254],[39.0903,196.463],[38.9572,196.665],[38.8142,196.861],[38.6618,197.049],[38.5002,197.23],[38.3298,197.402],[38.1512,197.566],[37.9646,197.721],[37.7707,197.866],[37.5697,198.002],[37.3624,198.127],[37.149,198.243],[36.9303,198.347],[36.7066,198.44],[36.4786,198.523],[36.2468,198.594],[36.0118,198.653],[35.7741,198.701],[35.5344,198.736],[35.2932,198.76],[35.0511,198.772],[34.8087,198.772],[34.5666,198.76],[34.3254,198.736],[34.0856,198.701],[33.848,198.653],[33.613,198.594],[33.3812,198.523],[33.1532,198.44],[32.9295,198.347],[32.7107,198.243],[32.4974,198.127],[32.29,198.002],[32.0891,197.866],[31.8951,197.721],[31.7086,197.566],[31.5299,197.402],[31.3596,197.23],[31.198,197.049],[31.0455,196.861],[30.9026,196.665],[30.7695,196.463],[30.6465,196.254],[30.5341,196.039],[30.4324,195.819],[30.3417,195.594],[30.2623,195.365],[30.1942,195.132],[30.1378,194.897],[30.0931,194.658],[30.0602,194.418],[30.0392,194.177],[30.0303,193.935]]
EXCLUDE_OBJECT_DEFINE NAME=втулка_славы.stp_id_1_copy_0 CENTER=34.3723,167.148 POLYGON=[[29.4727,167.209],[29.4757,166.967],[29.4907,166.725],[29.5176,166.484],[29.5564,166.245],[29.607,166.008],[29.6693,165.774],[29.743,165.543],[29.8281,165.316],[29.9243,165.093],[30.0314,164.876],[30.1492,164.664],[30.2772,164.458],[30.4153,164.259],[30.5631,164.067],[30.7201,163.882],[30.8862,163.705],[31.0607,163.537],[31.2434,163.378],[31.4337,163.228],[31.6312,163.087],[31.8354,162.957],[32.0458,162.836],[32.2619,162.727],[32.4832,162.628],[32.7091,162.54],[32.9391,162.463],[33.1726,162.398],[33.409,162.344],[33.6477,162.303],[33.8883,162.273],[34.13,162.255],[34.3723,162.249],[34.6147,162.255],[34.8564,162.273],[35.0969,162.303],[35.3357,162.344],[35.5721,162.398],[35.8056,162.463],[36.0356,162.54],[36.2615,162.628],[36.4828,162.727],[36.6989,162.836],[36.9093,162.957],[37.1135,163.087],[37.311,163.228],[37.5013,163.378],[37.684,163.537],[37.8585,163.705],[38.0245,163.882],[38.1816,164.067],[38.3294,164.259],[38.4675,164.458],[38.5955,164.664],[38.7132,164.876],[38.8203,165.093],[38.9166,165.316],[39.0016,165.543],[39.0754,165.774],[39.1377,166.008],[39.1883,166.245],[39.2271,166.484],[39.254,166.725],[39.269,166.967],[39.272,167.209],[39.263,167.452],[39.242,167.693],[39.2091,167.933],[39.1644,168.172],[39.108,168.407],[39.04,168.64],[38.9605,168.869],[38.8698,169.094],[38.7681,169.314],[38.6557,169.528],[38.5328,169.737],[38.3997,169.94],[38.2567,170.136],[38.1042,170.324],[37.9426,170.505],[37.7723,170.677],[37.5936,170.841],[37.4071,170.996],[37.2131,171.141],[37.0122,171.277],[36.8048,171.402],[36.5915,171.517],[36.3727,171.622],[36.1491,171.715],[35.9211,171.798],[35.6893,171.869],[35.4543,171.928],[35.2166,171.976],[34.9769,172.011],[34.7356,172.035],[34.4935,172.047],[34.2511,172.047],[34.009,172.035],[33.7678,172.011],[33.5281,171.976],[33.2904,171.928],[33.0554,171.869],[32.8236,171.798],[32.5956,171.715],[32.372,171.622],[32.1532,171.517],[31.9399,171.402],[31.7325,171.277],[31.5316,171.141],[31.3376,170.996],[31.1511,170.841],[30.9724,170.677],[30.8021,170.505],[30.6405,170.324],[30.488,170.136],[30.345,169.94],[30.2119,169.737],[30.089,169.528],[29.9766,169.314],[29.8749,169.094],[29.7842,168.869],[29.7047,168.64],[29.6367,168.407],[29.5803,168.172],[29.5356,167.933],[29.5027,167.693],[29.4817,167.452],[29.4727,167.209]]
M73 P0 R10
M106 S0
M106 P2 S0
;TYPE:Custom
M140 S0
M104 S0 
START_PRINT EXTRUDER_TEMP=250 BED_TEMP=80
G90
G21
M83 ; use relative distances for extrusion
; filament start gcode
M106 S0
M106 P2 S0
;LAYER_CHANGE
;Z:0.2
;HEIGHT:0.2
;BEFORE_LAYER_CHANGE
;0.2
G92 E0

G1 E-.6 F2400
;_SET_FAN_SPEED_CHANGING_LAYER
SET_VELOCITY_LIMIT ACCEL=500 ACCEL_TO_DECEL=250
SET_VELOCITY_LIMIT SQUARE_CORNER_VELOCITY=9
EXCLUDE_OBJECT_START NAME=втулка_славы.stp_id_0_copy_0
G1 Z.2 F42000
G1 X37.875 Y191.231
G1 Z.2
G1 E.6 F2400
;TYPE:Inner wall
;WIDTH:0.605929
G1 F1525
G1 X38.054 Y191.426 E.01187
;WIDTH:0.61889
G1 X38.372 Y191.882 E.02555
G1 X38.68 Y192.543 E.03354
;WIDTH:0.614178
G1 X38.762 Y192.843 E.0142
;WIDTH:0.616241
G1 X38.881 Y193.44 E.02784
;WIDTH:0.61706
G1 X38.902 Y194.091 E.02988
G1 X38.853 Y194.467 E.01737
;WIDTH:0.607948
G1 X38.72 Y195.061 E.02744
;WIDTH:0.618277
G1 X38.51 Y195.606 E.02681
G1 X38.285 Y195.992 E.02055
;WIDTH:0.606247
G1 X37.924 Y196.481 E.02732
;WIDTH:0.618852
G1 X37.566 Y196.852 E.02371
G1 X37.182 Y197.141 E.02209
;WIDTH:0.60534
G1 X36.702 Y197.427 E.02506
;WIDTH:0.615794
G1 X36.214 Y197.639 E.02435
G1 X35.896 Y197.723 E.01506
;WIDTH:0.609637
G1 X35.298 Y197.831 E.0275
;WIDTH:0.617449
G1 X34.663 Y197.843 E.02909
G1 X34.304 Y197.793 E.01662
;WIDTH:0.608717
G1 X33.728 Y197.661 E.02671
;WIDTH:0.611156
G1 X33.205 Y197.456 E.02546
G1 X32.97 Y197.328 E.01213
;WIDTH:0.612633
G1 X32.507 Y197.029 E.02511
G1 X32.305 Y196.853 E.01218
;WIDTH:0.614149
G1 X31.917 Y196.474 E.0247
G1 X31.751 Y196.25 E.01274
;WIDTH:0.615323
G1 X31.466 Y195.831 E.02316
G1 X31.35 Y195.59 E.01221
;WIDTH:0.616306
G1 X31.149 Y195.111 E.02376
G1 X31.065 Y194.774 E.01592
;WIDTH:0.617474
G1 X30.971 Y194.282 E.02295
;WIDTH:0.619241
G1 X30.955 Y193.71 E.02632
G1 X31.024 Y193.161 E.02546
;WIDTH:0.606812
G1 X31.206 Y192.501 E.03082
;WIDTH:0.605925
G1 X31.417 Y192.022 E.02352
;WIDTH:0.618252
G1 X31.701 Y191.551 E.02527
G1 X31.989 Y191.211 E.02046
;WIDTH:0.60629
G1 X32.429 Y190.792 E.02732
;WIDTH:0.618846
G1 X32.847 Y190.486 E.0238
G1 X33.273 Y190.268 E.022
;WIDTH:0.605422
G1 X33.8 Y190.068 E.02533
;WIDTH:0.612911
G1 X34.387 Y189.933 E.02739
G1 X35.171 Y189.902 E.0357
;WIDTH:0.611871
G1 X35.674 Y189.974 E.02311
;WIDTH:0.605314
G1 X36.252 Y190.133 E.02691
;WIDTH:0.607493
G1 X36.81 Y190.376 E.0274
;WIDTH:0.618463
G1 X37.292 Y190.674 E.02607
G1 X37.642 Y190.978 E.0213
;WIDTH:0.605929
G1 X37.848 Y191.202 E.01365
G1 X38.283 Y190.875 F42000
;TYPE:Outer wall
;WIDTH:0.499999
G1 F1525
G1 X38.807 Y191.592 E.03243
G1 X39.147 Y192.327 E.02953
G1 X39.258 Y192.725 E.01505
G1 X39.39 Y193.343 E.02308
G1 X39.42 Y194.152 E.02953
G1 X39.278 Y195.029 E.03243
G1 X38.966 Y195.862 E.03243
G1 X38.496 Y196.616 E.03243
G1 X37.887 Y197.264 E.03243
G1 X37.163 Y197.779 E.03243
G1 X36.352 Y198.142 E.03243
G1 X35.485 Y198.338 E.03243
G1 X34.596 Y198.36 E.03243
G1 X33.721 Y198.207 E.03243
G1 X32.892 Y197.885 E.03243
G1 X32.144 Y197.406 E.03243
G1 X31.504 Y196.789 E.03243
G1 X30.997 Y196.059 E.03243
G1 X30.644 Y195.243 E.03243
G1 X30.458 Y194.371 E.03253
G1 X30.434 Y193.71 E.02415
G1 X30.555 Y192.826 E.03252
G1 X30.846 Y191.987 E.03243
G1 X31.297 Y191.221 E.03243
G1 X31.889 Y190.558 E.03243
G1 X32.601 Y190.025 E.03243
G1 X33.403 Y189.642 E.03243
G1 X34.265 Y189.425 E.03243
G1 X35.152 Y189.381 E.03243
G1 X36.031 Y189.512 E.03243
G1 X36.867 Y189.814 E.03243
G1 X37.628 Y190.274 E.03243
G1 X38.254 Y190.848 E.03097
;WIPE_START
G1 F3600
G1 X38.807 Y191.592 E-.27843
G1 X39.147 Y192.327 E-.24283
G1 X39.218 Y192.58 E-.07874
;WIPE_END
G1 Z.4 F42000
G1 X34.128 Y190.569 Z.4
G1 Z.2
G1 E.6 F2400
;TYPE:Inner wall
;WIDTH:0.613897
G1 F1525
G1 X34.295 Y190.525 E.00785
;WIDTH:0.607543
G1 X34.972 Y190.466 E.03063
G1 X35.498 Y190.513 E.02381
;WIDTH:0.603555
G1 X35.997 Y190.637 E.02302
;WIDTH:0.607493
G1 X36.55 Y190.876 E.02715
;WIDTH:0.618463
G1 X36.976 Y191.155 E.02338
;WIDTH:0.618757
G1 X37.468 Y191.608 E.03078
G1 X37.71 Y191.905 E.01758
;WIDTH:0.605374
G1 X37.992 Y192.38 E.0248
G1 X38.205 Y192.929 E.02646
;WIDTH:0.616241
G1 X38.307 Y193.427 E.02326
;WIDTH:0.61706
G1 X38.328 Y194.097 E.03072
;WIDTH:0.61775
G1 X38.217 Y194.758 E.03075
;WIDTH:0.618277
G1 X37.98 Y195.384 E.03076
;WIDTH:0.618636
G1 X37.624 Y195.952 E.03078
;WIDTH:0.618852
G1 X37.165 Y196.439 E.03079
G1 X36.615 Y196.839 E.03127
;WIDTH:0.615794
G1 X35.991 Y197.112 E.03113
;WIDTH:0.616686
G1 X35.336 Y197.256 E.03071
;WIDTH:0.617449
G1 X34.666 Y197.268 E.03074
G1 X34.049 Y197.169 E.02866
;WIDTH:0.611156
G1 X33.414 Y196.928 E.03083
;WIDTH:0.612633
G1 X32.818 Y196.552 E.03204
;WIDTH:0.614149
G1 X32.319 Y196.068 E.03166
;WIDTH:0.615323
G1 X31.942 Y195.514 E.03066
;WIDTH:0.616306
G1 X31.68 Y194.896 E.0307
;WIDTH:0.617474
G1 X31.542 Y194.227 E.03132
;WIDTH:0.619241
G1 X31.528 Y193.764 E.0213
G1 X31.619 Y193.088 E.03139
;WIDTH:0.618387
G1 X31.836 Y192.444 E.03124
;WIDTH:0.618252
G1 X32.186 Y191.86 E.03124
;WIDTH:0.618618
G1 X32.634 Y191.362 E.03078
;WIDTH:0.618846
G1 X33.17 Y190.962 E.03078
G1 X33.781 Y190.663 E.03127
;WIDTH:0.613897
G1 X34.09 Y190.58 E.01455
G1 X34.266 Y191.059 F42000
;TYPE:Outer wall
;WIDTH:0.499999
G1 F1525
G1 X34.456 Y191.014 E.00712
G1 X35.007 Y190.976 E.02015
G1 X35.643 Y191.069 E.02346
G1 X36.385 Y191.367 E.02918
G1 X36.835 Y191.688 E.02015
G1 X37.243 Y192.127 E.02187
G1 X37.553 Y192.64 E.02187
G1 X37.712 Y193.058 E.01632
G1 X37.816 Y193.601 E.02016
G1 X37.811 Y194.199 E.02185
G1 X37.682 Y194.785 E.02188
G1 X37.436 Y195.332 E.02187
G1 X37.082 Y195.816 E.02186
G1 X36.637 Y196.217 E.02188
G1 X36.256 Y196.452 E.01632
G1 X35.743 Y196.656 E.02015
G1 X35.248 Y196.748 E.01839
G1 X34.684 Y196.753 E.02057
G1 X34.154 Y196.668 E.01956
G1 X33.604 Y196.452 E.02159
G1 X33.102 Y196.124 E.02186
G1 X32.686 Y195.708 E.02148
G1 X32.375 Y195.236 E.02061
G1 X32.162 Y194.713 E.02059
G1 X32.052 Y194.147 E.02104
G1 X32.062 Y193.449 E.02548
G1 X32.211 Y192.868 E.02188
G1 X32.378 Y192.496 E.01488
G1 X32.712 Y192.007 E.02159
G1 X33.143 Y191.591 E.02186
G1 X33.651 Y191.272 E.02188
G1 X34.058 Y191.108 E.01602
G1 X34.227 Y191.068 E.00633
;WIPE_START
G1 F3600
G1 X34.456 Y191.014 E-.07053
G1 X35.007 Y190.976 E-.16572
G1 X35.643 Y191.069 E-.1929
G1 X36.172 Y191.281 E-.17086
;WIPE_END
EXCLUDE_OBJECT_END NAME=втулка_славы.stp_id_0_copy_0
EXCLUDE_OBJECT_START NAME=втулка_славы.stp_id_1_copy_0
G1 Z.4 F42000
G1 X37.318 Y164.506 Z.4
G1 Z.2
G1 E.6 F2400
;TYPE:Inner wall
;WIDTH:0.605929
G1 F1525
G1 X37.496 Y164.701 E.01187
;WIDTH:0.61889
G1 X37.814 Y165.157 E.02555
G1 X38.123 Y165.818 E.03354
;WIDTH:0.614178
G1 X38.205 Y166.118 E.0142
;WIDTH:0.616241
G1 X38.324 Y166.715 E.02784
;WIDTH:0.61706
G1 X38.344 Y167.366 E.02988
G1 X38.295 Y167.742 E.01737
;WIDTH:0.607948
G1 X38.163 Y168.336 E.02744
;WIDTH:0.618277
G1 X37.953 Y168.881 E.02681
G1 X37.727 Y169.267 E.02055
;WIDTH:0.606247
G1 X37.366 Y169.755 E.02732
;WIDTH:0.618852
G1 X37.008 Y170.127 E.02371
G1 X36.624 Y170.416 E.02209
;WIDTH:0.60534
G1 X36.145 Y170.702 E.02506
;WIDTH:0.615794
M73 P1 R10
G1 X35.657 Y170.914 E.02435
G1 X35.338 Y170.998 E.01506
;WIDTH:0.609637
G1 X34.74 Y171.106 E.0275
;WIDTH:0.617449
G1 X34.106 Y171.118 E.02909
G1 X33.747 Y171.067 E.01662
;WIDTH:0.608717
G1 X33.17 Y170.936 E.02671
;WIDTH:0.611156
G1 X32.648 Y170.731 E.02546
G1 X32.413 Y170.603 E.01213
;WIDTH:0.612633
G1 X31.949 Y170.304 E.02511
G1 X31.747 Y170.128 E.01218
;WIDTH:0.614149
G1 X31.36 Y169.749 E.0247
G1 X31.193 Y169.525 E.01274
;WIDTH:0.615323
G1 X30.908 Y169.106 E.02316
G1 X30.792 Y168.865 E.01221
;WIDTH:0.616306
G1 X30.591 Y168.386 E.02376
G1 X30.508 Y168.049 E.01592
;WIDTH:0.617474
G1 X30.414 Y167.557 E.02295
;WIDTH:0.619241
G1 X30.398 Y166.985 E.02632
G1 X30.467 Y166.436 E.02546
;WIDTH:0.606812
G1 X30.648 Y165.776 E.03082
;WIDTH:0.605925
G1 X30.859 Y165.297 E.02352
;WIDTH:0.618252
G1 X31.144 Y164.826 E.02527
G1 X31.431 Y164.486 E.02046
;WIDTH:0.60629
G1 X31.871 Y164.067 E.02732
;WIDTH:0.618846
G1 X32.289 Y163.761 E.0238
G1 X32.715 Y163.543 E.022
;WIDTH:0.605422
G1 X33.242 Y163.343 E.02533
;WIDTH:0.612911
G1 X33.829 Y163.208 E.02739
G1 X34.613 Y163.177 E.0357
;WIDTH:0.611871
G1 X35.117 Y163.249 E.02311
;WIDTH:0.605314
G1 X35.695 Y163.408 E.02691
;WIDTH:0.607493
G1 X36.252 Y163.651 E.0274
;WIDTH:0.618463
G1 X36.735 Y163.949 E.02607
G1 X37.085 Y164.253 E.0213
;WIDTH:0.605929
G1 X37.291 Y164.477 E.01365
G1 X37.726 Y164.15 F42000
;TYPE:Outer wall
;WIDTH:0.499999
G1 F1525
G1 X38.25 Y164.867 E.03243
G1 X38.589 Y165.602 E.02953
G1 X38.7 Y165.999 E.01505
G1 X38.833 Y166.618 E.02308
G1 X38.863 Y167.427 E.02953
G1 X38.72 Y168.304 E.03243
G1 X38.408 Y169.136 E.03243
G1 X37.939 Y169.891 E.03243
G1 X37.33 Y170.539 E.03243
G1 X36.606 Y171.054 E.03243
G1 X35.794 Y171.417 E.03243
G1 X34.927 Y171.613 E.03243
G1 X34.039 Y171.635 E.03243
G1 X33.163 Y171.482 E.03243
G1 X32.335 Y171.16 E.03243
G1 X31.586 Y170.681 E.03243
G1 X30.946 Y170.064 E.03243
G1 X30.44 Y169.334 E.03243
G1 X30.087 Y168.518 E.03243
G1 X29.901 Y167.646 E.03253
G1 X29.876 Y166.984 E.02415
G1 X29.997 Y166.101 E.03252
G1 X30.289 Y165.262 E.03243
G1 X30.739 Y164.496 E.03243
G1 X31.332 Y163.833 E.03243
G1 X32.043 Y163.3 E.03243
G1 X32.845 Y162.917 E.03243
G1 X33.707 Y162.699 E.03243
G1 X34.595 Y162.656 E.03243
G1 X35.474 Y162.787 E.03243
G1 X36.31 Y163.089 E.03243
G1 X37.07 Y163.549 E.03243
G1 X37.696 Y164.123 E.03097
;WIPE_START
G1 F3600
G1 X38.25 Y164.867 E-.27843
G1 X38.589 Y165.602 E-.24283
G1 X38.66 Y165.855 E-.07874
;WIPE_END
G1 Z.4 F42000
G1 X33.571 Y163.844 Z.4
G1 Z.2
G1 E.6 F2400
;TYPE:Inner wall
;WIDTH:0.613897
G1 F1525
G1 X33.737 Y163.799 E.00785
;WIDTH:0.607543
G1 X34.414 Y163.741 E.03063
G1 X34.94 Y163.788 E.02381
;WIDTH:0.603555
G1 X35.439 Y163.912 E.02302
;WIDTH:0.607493
G1 X35.992 Y164.151 E.02715
;WIDTH:0.618463
G1 X36.418 Y164.429 E.02338
;WIDTH:0.618757
G1 X36.911 Y164.883 E.03078
G1 X37.152 Y165.18 E.01758
;WIDTH:0.605374
G1 X37.434 Y165.655 E.0248
G1 X37.648 Y166.204 E.02646
;WIDTH:0.616241
G1 X37.75 Y166.702 E.02326
;WIDTH:0.61706
G1 X37.77 Y167.372 E.03072
;WIDTH:0.61775
G1 X37.66 Y168.033 E.03075
;WIDTH:0.618277
G1 X37.422 Y168.659 E.03076
;WIDTH:0.618636
G1 X37.067 Y169.227 E.03078
;WIDTH:0.618852
G1 X36.607 Y169.714 E.03079
G1 X36.057 Y170.114 E.03127
;WIDTH:0.615794
G1 X35.434 Y170.387 E.03113
;WIDTH:0.616686
G1 X34.779 Y170.531 E.03071
;WIDTH:0.617449
G1 X34.109 Y170.543 E.03074
G1 X33.492 Y170.444 E.02866
;WIDTH:0.611156
G1 X32.856 Y170.203 E.03083
;WIDTH:0.612633
G1 X32.26 Y169.827 E.03204
;WIDTH:0.614149
