; HEADER_BLOCK_START
; generated by OrcaSlicer 2.1.0 on 2025-01-21 at 17:25:43
; total layer number: 16
; filament_density: 1.27
; filament_diameter: 1.75
; max_z_height: 3.20
; HEADER_BLOCK_END

; THUMBNAIL_BLOCK_START

;
; THUMBNAIL_BLOCK_END

; THUMBNAIL_BLOCK_START

;
; THUMBNAIL_BLOCK_END

; external perimeters extrusion width = 0.42mm
; perimeters extrusion width = 0.45mm
; infill extrusion width = 0.45mm
; solid infill extrusion width = 0.42mm
; top infill extrusion width = 0.42mm
; support material extrusion width = 0.42mm
; first layer extrusion width = 0.50mm

; EXECUTABLE_BLOCK_START
EXCLUDE_OBJECT_DEFINE NAME=втулка_гол.stp_id_0_copy_0 CENTER=110,110 POLYGON=[[106.5,110],[106.506,109.796],[106.524,109.594],[106.553,109.392],[106.594,109.193],[106.647,108.996],[106.711,108.803],[106.786,108.614],[106.872,108.429],[106.969,108.25],[107.076,108.077],[107.193,107.91],[107.319,107.75],[107.454,107.598],[107.598,107.454],[107.75,107.319],[107.91,107.193],[108.077,107.076],[108.25,106.969],[108.429,106.872],[108.614,106.786],[108.803,106.711],[108.996,106.647],[109.193,106.594],[109.392,106.553],[109.594,106.524],[109.796,106.506],[110,106.5],[110.204,106.506],[110.406,106.524],[110.608,106.553],[110.807,106.594],[111.004,106.647],[111.197,106.711],[111.386,106.786],[111.571,106.872],[111.75,106.969],[111.923,107.076],[112.09,107.193],[112.25,107.319],[112.402,107.454],[112.546,107.598],[112.681,107.75],[112.807,107.91],[112.924,108.077],[113.031,108.25],[113.128,108.429],[113.214,108.614],[113.289,108.803],[113.353,108.996],[113.406,109.193],[113.447,109.392],[113.476,109.594],[113.494,109.796],[113.5,110],[113.494,110.204],[113.476,110.406],[113.447,110.608],[113.406,110.807],[113.353,111.004],[113.289,111.197],[113.214,111.386],[113.128,111.571],[113.031,111.75],[112.924,111.923],[112.807,112.09],[112.681,112.25],[112.546,112.402],[112.402,112.546],[112.25,112.681],[112.09,112.807],[111.923,112.924],[111.75,113.031],[111.571,113.128],[111.386,113.214],[111.197,113.289],[111.004,113.353],[110.807,113.406],[110.608,113.447],[110.406,113.476],[110.204,113.494],[110,113.5],[109.796,113.494],[109.594,113.476],[109.392,113.447],[109.193,113.406],[108.996,113.353],[108.803,113.289],[108.614,113.214],[108.429,113.128],[108.25,113.031],[108.077,112.924],[107.91,112.807],[107.75,112.681],[107.598,112.546],[107.454,112.402],[107.319,112.25],[107.193,112.09],[107.076,111.923],[106.969,111.75],[106.872,111.571],[106.786,111.386],[106.711,111.197],[106.647,111.004],[106.594,110.807],[106.553,110.608],[106.524,110.406],[106.506,110.204],[106.5,110]]
M73 P0 R1
M106 S0
M106 P2 S0
;TYPE:Custom
M140 S0
M104 S0 
START_PRINT EXTRUDER_TEMP=250 BED_TEMP=80
G90
G21
M83 ; use relative distances for extrusion
; filament start gcode
M106 S0
M106 P2 S0
;LAYER_CHANGE
;Z:0.2
;HEIGHT:0.2
;BEFORE_LAYER_CHANGE
;0.2
G92 E0

G1 E-.6 F2400
;_SET_FAN_SPEED_CHANGING_LAYER
SET_VELOCITY_LIMIT ACCEL=500 ACCEL_TO_DECEL=250
SET_VELOCITY_LIMIT SQUARE_CORNER_VELOCITY=9
EXCLUDE_OBJECT_START NAME=втулка_гол.stp_id_0_copy_0
G1 Z.2 F42000
G1 X112.803 Y111.298
M73 P1 R1
G1 Z.2
G1 E.6 F2400
;TYPE:Outer wall
;WIDTH:0.499999
G1 F600
G1 X112.769 Y111.391 E.00361
G1 X112.372 Y111.994 E.02636
G1 X111.992 Y112.374 E.0196
G1 X111.555 Y112.681 E.01949
G1 X111.06 Y112.912 E.01993
G1 X110.541 Y113.051 E.01959
G1 X109.817 Y113.093 E.02648
G1 X109.285 Y113.015 E.0196
G1 X108.775 Y112.846 E.0196
G1 X108.147 Y112.484 E.02648
G1 X107.748 Y112.129 E.01948
G1 X107.315 Y111.547 E.02647
G1 X107.088 Y111.06 E.0196
G1 X106.949 Y110.541 E.0196
G1 X106.907 Y109.817 E.02647
G1 X106.985 Y109.285 E.0196
G1 X107.154 Y108.775 E.0196
G1 X107.513 Y108.152 E.02625
G1 X107.873 Y107.746 E.01982
M73 P2 R1
G1 X108.3 Y107.41 E.01982
G1 X108.792 Y107.163 E.02009
G1 X109.227 Y107.011 E.01679
G1 X109.706 Y106.934 E.01771
G1 X110.231 Y106.914 E.01918
G1 X110.755 Y106.998 E.01934
G1 X111.264 Y107.174 E.01967
G1 X111.738 Y107.441 E.01983
G1 X112.286 Y107.914 E.02643
G1 X112.612 Y108.343 E.01967
G1 X112.925 Y108.99 E.0262
G1 X113.054 Y109.507 E.01946
G1 X113.093 Y110.183 E.0247
G1 X113.016 Y110.712 E.01949
G1 X112.816 Y111.26 E.02129
;WIPE_START
G1 F3600
G1 X112.769 Y111.391 E-.0417
G1 X112.372 Y111.994 E-.21677
G1 X111.992 Y112.374 E-.16112
G1 X111.555 Y112.681 E-.16024
G1 X111.494 Y112.709 E-.02017
;WIPE_END
G1 Z.4 F42000
G1 X109.842 Y112.14 Z.4
M73 P3 R1
G1 Z.2
G1 E.6 F2400
G1 F600
G1 X109.799 Y112.14 E.00157
G1 X109.446 Y112.076 E.0131
G1 X108.972 Y111.888 E.01861
G1 X108.547 Y111.585 E.01904
G1 X108.22 Y111.203 E.01835
G1 X108.033 Y110.869 E.01397
G1 X107.891 Y110.386 E.01834
G1 X107.857 Y109.838 E.02003
G1 X107.924 Y109.446 E.01454
G1 X108.112 Y108.972 E.0186
G1 X108.415 Y108.547 E.01905
G1 X108.803 Y108.227 E.01834
G1 X109.268 Y107.985 E.01911
G1 X109.809 Y107.859 E.02027
G1 X110.205 Y107.861 E.01446
G1 X110.696 Y107.966 E.01831
G1 X111.151 Y108.198 E.01866
G1 X111.562 Y108.532 E.0193
G1 X111.773 Y108.803 E.01255
G1 X112.015 Y109.268 E.0191
G1 X112.141 Y109.804 E.02009
G1 X112.14 Y110.201 E.0145
G1 X112.076 Y110.554 E.0131
M73 P4 R1
G1 X111.881 Y111.04 E.01908
G1 X111.652 Y111.371 E.0147
G1 X111.407 Y111.619 E.01273
G1 X111.007 Y111.899 E.01782
G1 X110.671 Y112.041 E.01328
G1 X110.172 Y112.143 E.0186
G1 X109.882 Y112.141 E.01058
;WIPE_START
G1 F3600
G1 X109.799 Y112.14 E-.02492
G1 X109.446 Y112.076 E-.10768
G1 X108.972 Y111.888 E-.15299
G1 X108.547 Y111.585 E-.15655
G1 X108.22 Y111.203 E-.15089
G1 X108.208 Y111.183 E-.00697
;WIPE_END
G1 Z.4 F42000
G1 X112.357 Y111.135 Z.4
G1 Z.2
G1 E.6 F2400
;TYPE:Inner wall
;WIDTH:0.53393
G1 F600
G1 X112.345 Y111.17 E.00145
G1 X112.098 Y111.561 E.0181
;WIDTH:0.52449
G1 X111.795 Y111.907 E.0177
;WIDTH:0.535798
G1 X111.324 Y112.262 E.02323
G1 X110.907 Y112.461 E.01817
;WIDTH:0.545668
G1 X110.464 Y112.575 E.01833
G1 X109.835 Y112.617 E.0253
;WIDTH:0.533746
G1 X109.274 Y112.515 E.02234
;WIDTH:0.528806
G1 X108.683 Y112.255 E.02507
;WIDTH:0.52997
G1 X108.165 Y111.867 E.02515
M73 P5 R1
G1 X107.837 Y111.469 E.02004
;WIDTH:0.52723
G1 X107.579 Y110.999 E.02075
;WIDTH:0.538294
G1 X107.421 Y110.465 E.02202
G1 X107.383 Y109.835 E.02494
;WIDTH:0.533744
G1 X107.485 Y109.274 E.02234
;WIDTH:0.528812
G1 X107.71 Y108.74 E.02249
;WIDTH:0.526716
G1 X108.017 Y108.292 E.02097
G1 X108.388 Y107.937 E.01984
;WIDTH:0.522546
G1 X108.872 Y107.644 E.02168
;WIDTH:0.524664
G1 X109.302 Y107.477 E.0177
G1 X109.733 Y107.4 E.01685
;WIDTH:0.527978
G1 X110.302 Y107.4 E.02202
G1 X110.843 Y107.521 E.02148
;WIDTH:0.528346
G1 X111.321 Y107.74 E.02036
G1 X111.814 Y108.115 E.02399
;WIDTH:0.54381
G1 X112.184 Y108.558 E.0231
G1 X112.419 Y109.002 E.02007
;WIDTH:0.538282
G1 X112.579 Y109.535 E.02201
G1 X112.617 Y110.162 E.02485
;WIDTH:0.534066
G1 X112.554 Y110.595 E.01714
;WIDTH:0.53393
M73 P6 R1
G1 X112.371 Y111.097 E.02096
;LAYER_CHANGE
;Z:0.4
;HEIGHT:0.2
;BEFORE_LAYER_CHANGE
;0.4
G92 E0

;WIPE_START
G1 F3600
G1 X112.345 Y111.17 E-.02312
G1 X112.098 Y111.561 E-.13853
G1 X111.795 Y111.907 E-.1381
G1 X111.324 Y112.262 E-.17716
G1 X110.953 Y112.439 E-.12309
;WIPE_END
EXCLUDE_OBJECT_END NAME=втулка_гол.stp_id_0_copy_0
;_SET_FAN_SPEED_CHANGING_LAYER
SET_VELOCITY_LIMIT ACCEL=12000 ACCEL_TO_DECEL=6000
M140 S80 ; set bed temperature
SET_VELOCITY_LIMIT SQUARE_CORNER_VELOCITY=12
EXCLUDE_OBJECT_START NAME=втулка_гол.stp_id_0_copy_0
G1 Z.4 F42000
G1 X112.577 Y111.208 Z.4
G1 E.6 F2400
SET_VELOCITY_LIMIT ACCEL=5000 ACCEL_TO_DECEL=2500 SQUARE_CORNER_VELOCITY=7
;WIDTH:0.516802
G1 F600
G1 X112.535 Y111.316 E.00438
;WIDTH:0.519428
G1 X112.199 Y111.825 E.02321
G1 X111.854 Y112.177 E.01875
G1 X111.43 Y112.477 E.01975
;WIDTH:0.523454
G1 X110.962 Y112.688 E.01971
G1 X110.347 Y112.837 E.02426
;WIDTH:0.519297
G1 X109.854 Y112.855 E.01875
;WIDTH:0.523778
G1 X109.362 Y112.785 E.01911
G1 X108.867 Y112.626 E.01993
;WIDTH:0.522695
G1 X108.418 Y112.377 E.01968
G1 X107.904 Y111.94 E.02585
;WIDTH:0.523324
G1 X107.535 Y111.441 E.02378
G1 X107.312 Y110.978 E.0197
;WIDTH:0.521002
G1 X107.184 Y110.481 E.01961
;WIDTH:0.520054
G1 X107.146 Y109.849 E.0241
;WIDTH:0.523778
G1 X107.218 Y109.341 E.01971
G1 X107.383 Y108.854 E.01973
;WIDTH:0.523457
M73 P7 R1
G1 X107.719 Y108.282 E.02545
G1 X108.054 Y107.906 E.0193
;WIDTH:0.522477
G1 X108.458 Y107.597 E.01946
G1 X109.029 Y107.31 E.02448
;WIDTH:0.520346
G1 X109.519 Y107.184 E.01927
;WIDTH:0.523383
G1 X110.175 Y107.147 E.02518
G1 X110.674 Y107.225 E.01936
;WIDTH:0.522357
G1 X111.413 Y107.52 E.03044
;WIDTH:0.514074
G1 X111.852 Y107.838 E.02039
;WIDTH:0.518506
G1 X112.211 Y108.188 E.01904
G1 X112.496 Y108.614 E.01949
;WIDTH:0.519106
G1 X112.743 Y109.188 E.02373
;WIDTH:0.529012
G1 X112.837 Y109.69 E.01981
G1 X112.838 Y110.304 E.02383
;WIDTH:0.514396
G1 X112.724 Y110.829 E.02021
;WIDTH:0.516802
G1 X112.591 Y111.17 E.01387
SET_VELOCITY_LIMIT ACCEL=12000 ACCEL_TO_DECEL=6000 SQUARE_CORNER_VELOCITY=12
G1 X112.98 Y111.364 F42000
SET_VELOCITY_LIMIT ACCEL=5000 ACCEL_TO_DECEL=2500 SQUARE_CORNER_VELOCITY=7
;TYPE:Outer wall
;WIDTH:0.419999
G1 F600
G1 X112.939 Y111.476 E.0036
G1 X112.518 Y112.116 E.02306
G1 X112.114 Y112.52 E.01718
G1 X111.645 Y112.849 E.01726
M73 P8 R1
G1 X111.127 Y113.09 E.01718
G1 X110.379 Y113.267 E.02313
G1 X109.809 Y113.284 E.01718
G1 X109.241 Y113.201 E.01726
G1 X108.697 Y113.02 E.01726
G1 X108.195 Y112.749 E.01718
G1 X107.608 Y112.257 E.02306
G1 X107.15 Y111.642 E.02306
G1 X106.909 Y111.125 E.01718
G1 X106.761 Y110.574 E.01718
G1 X106.717 Y109.806 E.02313
G1 X106.799 Y109.241 E.01718
G1 X106.979 Y108.699 E.01719
G1 X107.353 Y108.049 E.02259
G1 X107.743 Y107.608 E.01772
G1 X108.206 Y107.244 E.01772
G1 X108.877 Y106.909 E.02259
G1 X109.426 Y106.761 E.01712
M73 P9 R1
G1 X110.194 Y106.717 E.02313
G1 X110.756 Y106.799 E.01711
G1 X111.478 Y107.062 E.02313
G1 X111.962 Y107.36 E.01711
G1 X112.521 Y107.888 E.02313
G1 X112.808 Y108.298 E.01507
G1 X112.955 Y108.604 E.01024
G1 X113.165 Y109.126 E.01691
G1 X113.269 Y109.677 E.01689
G1 X113.284 Y110.191 E.01548
G1 X113.201 Y110.756 E.01718
G1 X112.993 Y111.326 E.01825
SET_VELOCITY_LIMIT ACCEL=12000 ACCEL_TO_DECEL=6000 SQUARE_CORNER_VELOCITY=12
G1 E-.2 F2400
;WIPE_START
G1 F12000
G1 X112.939 Y111.476 E-.03193
G1 X112.518 Y112.116 E-.15321
G1 X112.114 Y112.52 E-.11417
G1 X111.702 Y112.808 E-.10069
;WIPE_END
G1 Z.6 F42000
G1 X109.84 Y112.368 Z.6
G1 Z.4
G1 E.6 F2400
SET_VELOCITY_LIMIT ACCEL=5000 ACCEL_TO_DECEL=2500 SQUARE_CORNER_VELOCITY=7
;TYPE:Inner wall
;WIDTH:0.515117
G1 F600
G1 X109.712 Y112.364 E.0048
G1 X109.179 Y112.237 E.02066
;WIDTH:0.522695
G1 X108.711 Y111.998 E.02011
G1 X108.27 Y111.636 E.02186
;WIDTH:0.523324
G1 X107.934 Y111.174 E.02191
M73 P10 R1
G1 X107.764 Y110.817 E.01517
;WIDTH:0.521002
G1 X107.632 Y110.247 E.02234
;WIDTH:0.515117
G1 X107.636 Y109.712 E.02015
G1 X107.763 Y109.179 E.02066
;WIDTH:0.523457
G1 X108.095 Y108.58 E.02625
G1 X108.364 Y108.27 E.01576
;WIDTH:0.522477
G1 X108.688 Y108.017 E.01573
G1 X109.192 Y107.76 E.02167
;WIDTH:0.520086
G1 X109.771 Y107.631 E.02258
;WIDTH:0.515021
G1 X110.318 Y107.64 E.02064
;WIDTH:0.517207
G1 X111.043 Y107.861 E.02869
G1 X111.555 Y108.199 E.02321
;WIDTH:0.514111
G1 X111.913 Y108.58 E.01966
G1 X112.134 Y108.949 E.01619
;WIDTH:0.513549
G1 X112.317 Y109.441 E.01972
;WIDTH:0.518828
G1 X112.378 Y110.096 E.025
G1 X112.274 Y110.7 E.0233
;WIDTH:0.511986
G1 X112.068 Y111.179 E.01952
;WIDTH:0.513431
G1 X111.737 Y111.633 E.02109
;WIDTH:0.514111
G1 X111.42 Y111.913 E.0159
;WIDTH:0.515058
M73 P11 R1
G1 X111.052 Y112.136 E.01624
G1 X110.576 Y112.31 E.0191
;WIDTH:0.514206
G1 X110.143 Y112.378 E.01649
;WIDTH:0.515117
G1 X109.88 Y112.369 E.00993
SET_VELOCITY_LIMIT ACCEL=12000 ACCEL_TO_DECEL=6000 SQUARE_CORNER_VELOCITY=12
G1 X109.853 Y111.949 F42000
SET_VELOCITY_LIMIT ACCEL=5000 ACCEL_TO_DECEL=2500 SQUARE_CORNER_VELOCITY=7
;TYPE:Outer wall
;WIDTH:0.419999
G1 F600
G1 X109.801 Y111.948 E.00159
G1 X109.23 Y111.796 E.01778
G1 X108.96 Y111.649 E.00923
G1 X108.584 Y111.347 E.01453
G1 X108.302 Y110.954 E.01458
G1 X108.101 Y110.484 E.01539
G1 X108.046 Y110.145 E.01032
G1 X108.052 Y109.801 E.01038
G1 X108.2 Y109.24 E.01745
G1 X108.444 Y108.83 E.01438
G1 X108.785 Y108.463 E.01506
G1 X109.227 Y108.2 E.01549
G1 X109.639 Y108.08 E.01292
G1 X110.135 Y108.057 E.01494
G1 X110.375 Y108.082 E.00726
G1 X110.905 Y108.264 E.01686
G1 X111.329 Y108.559 E.01556
G1 X111.556 Y108.81 E.01019
G1 X111.74 Y109.101 E.01038
G1 X111.905 Y109.549 E.01436
G1 X111.953 Y110.131 E.01758
G1 X111.853 Y110.639 E.01559
M73 P12 R1
G1 X111.711 Y110.953 E.01036
G1 X111.431 Y111.338 E.01433
G1 X111.19 Y111.556 E.00979
G1 X110.899 Y111.74 E.01038
G1 X110.466 Y111.903 E.01391
G1 X110.145 Y111.954 E.00979
G1 X109.893 Y111.95 E.00759
;LAYER_CHANGE
;Z:0.6
;HEIGHT:0.2
;BEFORE_LAYER_CHANGE
;0.6
G92 E0

G1 E-.2 F2400
;WIPE_START
G1 F12000
G1 X109.801 Y111.948 E-.01854
G1 X109.23 Y111.796 E-.11815
G1 X108.96 Y111.649 E-.06133
G1 X108.584 Y111.347 E-.09654
G1 X108.302 Y110.954 E-.09685
G1 X108.285 Y110.914 E-.00859
;WIPE_END
EXCLUDE_OBJECT_END NAME=втулка_гол.stp_id_0_copy_0
;_SET_FAN_SPEED_CHANGING_LAYER
SET_VELOCITY_LIMIT ACCEL=12000 ACCEL_TO_DECEL=6000 SQUARE_CORNER_VELOCITY=12
EXCLUDE_OBJECT_START NAME=втулка_гол.stp_id_0_copy_0
G1 Z.6 F42000
G1 X112.577 Y111.192 Z.6
G1 E.6 F2400
SET_VELOCITY_LIMIT ACCEL=5000 ACCEL_TO_DECEL=2500 SQUARE_CORNER_VELOCITY=7
;TYPE:Inner wall
;WIDTH:0.52842
G1 F600
G1 X112.483 Y111.41 E.0092
;WIDTH:0.51442
G1 X112.196 Y111.821 E.01888
;WIDTH:0.513177
G1 X111.824 Y112.187 E.01958
;WIDTH:0.528887
G1 X111.398 Y112.488 E.02024
G1 X110.856 Y112.724 E.02293
;WIDTH:0.51475
G1 X110.334 Y112.829 E.02005
;WIDTH:0.523598
G1 X109.825 Y112.853 E.01953
G1 X109.326 Y112.775 E.01937
;WIDTH:0.522352
G1 X108.785 Y112.581 E.02203
;WIDTH:0.519592
G1 X108.309 Y112.306 E.02089
;WIDTH:0.523545
G1 X107.921 Y111.962 E.01991
G1 X107.605 Y111.557 E.01971
;WIDTH:0.52014
G1 X107.309 Y110.97 E.02503
;WIDTH:0.523075
M73 P13 R1
G1 X107.185 Y110.48 E.01936
;WIDTH:0.523598
G1 X107.149 Y109.85 E.02424
G1 X107.217 Y109.34 E.01971
;WIDTH:0.520682
G1 X107.383 Y108.854 E.01962
;WIDTH:0.523004
G1 X107.712 Y108.291 E.02498
G1 X108.055 Y107.906 E.01975
;WIDTH:0.522568
G1 X108.468 Y107.591 E.01988
G1 X109.029 Y107.31 E.02403
;WIDTH:0.520521
G1 X109.519 Y107.184 E.0193
;WIDTH:0.52323
G1 X110.175 Y107.147 E.02518
G1 X110.674 Y107.224 E.01936
;WIDTH:0.519918
G1 X111.269 Y107.44 E.02409
;WIDTH:0.523782
G1 X111.689 Y107.696 E.0189
G1 X112.08 Y108.037 E.01993
;WIDTH:0.520677
G1 X112.395 Y108.443 E.01959
;WIDTH:0.523069
G1 X112.689 Y109.031 E.02517
G1 X112.816 Y109.519 E.01935
;WIDTH:0.52298
G1 X112.847 Y110.194 E.02588
;WIDTH:0.52842
G1 X112.724 Y110.85 E.02589
G1 X112.593 Y111.155 E.01285
SET_VELOCITY_LIMIT ACCEL=12000 ACCEL_TO_DECEL=6000 SQUARE_CORNER_VELOCITY=12
M73 P14 R1
G1 X112.983 Y111.366 F42000
SET_VELOCITY_LIMIT ACCEL=5000 ACCEL_TO_DECEL=2500 SQUARE_CORNER_VELOCITY=7
;TYPE:Outer wall
;WIDTH:0.419999
G1 F600
G1 X112.939 Y111.477 E.00358
G1 X112.656 Y111.939 E.01634
G1 X112.259 Y112.391 E.01809
G1 X111.642 Y112.85 E.02313
G1 X111.125 Y113.091 E.01718
G1 X110.574 Y113.239 E.01718
G1 X109.806 Y113.283 E.02313
G1 X109.244 Y113.201 E.01711
G1 X108.522 Y112.938 E.02313
G1 X108.036 Y112.638 E.01718
G1 X107.608 Y112.257 E.01726
G1 X107.253 Y111.809 E.01718
G1 X106.909 Y111.123 E.02313
G1 X106.761 Y110.574 E.01711
G1 X106.717 Y109.806 E.02313
G1 X106.799 Y109.241 E.01718
G1 X106.979 Y108.699 E.01719
G1 X107.346 Y108.059 E.02222
G1 X107.743 Y107.608 E.01809
M73 P15 R1
G1 X108.216 Y107.238 E.01809
G1 X108.877 Y106.909 E.02222
G1 X109.426 Y106.761 E.01712
G1 X110.194 Y106.717 E.02313
G1 X110.756 Y106.799 E.01711
G1 X111.478 Y107.062 E.02313
G1 X111.914 Y107.331 E.01542
G1 X112.263 Y107.628 E.01379
G1 X112.631 Y108.044 E.01672
G1 X112.866 Y108.428 E.01353
G1 X113.109 Y108.943 E.01717
G1 X113.243 Y109.494 E.01706
G1 X113.283 Y110.191 E.02101
G1 X113.15 Y110.946 E.02306
G1 X112.998 Y111.329 E.01241
SET_VELOCITY_LIMIT ACCEL=12000 ACCEL_TO_DECEL=6000 SQUARE_CORNER_VELOCITY=12
G1 E-.2 F2400
;WIPE_START
G1 F12000
G1 X112.939 Y111.477 E-.0318
G1 X112.656 Y111.939 E-.10857
G1 X112.259 Y112.391 E-.12023
G1 X111.7 Y112.807 E-.13941
;WIPE_END
G1 Z.8 F42000
