; HEADER_BLOCK_START
; generated by OrcaSlicer 2.1.0 on 2024-10-17 at 18:39:02
; total layer number: 26
; filament_density: 1.27
; filament_diameter: 1.75
; max_z_height: 5.20
; HEADER_BLOCK_END

; THUMBNAIL_BLOCK_START

;
; THUMBNAIL_BLOCK_END

; THUMBNAIL_BLOCK_START

;
; THUMBNAIL_BLOCK_END

; external perimeters extrusion width = 0.42mm
; perimeters extrusion width = 0.45mm
; infill extrusion width = 0.45mm
; solid infill extrusion width = 0.42mm
; top infill extrusion width = 0.42mm
; support material extrusion width = 0.42mm
; first layer extrusion width = 0.50mm

; external perimeters extrusion width = 0.42mm
; perimeters extrusion width = 0.45mm
; infill extrusion width = 0.45mm
; solid infill extrusion width = 0.42mm
; top infill extrusion width = 0.42mm
; support material extrusion width = 0.42mm
; first layer extrusion width = 0.50mm

; external perimeters extrusion width = 0.42mm
; perimeters extrusion width = 0.45mm
; infill extrusion width = 0.45mm
; solid infill extrusion width = 0.42mm
; top infill extrusion width = 0.42mm
; support material extrusion width = 0.42mm
; first layer extrusion width = 0.50mm

; external perimeters extrusion width = 0.42mm
; perimeters extrusion width = 0.45mm
; infill extrusion width = 0.45mm
; solid infill extrusion width = 0.42mm
; top infill extrusion width = 0.42mm
; support material extrusion width = 0.42mm
; first layer extrusion width = 0.50mm

; EXECUTABLE_BLOCK_START
EXCLUDE_OBJECT_DEFINE NAME=втулка_для_крепл.stp_id_0_copy_0 CENTER=35.247,115.238 POLYGON=[[29.748,115.237],[29.752,114.981],[29.77,114.727],[29.8,114.473],[29.842,114.219],[29.896,113.969],[29.96,113.721],[30.036,113.477],[30.124,113.237],[30.222,113.001],[30.332,112.769],[30.452,112.543],[30.582,112.323],[30.724,112.109],[30.874,111.903],[31.034,111.703],[31.202,111.511],[31.38,111.327],[31.566,111.151],[31.76,110.983],[31.962,110.825],[32.172,110.677],[32.386,110.539],[32.608,110.411],[32.836,110.295],[33.068,110.187],[33.306,110.091],[33.548,110.007],[33.792,109.933],[34.04,109.871],[34.292,109.821],[34.544,109.783],[34.8,109.755],[35.056,109.741],[35.312,109.739],[35.566,109.747],[35.822,109.767],[36.076,109.801],[36.328,109.845],[36.578,109.901],[36.824,109.969],[37.068,110.047],[37.308,110.139],[37.542,110.239],[37.772,110.351],[37.996,110.475],[38.216,110.607],[38.428,110.751],[38.634,110.903],[38.832,111.065],[39.022,111.237],[39.204,111.417],[39.376,111.605],[39.542,111.801],[39.696,112.005],[39.842,112.215],[39.978,112.433],[40.104,112.655],[40.218,112.885],[40.322,113.119],[40.416,113.357],[40.498,113.599],[40.568,113.845],[40.626,114.095],[40.674,114.345],[40.71,114.599],[40.734,114.853],[40.746,115.109],[40.746,115.365],[40.734,115.621],[40.71,115.877],[40.674,116.129],[40.626,116.381],[40.568,116.631],[40.498,116.877],[40.416,117.119],[40.322,117.357],[40.218,117.591],[40.104,117.819],[39.978,118.043],[39.842,118.259],[39.696,118.471],[39.542,118.675],[39.376,118.871],[39.204,119.059],[39.022,119.239],[38.832,119.409],[38.634,119.571],[38.428,119.725],[38.216,119.867],[37.996,120.001],[37.772,120.123],[37.542,120.235],[37.308,120.337],[37.068,120.427],[36.824,120.507],[36.578,120.575],[36.328,120.631],[36.076,120.675],[35.822,120.707],[35.566,120.729],[35.312,120.737],[35.056,120.735],[34.8,120.719],[34.544,120.693],[34.292,120.655],[34.04,120.603],[33.792,120.541],[33.548,120.469],[33.306,120.383],[33.068,120.287],[32.836,120.181],[32.608,120.063],[32.386,119.935],[32.172,119.797],[31.962,119.649],[31.76,119.491],[31.566,119.325],[31.38,119.149],[31.202,118.965],[31.034,118.773],[30.874,118.573],[30.724,118.367],[30.582,118.153],[30.452,117.931],[30.332,117.707],[30.222,117.475],[30.124,117.239],[30.036,116.999],[29.96,116.753],[29.896,116.507],[29.842,116.255],[29.8,116.003],[29.77,115.749],[29.752,115.493],[29.748,115.237]]
EXCLUDE_OBJECT_DEFINE NAME=втулка_для_крепл.stp_id_1_copy_0 CENTER=34.822,145.213 POLYGON=[[29.323,145.212],[29.327,144.956],[29.345,144.702],[29.375,144.448],[29.417,144.194],[29.471,143.944],[29.535,143.696],[29.611,143.452],[29.699,143.212],[29.797,142.976],[29.907,142.744],[30.027,142.518],[30.157,142.298],[30.299,142.084],[30.449,141.878],[30.609,141.678],[30.777,141.486],[30.955,141.302],[31.141,141.126],[31.335,140.958],[31.537,140.8],[31.747,140.652],[31.961,140.514],[32.183,140.386],[32.411,140.27],[32.643,140.162],[32.881,140.066],[33.123,139.982],[33.367,139.908],[33.615,139.846],[33.867,139.796],[34.119,139.758],[34.375,139.73],[34.631,139.716],[34.887,139.714],[35.141,139.722],[35.397,139.742],[35.651,139.776],[35.903,139.82],[36.153,139.876],[36.399,139.944],[36.643,140.022],[36.883,140.114],[37.117,140.214],[37.347,140.326],[37.571,140.45],[37.791,140.582],[38.003,140.726],[38.209,140.878],[38.407,141.04],[38.597,141.212],[38.779,141.392],[38.951,141.58],[39.117,141.776],[39.271,141.98],[39.417,142.19],[39.553,142.408],[39.679,142.63],[39.793,142.86],[39.897,143.094],[39.991,143.332],[40.073,143.574],[40.143,143.82],[40.201,144.07],[40.249,144.32],[40.285,144.574],[40.309,144.828],[40.321,145.084],[40.321,145.34],[40.309,145.596],[40.285,145.852],[40.249,146.104],[40.201,146.356],[40.143,146.606],[40.073,146.852],[39.991,147.094],[39.897,147.332],[39.793,147.566],[39.679,147.794],[39.553,148.018],[39.417,148.234],[39.271,148.446],[39.117,148.65],[38.951,148.846],[38.779,149.034],[38.597,149.214],[38.407,149.384],[38.209,149.546],[38.003,149.7],[37.791,149.842],[37.571,149.976],[37.347,150.098],[37.117,150.21],[36.883,150.312],[36.643,150.402],[36.399,150.482],[36.153,150.55],[35.903,150.606],[35.651,150.65],[35.397,150.682],[35.141,150.704],[34.887,150.712],[34.631,150.71],[34.375,150.694],[34.119,150.668],[33.867,150.63],[33.615,150.578],[33.367,150.516],[33.123,150.444],[32.881,150.358],[32.643,150.262],[32.411,150.156],[32.183,150.038],[31.961,149.91],[31.747,149.772],[31.537,149.624],[31.335,149.466],[31.141,149.3],[30.955,149.124],[30.777,148.94],[30.609,148.748],[30.449,148.548],[30.299,148.342],[30.157,148.128],[30.027,147.906],[29.907,147.682],[29.797,147.45],[29.699,147.214],[29.611,146.974],[29.535,146.728],[29.471,146.482],[29.417,146.23],[29.375,145.978],[29.345,145.724],[29.327,145.468],[29.323,145.212]]
EXCLUDE_OBJECT_DEFINE NAME=втулка_для_крепл.stp_id_2_copy_0 CENTER=65.4993,115.214 POLYGON=[[60.0003,115.213],[60.0043,114.957],[60.0223,114.703],[60.0523,114.449],[60.0943,114.195],[60.1483,113.945],[60.2123,113.697],[60.2883,113.453],[60.3763,113.213],[60.4743,112.977],[60.5843,112.745],[60.7043,112.519],[60.8343,112.299],[60.9763,112.085],[61.1263,111.879],[61.2863,111.679],[61.4543,111.487],[61.6323,111.303],[61.8183,111.127],[62.0123,110.959],[62.2143,110.801],[62.4243,110.653],[62.6383,110.515],[62.8603,110.387],[63.0883,110.271],[63.3203,110.163],[63.5583,110.067],[63.8003,109.983],[64.0443,109.909],[64.2923,109.847],[64.5443,109.797],[64.7963,109.759],[65.0523,109.731],[65.3083,109.717],[65.5643,109.715],[65.8183,109.723],[66.0743,109.743],[66.3283,109.777],[66.5803,109.821],[66.8303,109.877],[67.0763,109.945],[67.3203,110.023],[67.5603,110.115],[67.7943,110.215],[68.0243,110.327],[68.2483,110.451],[68.4683,110.583],[68.6803,110.727],[68.8863,110.879],[69.0843,111.041],[69.2743,111.213],[69.4563,111.393],[69.6283,111.581],[69.7943,111.777],[69.9483,111.981],[70.0943,112.191],[70.2303,112.409],[70.3563,112.631],[70.4703,112.861],[70.5743,113.095],[70.6683,113.333],[70.7503,113.575],[70.8203,113.821],[70.8783,114.071],[70.9263,114.321],[70.9623,114.575],[70.9863,114.829],[70.9983,115.085],[70.9983,115.341],[70.9863,115.597],[70.9623,115.853],[70.9263,116.105],[70.8783,116.357],[70.8203,116.607],[70.7503,116.853],[70.6683,117.095],[70.5743,117.333],[70.4703,117.567],[70.3563,117.795],[70.2303,118.019],[70.0943,118.235],[69.9483,118.447],[69.7943,118.651],[69.6283,118.847],[69.4563,119.035],[69.2743,119.215],[69.0843,119.385],[68.8863,119.547],[68.6803,119.701],[68.4683,119.843],[68.2483,119.977],[68.0243,120.099],[67.7943,120.211],[67.5603,120.313],[67.3203,120.403],[67.0763,120.483],[66.8303,120.551],[66.5803,120.607],[66.3283,120.651],[66.0743,120.683],[65.8183,120.705],[65.5643,120.713],[65.3083,120.711],[65.0523,120.695],[64.7963,120.669],[64.5443,120.631],[64.2923,120.579],[64.0443,120.517],[63.8003,120.445],[63.5583,120.359],[63.3203,120.263],[63.0883,120.157],[62.8603,120.039],[62.6383,119.911],[62.4243,119.773],[62.2143,119.625],[62.0123,119.467],[61.8183,119.301],[61.6323,119.125],[61.4543,118.941],[61.2863,118.749],[61.1263,118.549],[60.9763,118.343],[60.8343,118.129],[60.7043,117.907],[60.5843,117.683],[60.4743,117.451],[60.3763,117.215],[60.2883,116.975],[60.2123,116.729],[60.1483,116.483],[60.0943,116.231],[60.0523,115.979],[60.0223,115.725],[60.0043,115.469],[60.0003,115.213]]
EXCLUDE_OBJECT_DEFINE NAME=втулка_для_крепл.stp_id_3_copy_0 CENTER=65.5371,144.658 POLYGON=[[60.0381,144.657],[60.0421,144.401],[60.0601,144.147],[60.0901,143.893],[60.1321,143.639],[60.1861,143.389],[60.2501,143.141],[60.3261,142.897],[60.4141,142.657],[60.5121,142.421],[60.6221,142.189],[60.7421,141.963],[60.8721,141.743],[61.0141,141.529],[61.1641,141.323],[61.3241,141.123],[61.4921,140.931],[61.6701,140.747],[61.8561,140.571],[62.0501,140.403],[62.2521,140.245],[62.4621,140.097],[62.6761,139.959],[62.8981,139.831],[63.1261,139.715],[63.3581,139.607],[63.5961,139.511],[63.8381,139.427],[64.0821,139.353],[64.3301,139.291],[64.5821,139.241],[64.8341,139.203],[65.0901,139.175],[65.3461,139.161],[65.6021,139.159],[65.8561,139.167],[66.1121,139.187],[66.3661,139.221],[66.6181,139.265],[66.8681,139.321],[67.1141,139.389],[67.3581,139.467],[67.5981,139.559],[67.8321,139.659],[68.0621,139.771],[68.2861,139.895],[68.5061,140.027],[68.7181,140.171],[68.9241,140.323],[69.1221,140.485],[69.3121,140.657],[69.4941,140.837],[69.6661,141.025],[69.8321,141.221],[69.9861,141.425],[70.1321,141.635],[70.2681,141.853],[70.3941,142.075],[70.5081,142.305],[70.6121,142.539],[70.7061,142.777],[70.7881,143.019],[70.8581,143.265],[70.9161,143.515],[70.9641,143.765],[71.0001,144.019],[71.0241,144.273],[71.0361,144.529],[71.0361,144.785],[71.0241,145.041],[71.0001,145.297],[70.9641,145.549],[70.9161,145.801],[70.8581,146.051],[70.7881,146.297],[70.7061,146.539],[70.6121,146.777],[70.5081,147.011],[70.3941,147.239],[70.2681,147.463],[70.1321,147.679],[69.9861,147.891],[69.8321,148.095],[69.6661,148.291],[69.4941,148.479],[69.3121,148.659],[69.1221,148.829],[68.9241,148.991],[68.7181,149.145],[68.5061,149.287],[68.2861,149.421],[68.0621,149.543],[67.8321,149.655],[67.5981,149.757],[67.3581,149.847],[67.1141,149.927],[66.8681,149.995],[66.6181,150.051],[66.3661,150.095],[66.1121,150.127],[65.8561,150.149],[65.6021,150.157],[65.3461,150.155],[65.0901,150.139],[64.8341,150.113],[64.5821,150.075],[64.3301,150.023],[64.0821,149.961],[63.8381,149.889],[63.5961,149.803],[63.3581,149.707],[63.1261,149.601],[62.8981,149.483],[62.6761,149.355],[62.4621,149.217],[62.2521,149.069],[62.0501,148.911],[61.8561,148.745],[61.6701,148.569],[61.4921,148.385],[61.3241,148.193],[61.1641,147.993],[61.0141,147.787],[60.8721,147.573],[60.7421,147.351],[60.6221,147.127],[60.5121,146.895],[60.4141,146.659],[60.3261,146.419],[60.2501,146.173],[60.1861,145.927],[60.1321,145.675],[60.0901,145.423],[60.0601,145.169],[60.0421,144.913],[60.0381,144.657]]
M73 P0 R4
M106 S0
M106 P2 S0
;TYPE:Custom
M140 S0
M104 S0 
START_PRINT EXTRUDER_TEMP=250 BED_TEMP=80
G90
G21
M83 ; use relative distances for extrusion
; filament start gcode
M106 S0
M106 P2 S0
;LAYER_CHANGE
;Z:0.2
;HEIGHT:0.2
;BEFORE_LAYER_CHANGE
;0.2
G92 E0

G1 E-.6 F2400
;_SET_FAN_SPEED_CHANGING_LAYER
SET_VELOCITY_LIMIT ACCEL=500 ACCEL_TO_DECEL=250
SET_VELOCITY_LIMIT SQUARE_CORNER_VELOCITY=9
EXCLUDE_OBJECT_START NAME=втулка_для_крепл.stp_id_1_copy_0
G1 Z.2 F42000
G1 X30.873 Y142.892
G1 Z.2
G1 E.6 F2400
;TYPE:Inner wall
;WIDTH:0.534943
G1 F3600
G1 X31.093 Y142.516 E.01711
G1 X31.45 Y142.081 E.02213
;WIDTH:0.529294
G1 X32.076 Y141.517 E.03269
;WIDTH:0.530028
G1 X32.798 Y141.076 E.03289
G1 X33.584 Y140.779 E.03266
;WIDTH:0.529845
G1 X33.823 Y140.728 E.00951
;WIDTH:0.527013
G1 X34.609 Y140.614 E.0307
;WIDTH:0.534013
G1 X35.346 Y140.638 E.02888
G1 X35.989 Y140.759 E.02565
;WIDTH:0.526984
G1 X36.546 Y140.955 E.02285
;WIDTH:0.522872
G1 X37.286 Y141.335 E.03184
;WIDTH:0.524173
G1 X37.947 Y141.841 E.03199
;WIDTH:0.524953
G1 X38.523 Y142.486 E.03327
;WIDTH:0.535729
G1 X38.892 Y143.068 E.02711
G1 X39.045 Y143.413 E.01483
;WIDTH:0.533311
G1 X39.23 Y143.887 E.01991
G1 X39.309 Y144.194 E.01243
;WIDTH:0.528814
G1 X39.416 Y145.041 E.03312
;WIDTH:0.525445
G1 X39.367 Y145.902 E.03322
;WIDTH:0.526402
G1 X39.157 Y146.746 E.03357
;WIDTH:0.534614
G1 X38.908 Y147.333 E.02501
G1 X38.657 Y147.762 E.0195
;WIDTH:0.53321
G1 X38.186 Y148.351 E.02954
;WIDTH:0.53687
G1 X37.674 Y148.826 E.02754
G1 X37.328 Y149.059 E.01645
;WIDTH:0.539385
G1 X36.888 Y149.321 E.02027
G1 X36.16 Y149.618 E.03116
;WIDTH:0.534623
G1 X35.552 Y149.756 E.02449
;WIDTH:0.526223
G1 X34.78 Y149.805 E.02981
;WIDTH:0.533644
G1 X34.234 Y149.779 E.02142
G1 X33.763 Y149.694 E.01877
;WIDTH:0.53343
G1 X33.267 Y149.548 E.02023
;WIDTH:0.539448
G1 X32.797 Y149.344 E.02033
G1 X32.039 Y148.879 E.03522
;WIDTH:0.532594
G1 X31.312 Y148.181 E.03937
;WIDTH:0.525031
G1 X30.845 Y147.524 E.03106
;WIDTH:0.534836
G1 X30.503 Y146.803 E.03132
G1 X30.329 Y146.218 E.02395
;WIDTH:0.529015
G1 X30.233 Y145.406 E.03176
;WIDTH:0.526893
G1 X30.246 Y144.701 E.02722
;WIDTH:0.540479
G1 X30.356 Y144.112 E.02381
G1 X30.65 Y143.274 E.03528
;WIDTH:0.534943
G1 X30.853 Y142.927 E.01579
G1 X30.463 Y142.651 F42000
;TYPE:Outer wall
;WIDTH:0.499999
G1 F3600
G1 X30.689 Y142.261 E.01644
G1 X31.06 Y141.799 E.02162
G1 X31.772 Y141.15 E.03515
G1 X32.59 Y140.651 E.03498
G1 X33.417 Y140.338 E.03226
G1 X33.743 Y140.267 E.01218
G1 X34.6 Y140.143 E.03158
G1 X35.389 Y140.164 E.0288
G1 X35.986 Y140.269 E.02213
G1 X36.486 Y140.412 E.01897
G1 X37.361 Y140.814 E.03515
G1 X38.144 Y141.369 E.03501
G1 X38.807 Y142.062 E.03499
G1 X39.291 Y142.81 E.0325
G1 X39.703 Y143.814 E.03959
G1 X39.831 Y144.381 E.02119
G1 X39.889 Y144.913 E.01953
G1 X39.865 Y145.824 E.03326
G1 X39.66 Y146.763 E.03506
G1 X39.327 Y147.561 E.03157
G1 X39.061 Y148.013 E.01913
G1 X38.749 Y148.437 E.0192
G1 X38.338 Y148.88 E.02205
G1 X37.944 Y149.221 E.019
G1 X37.129 Y149.738 E.03525
G1 X36.326 Y150.065 E.03163
G1 X35.821 Y150.195 E.01902
G1 X35.13 Y150.284 E.02541
G1 X34.164 Y150.251 E.03526
G1 X33.651 Y150.155 E.01904
G1 X33.074 Y149.982 E.02197
G1 X32.593 Y149.778 E.01905
G1 X31.771 Y149.275 E.03519
G1 X31.062 Y148.629 E.03499
M73 P1 R4
G1 X30.487 Y147.862 E.03496
G1 X30.066 Y146.996 E.03514
G1 X29.889 Y146.425 E.02181
G1 X29.789 Y145.911 E.01911
G1 X29.745 Y145.04 E.03184
G1 X29.789 Y144.519 E.01906
G1 X29.888 Y144.005 E.01912
G1 X30.205 Y143.095 E.03514
G1 X30.443 Y142.686 E.01726
;WIPE_START
G1 X30.689 Y142.261 E-.14721
G1 X31.06 Y141.799 E-.17778
G1 X31.737 Y141.182 E-.27502
;WIPE_END
G1 Z.4 F42000
G1 X36.321 Y141.384 Z.4
G1 Z.2
G1 E.6 F2400
;TYPE:Inner wall
;WIDTH:0.529342
G1 F3600
G1 X36.896 Y141.655 E.02468
G1 X37.505 Y142.088 E.02902
;WIDTH:0.528089
G1 X38.024 Y142.623 E.02887
;WIDTH:0.535729
G1 X38.474 Y143.329 E.03295
G1 X38.771 Y144.059 E.03099
;WIDTH:0.533311
G1 X38.93 Y144.899 E.03349
;WIDTH:0.529044
G1 X38.917 Y145.647 E.02902
;WIDTH:0.535125
G1 X38.731 Y146.486 E.03377
G1 X38.46 Y147.13 E.02744
;WIDTH:0.534614
G1 X38.262 Y147.471 E.01548
;WIDTH:0.53321
G1 X37.947 Y147.896 E.02071
;WIDTH:0.53687
G1 X37.348 Y148.454 E.03228
G1 X37.089 Y148.646 E.01272
;WIDTH:0.522209
G1 X36.36 Y149.029 E.0315
;WIDTH:0.530329
G1 X35.626 Y149.254 E.02989
;WIDTH:0.534746
G1 X35.074 Y149.317 E.02179
G1 X34.265 Y149.29 E.0318
;WIDTH:0.533644
G1 X33.886 Y149.219 E.01507
;WIDTH:0.53343
G1 X33.392 Y149.078 E.02014
;WIDTH:0.528678
G1 X32.555 Y148.646 E.03653
;WIDTH:0.527635
G1 X31.797 Y148.005 E.03841
G1 X31.331 Y147.396 E.02967
;WIDTH:0.526559
G1 X31.087 Y146.94 E.01998
;WIDTH:0.528294
G1 X30.839 Y146.26 E.02804
G1 X30.718 Y145.523 E.02893
;WIDTH:0.527645
G1 X30.725 Y144.781 E.02871
