; HEADER_BLOCK_START
; generated by OrcaSlicer 2.1.0 on 2025-02-15 at 17:37:33
; total layer number: 56
; filament_density: 1.27
; filament_diameter: 1.75
; max_z_height: 11.20
; HEADER_BLOCK_END

; THUMBNAIL_BLOCK_START

;
; THUMBNAIL_BLOCK_END

; THUMBNAIL_BLOCK_START

;
; THUMBNAIL_BLOCK_END

; external perimeters extrusion width = 0.42mm
; perimeters extrusion width = 0.45mm
; infill extrusion width = 0.45mm
; solid infill extrusion width = 0.42mm
; top infill extrusion width = 0.42mm
; support material extrusion width = 0.42mm
; first layer extrusion width = 0.50mm

; external perimeters extrusion width = 0.42mm
; perimeters extrusion width = 0.45mm
; infill extrusion width = 0.45mm
; solid infill extrusion width = 0.42mm
; top infill extrusion width = 0.42mm
; support material extrusion width = 0.42mm
; first layer extrusion width = 0.50mm

; EXECUTABLE_BLOCK_START
EXCLUDE_OBJECT_DEFINE NAME=для_захвата.stp_id_0_copy_0 CENTER=51.4532,165.407 POLYGON=[[38.2532,137.407],[64.6532,137.407],[64.6532,191.407],[64.6476,191.557],[64.6308,191.705],[64.603,191.852],[64.5643,191.997],[64.5149,192.138],[64.4551,192.275],[64.3852,192.407],[64.3056,192.534],[64.2168,192.654],[64.1193,192.767],[64.0135,192.873],[63.9001,192.971],[63.7798,193.06],[63.6532,193.139],[63.5209,193.209],[63.3838,193.269],[63.2427,193.318],[63.0982,193.357],[62.9512,193.385],[62.8026,193.402],[62.6532,193.407],[40.2532,193.407],[40.1037,193.402],[39.9551,193.385],[39.8081,193.357],[39.6637,193.318],[39.5225,193.269],[39.3854,193.209],[39.2532,193.139],[39.1265,193.06],[39.0062,192.971],[38.8928,192.873],[38.7871,192.767],[38.6895,192.654],[38.6007,192.534],[38.5211,192.407],[38.4512,192.275],[38.3914,192.138],[38.342,191.997],[38.3033,191.852],[38.2755,191.705],[38.2588,191.557],[38.2532,191.407],[38.2532,137.407]]
EXCLUDE_OBJECT_DEFINE NAME=для_захвата.stp_id_1_copy_0 CENTER=131.54,163.081 POLYGON=[[118.34,135.081],[144.74,135.081],[144.74,189.081],[144.735,189.23],[144.718,189.379],[144.69,189.526],[144.651,189.67],[144.602,189.812],[144.542,189.949],[144.472,190.081],[144.393,190.208],[144.304,190.328],[144.206,190.441],[144.1,190.547],[143.987,190.645],[143.867,190.733],[143.74,190.813],[143.608,190.883],[143.471,190.943],[143.33,190.992],[143.185,191.031],[143.038,191.059],[142.89,191.075],[142.74,191.081],[120.34,191.081],[120.191,191.075],[120.042,191.059],[119.895,191.031],[119.751,190.992],[119.609,190.943],[119.472,190.883],[119.34,190.813],[119.213,190.733],[119.093,190.645],[118.98,190.547],[118.874,190.441],[118.776,190.328],[118.688,190.208],[118.608,190.081],[118.538,189.949],[118.478,189.812],[118.429,189.67],[118.39,189.526],[118.362,189.379],[118.346,189.23],[118.34,189.081],[118.34,135.081]]
M73 P0 R21
M106 S0
M106 P2 S0
;TYPE:Custom
M140 S0
M104 S0 
START_PRINT EXTRUDER_TEMP=250 BED_TEMP=80
G90
G21
M83 ; use relative distances for extrusion
; filament start gcode
M106 S0
M106 P2 S0
;LAYER_CHANGE
;Z:0.2
;HEIGHT:0.2
;BEFORE_LAYER_CHANGE
;0.2
G92 E0

G1 E-.6 F2400
;_SET_FAN_SPEED_CHANGING_LAYER
SET_VELOCITY_LIMIT ACCEL=500 ACCEL_TO_DECEL=250
SET_VELOCITY_LIMIT SQUARE_CORNER_VELOCITY=9
EXCLUDE_OBJECT_START NAME=для_захвата.stp_id_0_copy_0
G1 Z.2 F42000
G1 X56.467 Y160.595
G1 Z.2
G1 E.6 F2400
;TYPE:Inner wall
;WIDTH:0.499999
G1 F3600
G1 X56.539 Y160.383 E.00817
G1 X56.658 Y159.581 E.02958
G1 X56.645 Y158.702 E.03206
G1 X56.547 Y158.032 E.02473
G1 X56.388 Y157.534 E.01907
G1 X56.104 Y157.14 E.0177
G1 X55.762 Y156.876 E.01576
G1 X55.418 Y156.729 E.01365
G1 X54.965 Y156.663 E.01672
G1 X40.253 Y156.658 E.53677
G1 X40.084 Y156.573 E.00689
G1 X40.024 Y156.312 E.00977
G1 X40.024 Y140.557 E.57482
G1 X62.882 Y140.557 E.83398
G1 X62.882 Y187.715 E1.7206
G1 X62.882 Y191.401 E.13448
G1 X62.796 Y191.571 E.00696
G1 X62.59 Y191.636 E.00786
G1 X53.093 Y191.631 E.34652
G1 X53.505 Y191.383 E.01757
G1 X53.998 Y190.979 E.02325
G1 X54.374 Y190.544 E.02098
G1 X54.768 Y189.85 E.02912
G1 X54.901 Y189.495 E.01384
G1 X55.014 Y189.032 E.01738
G1 X55.059 Y188.655 E.01387
G1 X55.029 Y187.851 E.02934
G1 X54.874 Y187.239 E.02304
G1 X54.534 Y186.509 E.02938
G1 X54.15 Y186 E.02327
G1 X53.559 Y185.464 E.02909
G1 X53.073 Y185.171 E.02071
G1 X52.47 Y184.938 E.02356
G1 X51.686 Y184.796 E.02908
G1 X51.118 Y184.804 E.02072
G1 X50.484 Y184.924 E.02356
G1 X49.743 Y185.218 E.02908
G1 X49.217 Y185.567 E.02304
G1 X48.641 Y186.13 E.02938
G1 X48.288 Y186.661 E.02327
G1 X47.978 Y187.397 E.02912
G1 X47.861 Y187.977 E.0216
G1 X47.839 Y188.505 E.01926
G1 X47.908 Y189.133 E.02304
G1 X48.158 Y189.894 E.02925
G1 X48.469 Y190.454 E.02333
G1 X48.831 Y190.901 E.02099
G1 X49.444 Y191.412 E.02914
G1 X49.829 Y191.633 E.01621
G1 X40.36 Y191.631 E.3455
G1 X40.157 Y191.599 E.00751
G1 X40.075 Y191.515 E.00428
G1 X40.024 Y191.314 E.00757
G1 X40.024 Y161.956 E1.07113
M73 P0 R20
G1 X40.109 Y161.777 E.00723
G1 X40.296 Y161.711 E.00726
G1 X54.964 Y161.706 E.53518
G1 X55.379 Y161.651 E.01526
G1 X55.783 Y161.48 E.01603
G1 X56.108 Y161.224 E.01506
G1 X56.379 Y160.852 E.01681
G1 X56.454 Y160.633 E.00845
G1 X56.041 Y160.445 F42000
G1 F3600
G1 X56.089 Y160.304 E.00545
G1 X56.201 Y159.578 E.0268
G1 X56.193 Y158.768 E.02954
G1 X56.052 Y157.913 E.03164
G1 X55.888 Y157.59 E.0132
G1 X55.658 Y157.355 E.01198
G1 X55.288 Y157.167 E.01514
G1 X54.965 Y157.12 E.01194
G1 X40.193 Y157.115 E.53896
G1 X39.87 Y156.997 E.01255
G1 X39.661 Y156.763 E.01145
G1 X39.567 Y156.346 E.0156
G1 X39.567 Y140.1 E.59274
G1 X63.339 Y140.1 E.86733
G1 X63.339 Y191.333 E1.86927
G1 X63.287 Y191.645 E.01155
G1 X63.151 Y191.868 E.00955
G1 X62.901 Y192.039 E.01103
G1 X62.607 Y192.093 E.0109
G1 X52.781 Y192.091 E.35851
;WIDTH:0.508168
G1 X52.228 Y192.086 E.02056
;WIDTH:0.536088
G1 X51.627 Y192.072 E.02366
;WIDTH:0.557642
G1 X50.862 Y192.061 E.03141
G1 X50.555 Y192.076 E.01266
;WIDTH:0.528821
G1 X50.247 Y192.09 E.01195
;WIDTH:0.499999
G1 X40.245 Y192.088 E.36491
G1 X39.871 Y191.968 E.01434
G1 X39.635 Y191.681 E.01354
G1 X39.567 Y191.339 E.01272
G1 X39.567 Y162.047 E1.06877
G1 X39.635 Y161.66 E.01432
G1 X39.87 Y161.375 E.0135
G1 X40.245 Y161.254 E.01436
G1 X55.093 Y161.241 E.54175
G1 X55.431 Y161.149 E.01277
G1 X55.781 Y160.905 E.01557
G1 X55.975 Y160.639 E.01201
G1 X56.028 Y160.483 E.00601
G1 X55.601 Y160.314 F42000
G1 F3600
G1 X55.639 Y160.225 E.00352
G1 X55.744 Y159.575 E.02402
G1 X55.741 Y158.835 E.02701
G1 X55.617 Y158.053 E.02887
G1 X55.453 Y157.782 E.01156
G1 X55.231 Y157.632 E.00976
G1 X54.964 Y157.577 E.00994
G1 X40.134 Y157.572 E.54111
G1 X39.672 Y157.415 E.01781
G1 X39.354 Y157.135 E.01544
G1 X39.171 Y156.782 E.01452
G1 X39.11 Y156.38 E.01484
G1 X39.11 Y139.643 E.61066
G1 X63.796 Y139.643 E.90069
G1 X63.796 Y187.715 E1.75396
G1 X63.796 Y191.523 E.13895
G1 X63.645 Y191.969 E.01716
G1 X63.392 Y192.264 E.01419
G1 X63.069 Y192.467 E.01392
G1 X62.624 Y192.55 E.01651
G1 X40.36 Y192.545 E.81233
G1 X40.06 Y192.514 E.01099
G1 X39.711 Y192.4 E.01342
G1 X39.428 Y192.19 E.01285
G1 X39.18 Y191.766 E.0179
G1 X39.11 Y191.365 E.01486
G1 X39.11 Y161.924 E1.07418
M73 P1 R20
G1 X39.223 Y161.452 E.01769
G1 X39.527 Y161.067 E.01789
G1 X39.83 Y160.88 E.013
G1 X40.194 Y160.797 E.01362
G1 X55.041 Y160.787 E.54174
G1 X55.315 Y160.695 E.01054
G1 X55.516 Y160.512 E.00993
G1 X55.585 Y160.35 E.0064
G1 X55.189 Y160.146 F42000
;TYPE:Outer wall
G1 F3600
G1 X55.286 Y159.572 E.02124
G1 X55.288 Y158.901 E.02448
G1 X55.19 Y158.23 E.02473
G1 X55.127 Y158.103 E.00519
G1 X54.964 Y158.035 E.00644
G1 X40.398 Y158.029 E.53146
G1 X39.989 Y158.001 E.01495
G1 X39.62 Y157.891 E.01408
G1 X39.26 Y157.687 E.01508
G1 X38.934 Y157.33 E.01764
G1 X38.727 Y156.909 E.01711
G1 X38.653 Y156.414 E.01828
G1 X38.653 Y139.186 E.62858
G1 X64.253 Y139.186 E.93404
G1 X64.253 Y187.715 E1.77063
G1 X64.253 Y191.454 E.13644
G1 X64.14 Y191.995 E.02017
G1 X63.969 Y192.299 E.01272
G1 X63.69 Y192.61 E.01524
G1 X63.395 Y192.811 E.01302
G1 X63.064 Y192.941 E.01298
G1 X62.641 Y193.007 E.01562
G1 X40.142 Y193.002 E.82089
G1 X39.852 Y192.936 E.01087
G1 X39.497 Y192.804 E.0138
G1 X39.084 Y192.497 E.01877
G1 X38.812 Y192.097 E.01766
G1 X38.695 Y191.763 E.01291
G1 X38.653 Y191.39 E.01368
G1 X38.653 Y162.047 E1.07063
G1 X38.695 Y161.579 E.01714
G1 X38.812 Y161.245 E.01291
G1 X39.084 Y160.845 E.01766
G1 X39.353 Y160.614 E.01291
G1 X39.67 Y160.447 E.01307
G1 X40.142 Y160.34 E.01768
G1 X54.964 Y160.334 E.54078
G1 X55.104 Y160.286 E.00543
G1 X55.168 Y160.18 E.00452
;WIPE_START
G1 X55.286 Y159.572 E-.18585
G1 X55.288 Y158.901 E-.20132
G1 X55.19 Y158.23 E-.20335
G1 X55.176 Y158.202 E-.00948
;WIPE_END
G1 Z.4 F42000
G1 X51.391 Y185.257 Z.4
G1 Z.2
G1 E.6 F2400
;TYPE:Inner wall
G1 F3600
G1 X51.738 Y185.256 E.01266
G1 X52.371 Y185.384 E.02356
G1 X52.887 Y185.589 E.02023
G1 X53.399 Y185.912 E.02211
G1 X53.83 Y186.326 E.02179
G1 X54.156 Y186.766 E.01997
G1 X54.452 Y187.415 E.02605
G1 X54.581 Y187.941 E.01975
G1 X54.602 Y188.654 E.02603
G1 X54.457 Y189.386 E.02724
G1 X54.141 Y190.068 E.0274
G1 X53.816 Y190.508 E.01998
G1 X53.454 Y190.856 E.01832
G1 X52.858 Y191.237 E.02581
G1 X52.349 Y191.44 E.01999
;WIDTH:0.545685
G1 X51.862 Y191.566 E.02018
G1 X51.15 Y191.572 E.02859
;WIDTH:0.557642
G1 X50.918 Y191.553 E.00954
G1 X50.657 Y191.469 E.01127
;WIDTH:0.528821
G1 X50.396 Y191.384 E.01064
;WIDTH:0.499999
G1 X49.723 Y191.05 E.02744
G1 X49.176 Y190.601 E.02583
G1 X48.857 Y190.212 E.01834
G1 X48.587 Y189.735 E.02001
G1 X48.359 Y189.061 E.02596
G1 X48.296 Y188.523 E.01975
G1 X48.317 Y188.009 E.01878
G1 X48.498 Y187.291 E.02699
G1 X48.756 Y186.753 E.02177
G1 X49.082 Y186.312 E.02004
G1 X49.523 Y185.907 E.02183
G1 X49.976 Y185.611 E.01975
G1 X50.635 Y185.356 E.02579
G1 X51.181 Y185.257 E.02023
G1 X51.351 Y185.257 E.00622
G1 X51.419 Y185.709 F42000
G1 F3600
G1 X51.802 Y185.726 E.01398
G1 X52.292 Y185.835 E.01833
G1 X52.761 Y186.037 E.01862
G1 X53.166 Y186.315 E.01793
G1 X53.556 Y186.702 E.02001
G1 X53.843 Y187.143 E.01921
G1 X54.07 Y187.721 E.02267
G1 X54.146 Y188.167 E.0165
G1 X54.126 Y188.815 E.02366
G1 X53.956 Y189.43 E.02328
G1 X53.661 Y189.972 E.02251
G1 X53.385 Y190.302 E.01569
G1 X53.038 Y190.598 E.01665
G1 X52.501 Y190.902 E.02252
G1 X52.092 Y191.036 E.01569
G1 X51.641 Y191.104 E.01664
G1 X51.024 Y191.078 E.02254
G1 X50.582 Y190.966 E.01664
G1 X50.001 Y190.688 E.02348
G1 X49.521 Y190.301 E.02253
G1 X49.245 Y189.971 E.01569
G1 X49.015 Y189.575 E.01668
G1 X48.811 Y188.988 E.02267
G1 X48.753 Y188.541 E.01646
G1 X48.773 Y188.04 E.0183
G1 X48.912 Y187.485 E.02088
G1 X49.148 Y186.987 E.02009
G1 X49.468 Y186.572 E.01913
G1 X49.908 Y186.184 E.0214
G1 X50.333 Y185.947 E.01775
G1 X50.817 Y185.777 E.01873
G1 X51.314 Y185.704 E.01834
G1 X51.379 Y185.707 E.00237
G1 X51.397 Y186.162 F42000
;TYPE:Outer wall
G1 F3600
G1 X51.703 Y186.172 E.01117
G1 X52.196 Y186.283 E.01845
G1 X52.546 Y186.441 E.014
G1 X52.846 Y186.642 E.01317
G1 X53.205 Y186.995 E.01839
G1 X53.421 Y187.319 E.01421
G1 X53.622 Y187.811 E.01939
G1 X53.689 Y188.166 E.01318
G1 X53.682 Y188.707 E.01971
G1 X53.55 Y189.22 E.01935
G1 X53.304 Y189.686 E.01921
G1 X53.078 Y189.963 E.01304
G1 X52.804 Y190.205 E.01335
G1 X52.349 Y190.471 E.01922
G1 X52.011 Y190.587 E.01305
G1 X51.65 Y190.647 E.01335
G1 X51.123 Y190.632 E.01924
G1 X50.767 Y190.549 E.01334
G1 X50.28 Y190.326 E.01953
G1 X49.865 Y190.001 E.01922
G1 X49.633 Y189.729 E.01305
G1 X49.443 Y189.416 E.01336
G1 X49.262 Y188.916 E.01939
G1 X49.21 Y188.559 E.01317
G1 X49.235 Y188.033 E.01922
G1 X49.326 Y187.678 E.01335
G1 X49.541 Y187.222 E.01841
G1 X49.774 Y186.911 E.01418
G1 X50.162 Y186.565 E.01896
G1 X50.484 Y186.378 E.0136
G1 X50.959 Y186.212 E.01836
G1 X51.342 Y186.16 E.0141
G1 X51.357 Y186.161 E.00054
;WIPE_START
G1 X51.703 Y186.172 E-.10383
G1 X52.196 Y186.283 E-.15169
G1 X52.546 Y186.441 E-.11513
G1 X52.846 Y186.642 E-.10831
G1 X53.134 Y186.925 E-.12104
;WIPE_END
G1 Z.4 F42000
G1 X51.122 Y168.814 Z.4
G1 Z.2
G1 E.6 F2400
;TYPE:Inner wall
G1 F3600
G1 X51.337 Y168.789 E.00789
G1 X52 Y168.834 E.02426
G1 X52.655 Y168.991 E.02458
G1 X53.21 Y169.252 E.02237
G1 X53.531 Y169.445 E.01367
G1 X53.974 Y169.811 E.02095
G1 X54.354 Y170.243 E.02101
G1 X54.686 Y170.79 E.02334
G1 X54.967 Y171.541 E.02925
G1 X55.06 Y172.166 E.02305
G1 X55.048 Y172.845 E.02479
G1 X54.901 Y173.495 E.0243
G1 X54.768 Y173.85 E.01383
G1 X54.466 Y174.417 E.02344
G1 X54.173 Y174.794 E.01743
G1 X53.581 Y175.329 E.02911
G1 X53.036 Y175.661 E.02328
G1 X52.289 Y175.924 E.0289
G1 X51.655 Y176.02 E.02341
G1 X51.077 Y176.006 E.02108
G1 X50.512 Y175.901 E.02096
G1 X49.771 Y175.607 E.02912
G1 X49.233 Y175.264 E.02327
G1 X48.663 Y174.706 E.0291
G1 X48.437 Y174.4 E.0139
G1 X48.07 Y173.69 E.02914
G1 X47.913 Y173.162 E.02012
G1 X47.843 Y172.598 E.02073
G1 X47.862 Y171.96 E.02327
G1 X48.051 Y171.185 E.0291
G1 X48.316 Y170.604 E.02331
G1 X48.641 Y170.13 E.02096
G1 X49.21 Y169.572 E.02909
G1 X49.521 Y169.352 E.0139
G1 X50.237 Y168.999 E.02914
G1 X50.738 Y168.858 E.01896
G1 X51.082 Y168.818 E.01266
G1 X51.284 Y169.256 F42000
G1 F3600
G1 X51.677 Y169.253 E.01435
G1 X52.371 Y169.384 E.02577
G1 X53.008 Y169.662 E.02537
G1 X53.507 Y170.003 E.02204
G1 X53.862 Y170.359 E.01833
G1 X54.156 Y170.766 E.01832
G1 X54.452 Y171.415 E.02605
G1 X54.581 Y171.941 E.01975
G1 X54.602 Y172.654 E.02603
G1 X54.457 Y173.386 E.02724
G1 X54.141 Y174.067 E.02739
G1 X53.816 Y174.508 E.01997
G1 X53.288 Y174.979 E.02581
G1 X52.818 Y175.259 E.01997
G1 X52.155 Y175.487 E.02561
G1 X51.609 Y175.565 E.02011
G1 X51.105 Y175.55 E.01841
G1 X50.612 Y175.455 E.01832
G1 X49.956 Y175.189 E.02582
G1 X49.497 Y174.891 E.01996
G1 X48.996 Y174.392 E.0258
G1 X48.596 Y173.755 E.02745
G1 X48.404 Y173.243 E.01997
G1 X48.297 Y172.543 E.02581
G1 X48.318 Y171.997 E.01997
G1 X48.49 Y171.311 E.02581
G1 X48.722 Y170.814 E.02
G1 X49.008 Y170.402 E.01831
G1 X49.517 Y169.911 E.0258
G1 X50.162 Y169.524 E.02745
G1 X50.679 Y169.341 E.01998
G1 X51.181 Y169.257 E.01858
G1 X51.244 Y169.257 E.00229
G1 X51.223 Y169.719 F42000
G1 F3600
G1 X51.351 Y169.704 E.00473
G1 X51.802 Y169.726 E.01646
G1 X52.351 Y169.853 E.02057
G1 X52.807 Y170.072 E.01844
G1 X53.228 Y170.365 E.01873
G1 X53.597 Y170.757 E.01965
G1 X53.843 Y171.143 E.01669
G1 X54.07 Y171.721 E.02267
G1 X54.146 Y172.167 E.0165
G1 X54.14 Y172.735 E.02073
G1 X54.013 Y173.278 E.02035
G1 X53.735 Y173.857 E.02345
G1 X53.46 Y174.222 E.01666
G1 X52.995 Y174.628 E.02251
G1 X52.537 Y174.888 E.01921
G1 X52.02 Y175.051 E.01979
G1 X51.49 Y175.114 E.01948
G1 X51.024 Y175.079 E.01704
G1 X50.582 Y174.966 E.01665
G1 X50.111 Y174.757 E.01881
G1 X49.658 Y174.429 E.02037
G1 X49.277 Y174.018 E.02048
G1 X48.993 Y173.529 E.02061
G1 X48.814 Y173.004 E.02025
G1 X48.751 Y172.489 E.01893
G1 X48.798 Y171.899 E.02159
G1 X48.98 Y171.309 E.02252
G1 X49.185 Y170.931 E.0157
G1 X49.467 Y170.573 E.01664
G1 X49.886 Y170.199 E.02048
G1 X50.38 Y169.925 E.02061
G1 X50.896 Y169.758 E.01977
G1 X51.183 Y169.724 E.01056
G1 X51.276 Y170.169 F42000
;TYPE:Outer wall
G1 F3600
G1 X51.342 Y170.16 E.00244
G1 X51.703 Y170.172 E.01317
G1 X52.199 Y170.284 E.01856
G1 X52.656 Y170.507 E.01856
G1 X52.976 Y170.752 E.01469
G1 X53.219 Y171.014 E.01304
G1 X53.421 Y171.319 E.01337
G1 X53.622 Y171.811 E.01939
G1 X53.689 Y172.166 E.01318
G1 X53.687 Y172.68 E.01874
G1 X53.569 Y173.17 E.01837
G1 X53.329 Y173.648 E.01951
G1 X53.103 Y173.936 E.01336
G1 X52.702 Y174.277 E.01921
G1 X52.341 Y174.473 E.015
G1 X51.861 Y174.62 E.0183
G1 X51.48 Y174.657 E.01398
G1 X51.123 Y174.632 E.01304
G1 X50.767 Y174.549 E.01335
G1 X50.307 Y174.343 E.01837
G1 X49.991 Y174.116 E.01421
G1 X49.644 Y173.745 E.01853
G1 X49.391 Y173.303 E.01858
G1 X49.262 Y172.913 E.015
G1 X49.203 Y172.407 E.01857
G1 X49.237 Y172.025 E.01401
G1 X49.386 Y171.519 E.01922
G1 X49.553 Y171.203 E.01306
G1 X49.774 Y170.911 E.01334
G1 X50.152 Y170.572 E.01853
G1 X50.598 Y170.327 E.01858
G1 X50.983 Y170.207 E.01471
G1 X51.236 Y170.174 E.00931
;WIPE_START
G1 X51.342 Y170.16 E-.03205
G1 X51.703 Y170.172 E-.1083
G1 X52.199 Y170.284 E-.15261
G1 X52.656 Y170.507 E-.15257
G1 X52.976 Y170.752 E-.12079
G1 X53.053 Y170.834 E-.03368
;WIPE_END
G1 Z.4 F42000
G1 X55.719 Y156.703 Z.4
G1 Z.2
G1 E.6 F2400
;TYPE:Bottom surface
;WIDTH:0.502631
G1 F6300
G1 X40.367 Y141.35 E.79671
G1 X40.367 Y142.001 E.02386
