; HEADER_BLOCK_START
; generated by OrcaSlicer 2.1.0 on 2025-02-15 at 17:33:09
; total layer number: 56
; filament_density: 1.27
; filament_diameter: 1.75
; max_z_height: 11.20
; HEADER_BLOCK_END

; THUMBNAIL_BLOCK_START

;
; THUMBNAIL_BLOCK_END

; THUMBNAIL_BLOCK_START

;
; THUMBNAIL_BLOCK_END

; external perimeters extrusion width = 0.42mm
; perimeters extrusion width = 0.45mm
; infill extrusion width = 0.45mm
; solid infill extrusion width = 0.42mm
; top infill extrusion width = 0.42mm
; support material extrusion width = 0.42mm
; first layer extrusion width = 0.50mm

; external perimeters extrusion width = 0.42mm
; perimeters extrusion width = 0.45mm
; infill extrusion width = 0.45mm
; solid infill extrusion width = 0.42mm
; top infill extrusion width = 0.42mm
; support material extrusion width = 0.42mm
; first layer extrusion width = 0.50mm

; EXECUTABLE_BLOCK_START
EXCLUDE_OBJECT_DEFINE NAME=для_захвата.stp_id_0_copy_0 CENTER=65.6572,163.451 POLYGON=[[52.4572,135.451],[78.8572,135.451],[78.8572,189.451],[78.8516,189.6],[78.8349,189.749],[78.8071,189.896],[78.7684,190.04],[78.719,190.182],[78.6592,190.319],[78.5893,190.451],[78.5097,190.578],[78.4209,190.698],[78.3233,190.811],[78.2176,190.917],[78.1042,191.015],[77.9839,191.103],[77.8572,191.183],[77.725,191.253],[77.5879,191.313],[77.4467,191.362],[77.3023,191.401],[77.1553,191.429],[77.0067,191.445],[76.8572,191.451],[54.4572,191.451],[54.3078,191.445],[54.1591,191.429],[54.0122,191.401],[53.8677,191.362],[53.7266,191.313],[53.5895,191.253],[53.4572,191.183],[53.3306,191.103],[53.2103,191.015],[53.0969,190.917],[52.9911,190.811],[52.8936,190.698],[52.8048,190.578],[52.7252,190.451],[52.6553,190.319],[52.5955,190.182],[52.5461,190.04],[52.5074,189.896],[52.4796,189.749],[52.4628,189.6],[52.4572,189.451],[52.4572,135.451]]
EXCLUDE_OBJECT_DEFINE NAME=для_захвата.stp_id_1_copy_0 CENTER=130.379,162.826 POLYGON=[[117.179,134.826],[143.579,134.826],[143.579,188.826],[143.573,188.975],[143.557,189.124],[143.529,189.271],[143.49,189.415],[143.441,189.557],[143.381,189.694],[143.311,189.826],[143.231,189.952],[143.143,190.073],[143.045,190.186],[142.939,190.292],[142.826,190.389],[142.706,190.478],[142.579,190.558],[142.447,190.628],[142.31,190.688],[142.168,190.737],[142.024,190.776],[141.877,190.803],[141.728,190.82],[141.579,190.826],[119.179,190.826],[119.029,190.82],[118.881,190.803],[118.734,190.776],[118.589,190.737],[118.448,190.688],[118.311,190.628],[118.179,190.558],[118.052,190.478],[117.932,190.389],[117.819,190.292],[117.713,190.186],[117.615,190.073],[117.526,189.952],[117.447,189.826],[117.377,189.694],[117.317,189.557],[117.268,189.415],[117.229,189.271],[117.201,189.124],[117.185,188.975],[117.179,188.826],[117.179,134.826]]
M73 P0 R20
M106 S0
M106 P2 S0
;TYPE:Custom
M140 S0
M104 S0 
START_PRINT EXTRUDER_TEMP=250 BED_TEMP=80
G90
G21
M83 ; use relative distances for extrusion
; filament start gcode
M106 S0
M106 P2 S0
;LAYER_CHANGE
;Z:0.2
;HEIGHT:0.2
;BEFORE_LAYER_CHANGE
;0.2
G92 E0

G1 E-.6 F2400
;_SET_FAN_SPEED_CHANGING_LAYER
SET_VELOCITY_LIMIT ACCEL=500 ACCEL_TO_DECEL=250
SET_VELOCITY_LIMIT SQUARE_CORNER_VELOCITY=9
EXCLUDE_OBJECT_START NAME=для_захвата.stp_id_0_copy_0
G1 Z.2 F42000
G1 X68.556 Y160.941
G1 Z.2
G1 E.6 F2400
;TYPE:Inner wall
;WIDTH:0.499999
G1 F3600
G1 X68.694 Y160.88 E.00551
G1 X69.245 Y160.561 E.02322
G1 X69.622 Y160.262 E.01755
G1 X70.192 Y159.628 E.03108
G1 X70.531 Y159.016 E.02554
G1 X70.676 Y158.625 E.01523
G1 X70.82 Y157.994 E.0236
G1 X70.86 Y157.653 E.01255
G1 X70.866 Y156.977 E.02467
G1 X70.802 Y156.318 E.02415
G1 X70.701 Y155.913 E.01521
G1 X70.465 Y155.311 E.02362
G1 X70.263 Y154.945 E.01523
G1 X69.857 Y154.412 E.02445
G1 X69.361 Y153.973 E.02416
G1 X69.012 Y153.745 E.01523
G1 X68.429 Y153.464 E.0236
G1 X67.974 Y153.324 E.01736
G1 X67.099 Y153.209 E.0322
G1 X54.428 Y153.204 E.46233
G1 X54.298 Y153.115 E.00574
G1 X54.228 Y152.858 E.00973
G1 X54.228 Y138.601 E.52017
G1 X77.086 Y138.601 E.83398
G1 X77.086 Y185.759 E1.7206
G1 X77.086 Y189.444 E.13448
G1 X77 Y189.615 E.00696
G1 X76.794 Y189.68 E.00786
G1 X67.297 Y189.675 E.34652
G1 X67.709 Y189.427 E.01757
G1 X68.202 Y189.023 E.02325
G1 X68.578 Y188.588 E.02098
G1 X68.972 Y187.894 E.02912
G1 X69.105 Y187.539 E.01384
G1 X69.218 Y187.076 E.01738
G1 X69.264 Y186.699 E.01387
G1 X69.233 Y185.895 E.02934
G1 X69.078 Y185.283 E.02304
G1 X68.738 Y184.553 E.02938
G1 X68.354 Y184.043 E.02327
G1 X67.763 Y183.508 E.02909
G1 X67.277 Y183.215 E.02071
G1 X66.675 Y182.982 E.02356
G1 X65.89 Y182.84 E.02908
G1 X65.322 Y182.848 E.02072
G1 X64.688 Y182.968 E.02356
G1 X63.947 Y183.262 E.02908
G1 X63.421 Y183.611 E.02304
G1 X62.845 Y184.174 E.02938
G1 X62.492 Y184.705 E.02327
G1 X62.182 Y185.441 E.02912
G1 X62.065 Y186.021 E.0216
G1 X62.044 Y186.549 E.01926
G1 X62.112 Y187.177 E.02304
G1 X62.362 Y187.938 E.02925
G1 X62.673 Y188.497 E.02333
G1 X63.035 Y188.944 E.02099
G1 X63.648 Y189.456 E.02914
G1 X64.034 Y189.677 E.01621
G1 X54.564 Y189.675 E.3455
G1 X54.361 Y189.643 E.00751
G1 X54.279 Y189.559 E.00428
G1 X54.228 Y189.358 E.00757
G1 X54.228 Y161.513 E1.01595
G1 X54.294 Y161.343 E.00664
G1 X54.471 Y161.253 E.00726
G1 X65.946 Y161.248 E.41868
G1 X67.279 Y161.237 E.04862
G1 X67.863 Y161.167 E.02148
G1 X68.367 Y161.023 E.01912
G1 X68.52 Y160.957 E.00607
G1 X68.328 Y160.535 F42000
G1 F3600
G1 X68.466 Y160.485 E.00535
G1 X69.016 Y160.166 E.02322
G1 X69.287 Y159.951 E.0126
G1 X69.819 Y159.363 E.02894
G1 X70.127 Y158.803 E.02331
G1 X70.23 Y158.523 E.01088
G1 X70.403 Y157.649 E.03253
G1 X70.409 Y156.977 E.02452
G1 X70.348 Y156.369 E.02227
G1 X70.276 Y156.08 E.01086
G1 X70.039 Y155.478 E.02362
G1 X69.895 Y155.217 E.01088
G1 X69.522 Y154.724 E.02254
G1 X69.063 Y154.32 E.02233
G1 X68.814 Y154.157 E.01088
G1 X68.231 Y153.876 E.0236
G1 X67.906 Y153.776 E.0124
G1 X67.099 Y153.666 E.02971
G1 X54.428 Y153.661 E.4623
G1 X54.118 Y153.568 E.01182
G1 X53.861 Y153.3 E.01354
G1 X53.771 Y152.892 E.01526
G1 X53.771 Y138.144 E.5381
G1 X77.543 Y138.144 E.86733
G1 X77.543 Y189.376 E1.86927
G1 X77.491 Y189.689 E.01155
G1 X77.355 Y189.912 E.00955
G1 X77.105 Y190.082 E.01103
G1 X76.811 Y190.137 E.0109
G1 X66.985 Y190.135 E.35851
;WIDTH:0.508168
G1 X66.432 Y190.13 E.02056
;WIDTH:0.536088
G1 X65.831 Y190.116 E.02366
;WIDTH:0.557642
G1 X65.066 Y190.105 E.03141
G1 X64.759 Y190.12 E.01266
;WIDTH:0.528821
G1 X64.451 Y190.134 E.01195
;WIDTH:0.499999
G1 X54.449 Y190.132 E.36491
G1 X54.075 Y190.011 E.01434
G1 X53.839 Y189.725 E.01354
G1 X53.771 Y189.383 E.01272
G1 X53.771 Y161.544 E1.01573
G1 X53.846 Y161.183 E.01346
G1 X54.078 Y160.92 E.01278
G1 X54.428 Y160.796 E.01358
G1 X67.227 Y160.783 E.46699
G1 X67.916 Y160.685 E.02539
G1 X68.29 Y160.548 E.01452
G1 X68.159 Y160.115 F42000
G1 F3600
G1 X68.237 Y160.089 E.003
G1 X68.787 Y159.77 E.02322
G1 X68.952 Y159.64 E.00765
G1 X69.495 Y159.02 E.0301
G1 X69.785 Y158.422 E.02424
G1 X69.946 Y157.645 E.02895
G1 X69.948 Y156.9 E.02718
G1 X69.85 Y156.247 E.02406
G1 X69.527 Y155.488 E.0301
G1 X69.134 Y154.984 E.02334
G1 X68.615 Y154.568 E.02424
G1 X68.032 Y154.288 E.0236
G1 X67.837 Y154.228 E.00744
G1 X67.099 Y154.123 E.02722
G1 X54.385 Y154.118 E.46386
G1 X54.01 Y154.02 E.01415
G1 X53.693 Y153.823 E.01363
G1 X53.421 Y153.433 E.01734
G1 X53.314 Y152.926 E.01891
G1 X53.314 Y137.687 E.55602
G1 X78 Y137.687 E.90069
G1 X78 Y185.759 E1.75396
G1 X78 Y189.567 E.13895
G1 X77.849 Y190.012 E.01716
G1 X77.596 Y190.308 E.01419
G1 X77.273 Y190.511 E.01392
G1 X76.828 Y190.594 E.01651
G1 X54.564 Y190.589 E.81233
G1 X54.264 Y190.558 E.01099
G1 X53.915 Y190.444 E.01342
G1 X53.632 Y190.233 E.01285
G1 X53.384 Y189.81 E.0179
G1 X53.314 Y189.409 E.01486
G1 X53.314 Y161.588 E1.01505
M73 P1 R20
G1 X53.347 Y161.223 E.0134
G1 X53.492 Y160.886 E.01337
G1 X53.818 Y160.538 E.01737
G1 X53.999 Y160.451 E.00736
G1 X54.385 Y160.338 E.01468
G1 X67.176 Y160.329 E.46668
G1 X67.7 Y160.268 E.01925
G1 X68.121 Y160.128 E.01618
G1 X68.311 Y159.512 F42000
;TYPE:Outer wall
G1 F3600
G1 X68.617 Y159.329 E.01298
G1 X69.091 Y158.806 E.02577
G1 X69.339 Y158.32 E.01991
G1 X69.489 Y157.641 E.02538
G1 X69.493 Y156.951 E.02516
G1 X69.425 Y156.414 E.01974
G1 X69.16 Y155.759 E.02578
G1 X68.836 Y155.33 E.01962
G1 X68.417 Y154.98 E.01992
G1 X67.769 Y154.679 E.02606
G1 X67.099 Y154.581 E.02473
G1 X54.602 Y154.575 E.45594
G1 X54.194 Y154.547 E.01494
G1 X53.808 Y154.43 E.01471
G1 X53.373 Y154.155 E.01877
G1 X53.071 Y153.776 E.01766
G1 X52.932 Y153.455 E.01277
G1 X52.857 Y152.96 E.01828
G1 X52.857 Y137.23 E.57394
G1 X78.457 Y137.23 E.93404
G1 X78.457 Y185.759 E1.77063
G1 X78.457 Y189.498 E.13644
G1 X78.344 Y190.039 E.02017
G1 X78.173 Y190.343 E.01272
G1 X77.894 Y190.654 E.01524
G1 X77.599 Y190.855 E.01302
G1 X77.268 Y190.985 E.01298
G1 X76.845 Y191.051 E.01562
G1 X54.346 Y191.046 E.82089
G1 X54.056 Y190.979 E.01087
G1 X53.701 Y190.848 E.0138
G1 X53.289 Y190.541 E.01877
G1 X53.016 Y190.141 E.01766
G1 X52.899 Y189.807 E.01291
G1 X52.857 Y189.434 E.01368
G1 X52.857 Y161.588 E1.01598
G1 X52.899 Y161.12 E.01715
G1 X53.017 Y160.783 E.01305
G1 X53.208 Y160.48 E.01307
G1 X53.557 Y160.156 E.01736
G1 X53.99 Y159.948 E.01751
G1 X54.342 Y159.881 E.0131
G1 X67.099 Y159.876 E.46544
G1 X67.603 Y159.82 E.01851
G1 X68.008 Y159.693 E.01546
G1 X68.277 Y159.532 E.01146
;WIPE_START
G1 X68.617 Y159.329 E-.11869
G1 X69.091 Y158.806 E-.2119
G1 X69.339 Y158.32 E-.1637
G1 X69.415 Y157.976 E-.10571
;WIPE_END
G1 Z.4 F42000
G1 X67.223 Y183.716 Z.4
G1 Z.2
G1 E.6 F2400
;TYPE:Inner wall
G1 F3600
G1 X67.603 Y183.956 E.01641
G1 X68.034 Y184.37 E.02179
G1 X68.36 Y184.81 E.01997
G1 X68.656 Y185.459 E.02605
G1 X68.785 Y185.985 E.01975
G1 X68.806 Y186.698 E.02603
G1 X68.661 Y187.43 E.02724
G1 X68.345 Y188.111 E.0274
G1 X68.02 Y188.552 E.01998
G1 X67.658 Y188.9 E.01832
G1 X67.062 Y189.281 E.02581
G1 X66.553 Y189.483 E.01999
;WIDTH:0.545685
G1 X66.066 Y189.609 E.02018
G1 X65.354 Y189.616 E.02859
;WIDTH:0.557642
G1 X65.122 Y189.597 E.00954
G1 X64.861 Y189.512 E.01127
;WIDTH:0.528821
G1 X64.6 Y189.428 E.01064
;WIDTH:0.499999
G1 X63.927 Y189.094 E.02744
G1 X63.38 Y188.644 E.02583
G1 X63.061 Y188.256 E.01834
G1 X62.791 Y187.779 E.02001
G1 X62.564 Y187.104 E.02596
G1 X62.5 Y186.567 E.01975
G1 X62.521 Y186.052 E.01878
G1 X62.627 Y185.549 E.01877
G1 X62.906 Y184.899 E.02582
G1 X63.212 Y184.446 E.01996
G1 X63.727 Y183.951 E.02605
G1 X64.18 Y183.655 E.01975
G1 X64.839 Y183.4 E.02579
G1 X65.385 Y183.301 E.02023
G1 X65.942 Y183.3 E.02034
G1 X66.575 Y183.428 E.02356
G1 X67.091 Y183.633 E.02023
G1 X67.189 Y183.695 E.00424
G1 X66.901 Y184.054 F42000
G1 F3600
G1 X66.965 Y184.081 E.00253
G1 X67.37 Y184.359 E.01793
G1 X67.76 Y184.745 E.02001
G1 X68.047 Y185.187 E.01921
G1 X68.274 Y185.765 E.02267
G1 X68.35 Y186.211 E.0165
G1 X68.33 Y186.859 E.02366
G1 X68.16 Y187.474 E.02328
G1 X67.865 Y188.016 E.02251
G1 X67.589 Y188.346 E.01569
G1 X67.242 Y188.642 E.01665
G1 X66.705 Y188.946 E.02252
G1 X66.296 Y189.08 E.01569
G1 X65.845 Y189.148 E.01664
G1 X65.228 Y189.122 E.02254
G1 X64.786 Y189.01 E.01664
G1 X64.206 Y188.732 E.02348
G1 X63.725 Y188.345 E.02253
G1 X63.449 Y188.014 E.01569
G1 X63.219 Y187.619 E.01668
G1 X63.015 Y187.032 E.02267
G1 X62.957 Y186.585 E.01646
G1 X62.977 Y186.084 E.0183
G1 X63.116 Y185.529 E.02088
G1 X63.352 Y185.031 E.02009
G1 X63.672 Y184.616 E.01913
G1 X64.112 Y184.228 E.0214
G1 X64.537 Y183.991 E.01775
G1 X65.021 Y183.821 E.01873
G1 X65.519 Y183.748 E.01834
G1 X66.006 Y183.77 E.01781
G1 X66.496 Y183.879 E.01833
G1 X66.865 Y184.038 E.01463
G1 X66.724 Y184.473 F42000
;TYPE:Outer wall
G1 F3600
G1 X66.75 Y184.485 E.00106
G1 X67.05 Y184.686 E.01317
G1 X67.409 Y185.039 E.01839
G1 X67.625 Y185.363 E.01421
G1 X67.826 Y185.855 E.01939
G1 X67.893 Y186.21 E.01318
G1 X67.886 Y186.751 E.01971
G1 X67.754 Y187.264 E.01935
G1 X67.508 Y187.73 E.01921
G1 X67.282 Y188.007 E.01304
G1 X67.008 Y188.249 E.01335
G1 X66.553 Y188.514 E.01922
G1 X66.215 Y188.63 E.01305
G1 X65.854 Y188.691 E.01335
G1 X65.327 Y188.676 E.01924
G1 X64.971 Y188.592 E.01334
G1 X64.484 Y188.37 E.01953
G1 X64.07 Y188.045 E.01922
G1 X63.837 Y187.773 E.01305
G1 X63.647 Y187.46 E.01336
G1 X63.466 Y186.96 E.01939
G1 X63.414 Y186.603 E.01317
G1 X63.439 Y186.077 E.01922
G1 X63.53 Y185.722 E.01335
G1 X63.745 Y185.266 E.01841
G1 X63.978 Y184.955 E.01418
G1 X64.366 Y184.609 E.01896
G1 X64.688 Y184.422 E.0136
G1 X65.163 Y184.256 E.01836
G1 X65.546 Y184.204 E.0141
G1 X65.907 Y184.216 E.01317
G1 X66.4 Y184.327 E.01845
G1 X66.687 Y184.456 E.01148
;WIPE_START
G1 X66.75 Y184.485 E-.02075
G1 X67.05 Y184.686 E-.10831
G1 X67.409 Y185.039 E-.15117
G1 X67.625 Y185.363 E-.11682
G1 X67.826 Y185.855 E-.15941
G1 X67.853 Y185.998 E-.04353
;WIPE_END
G1 Z.4 F42000
G1 X68.64 Y168.419 Z.4
G1 Z.2
G1 E.6 F2400
;TYPE:Inner wall
G1 F3600
G1 X68.738 Y168.553 E.00604
G1 X69.078 Y169.283 E.02938
G1 X69.233 Y169.895 E.02304
G1 X69.264 Y170.699 E.02934
G1 X69.218 Y171.076 E.01387
G1 X69.048 Y171.722 E.02438
G1 X68.751 Y172.321 E.0244
G1 X68.377 Y172.838 E.02328
G1 X67.785 Y173.373 E.02911
G1 X67.24 Y173.705 E.02328
G1 X66.493 Y173.968 E.0289
G1 X65.859 Y174.064 E.02341
G1 X65.281 Y174.05 E.02108
G1 X64.716 Y173.945 E.02096
G1 X63.975 Y173.651 E.02912
G1 X63.437 Y173.308 E.02327
G1 X62.867 Y172.75 E.0291
G1 X62.641 Y172.444 E.0139
G1 X62.274 Y171.734 E.02914
G1 X62.117 Y171.206 E.02012
G1 X62.047 Y170.642 E.02073
G1 X62.066 Y170.004 E.02327
G1 X62.255 Y169.229 E.0291
G1 X62.52 Y168.648 E.02331
G1 X62.845 Y168.174 E.02096
G1 X63.414 Y167.616 E.02909
G1 X63.725 Y167.396 E.0139
G1 X64.441 Y167.043 E.02914
G1 X64.942 Y166.902 E.01896
G1 X65.541 Y166.833 E.02201
G1 X66.204 Y166.878 E.02426
G1 X66.778 Y167.009 E.02148
G1 X67.466 Y167.321 E.02754
G1 X67.99 Y167.685 E.02329
G1 X68.399 Y168.089 E.02098
G1 X68.617 Y168.387 E.01346
G1 X68.276 Y168.694 F42000
G1 F3600
G1 X68.36 Y168.81 E.00522
G1 X68.656 Y169.459 E.02605
G1 X68.785 Y169.985 E.01975
G1 X68.806 Y170.698 E.02603
G1 X68.661 Y171.43 E.02724
G1 X68.345 Y172.111 E.02739
G1 X68.02 Y172.552 E.01997
G1 X67.492 Y173.022 E.02581
G1 X67.022 Y173.303 E.01997
G1 X66.359 Y173.531 E.02561
G1 X65.813 Y173.609 E.02011
G1 X65.309 Y173.594 E.01841
G1 X64.816 Y173.499 E.01832
G1 X64.16 Y173.233 E.02582
G1 X63.701 Y172.935 E.01996
G1 X63.2 Y172.436 E.0258
G1 X62.8 Y171.799 E.02745
G1 X62.608 Y171.287 E.01997
G1 X62.501 Y170.587 E.02581
G1 X62.522 Y170.04 E.01997
G1 X62.694 Y169.354 E.02581
G1 X62.926 Y168.858 E.02
G1 X63.212 Y168.446 E.01831
G1 X63.721 Y167.955 E.0258
G1 X64.366 Y167.568 E.02745
G1 X64.883 Y167.385 E.01998
G1 X65.385 Y167.301 E.01858
G1 X65.881 Y167.297 E.01809
G1 X66.378 Y167.384 E.0184
G1 X66.832 Y167.518 E.01727
G1 X67.286 Y167.742 E.01848
G1 X67.711 Y168.047 E.01908
G1 X68.066 Y168.402 E.01833
G1 X68.253 Y168.661 E.01164
G1 X67.922 Y168.991 F42000
G1 F3600
G1 X68.047 Y169.187 E.00848
G1 X68.274 Y169.765 E.02267
G1 X68.35 Y170.211 E.0165
G1 X68.344 Y170.779 E.02073
G1 X68.217 Y171.322 E.02035
G1 X67.939 Y171.901 E.02345
G1 X67.618 Y172.318 E.01919
G1 X67.199 Y172.672 E.02
G1 X66.741 Y172.932 E.01921
G1 X66.224 Y173.094 E.01979
G1 X65.694 Y173.158 E.01948
G1 X65.228 Y173.122 E.01704
G1 X64.786 Y173.01 E.01665
G1 X64.315 Y172.801 E.01881
G1 X63.863 Y172.473 E.02037
G1 X63.481 Y172.061 E.02048
G1 X63.197 Y171.573 E.02061
G1 X63.018 Y171.048 E.02025
G1 X62.955 Y170.533 E.01893
G1 X63.002 Y169.943 E.02159
G1 X63.184 Y169.353 E.02252
G1 X63.332 Y169.068 E.01173
G1 X63.671 Y168.616 E.0206
G1 X64.09 Y168.243 E.02048
G1 X64.584 Y167.969 E.02061
G1 X65.1 Y167.802 E.01977
G1 X65.556 Y167.747 E.01675
G1 X66.006 Y167.77 E.01646
G1 X66.52 Y167.886 E.01924
G1 X67.062 Y168.141 E.02184
G1 X67.513 Y168.482 E.02063
G1 X67.801 Y168.801 E.01569
G1 X67.901 Y168.957 E.00675
G1 X67.539 Y169.232 F42000
;TYPE:Outer wall
G1 F3600
G1 X67.625 Y169.363 E.00573
G1 X67.826 Y169.855 E.01939
G1 X67.893 Y170.21 E.01318
G1 X67.891 Y170.724 E.01874
G1 X67.773 Y171.213 E.01837
G1 X67.533 Y171.691 E.01951
G1 X67.276 Y172.012 E.01501
G1 X66.888 Y172.335 E.01839
G1 X66.545 Y172.517 E.01419
G1 X66.065 Y172.664 E.0183
G1 X65.684 Y172.7 E.01398
G1 X65.327 Y172.676 E.01304
G1 X64.971 Y172.592 E.01335
G1 X64.511 Y172.387 E.01837
G1 X64.195 Y172.16 E.01421
