; HEADER_BLOCK_START
; generated by OrcaSlicer 2.1.0 on 2025-02-15 at 18:18:44
; total layer number: 56
; filament_density: 1.27
; filament_diameter: 1.75
; max_z_height: 11.20
; HEADER_BLOCK_END

; THUMBNAIL_BLOCK_START

;
; THUMBNAIL_BLOCK_END

; THUMBNAIL_BLOCK_START

;
; THUMBNAIL_BLOCK_END

; external perimeters extrusion width = 0.42mm
; perimeters extrusion width = 0.45mm
; infill extrusion width = 0.45mm
; solid infill extrusion width = 0.42mm
; top infill extrusion width = 0.42mm
; support material extrusion width = 0.42mm
; first layer extrusion width = 0.50mm

; external perimeters extrusion width = 0.42mm
; perimeters extrusion width = 0.45mm
; infill extrusion width = 0.45mm
; solid infill extrusion width = 0.42mm
; top infill extrusion width = 0.42mm
; support material extrusion width = 0.42mm
; first layer extrusion width = 0.50mm

; EXECUTABLE_BLOCK_START
EXCLUDE_OBJECT_DEFINE NAME=для_захвата.stp_id_0_copy_0 CENTER=148.723,99.5934 POLYGON=[[120.614,112.55],[120.852,86.151],[120.857,86.1511],[121.119,86.1534],[174.849,86.6368],[174.999,86.6437],[175.147,86.6618],[175.294,86.6909],[175.438,86.7309],[175.579,86.7816],[175.715,86.8426],[175.847,86.9137],[175.973,86.9944],[176.092,87.0843],[176.205,87.1829],[176.31,87.2896],[176.406,87.4038],[176.494,87.525],[176.572,87.6523],[176.641,87.7852],[176.7,87.9228],[176.748,88.0644],[176.785,88.2092],[176.812,88.3564],[176.827,88.5052],[176.831,88.6547],[176.63,111.054],[176.623,111.203],[176.605,111.352],[176.576,111.498],[176.536,111.642],[176.485,111.783],[176.424,111.92],[176.353,112.051],[176.272,112.177],[176.182,112.297],[176.084,112.409],[175.977,112.514],[175.863,112.611],[175.742,112.698],[175.614,112.777],[175.481,112.845],[175.344,112.904],[175.202,112.952],[175.057,112.99],[174.91,113.016],[174.761,113.031],[174.612,113.036],[120.614,112.55]]
EXCLUDE_OBJECT_DEFINE NAME=для_захвата.stp_id_1_copy_0 CENTER=69.3599,99.8398 POLYGON=[[41.2513,112.796],[41.4888,86.3975],[41.4944,86.3975],[41.7567,86.3999],[95.4866,86.8833],[95.636,86.8902],[95.7845,86.9083],[95.9312,86.9374],[96.0753,86.9774],[96.216,87.0281],[96.3525,87.0891],[96.4841,87.1602],[96.6101,87.2409],[96.7296,87.3308],[96.8421,87.4294],[96.9469,87.5361],[97.0434,87.6503],[97.1312,87.7714],[97.2096,87.8988],[97.2783,88.0317],[97.3369,88.1693],[97.385,88.3109],[97.4224,88.4557],[97.4489,88.6029],[97.4643,88.7517],[97.4685,88.9012],[97.267,111.3],[97.2601,111.45],[97.242,111.598],[97.2129,111.745],[97.1729,111.889],[97.1222,112.03],[97.0612,112.166],[96.9901,112.298],[96.9094,112.424],[96.8195,112.543],[96.7209,112.656],[96.6142,112.761],[96.5,112.857],[96.3788,112.945],[96.2515,113.023],[96.1186,113.092],[95.981,113.151],[95.8394,113.199],[95.6946,113.236],[95.5474,113.263],[95.3986,113.278],[95.2491,113.282],[41.2513,112.796]]
M73 P0 R21
M106 S0
M106 P2 S0
;TYPE:Custom
M140 S0
M104 S0 
START_PRINT EXTRUDER_TEMP=250 BED_TEMP=90
M106 P3 S153
G90
G21
M83 ; use relative distances for extrusion
; filament start gcode
M106 S0
M106 P2 S0
;LAYER_CHANGE
;Z:0.2
;HEIGHT:0.2
;BEFORE_LAYER_CHANGE
;0.2
G92 E0

G1 E-.6 F2400
;_SET_FAN_SPEED_CHANGING_LAYER
SET_VELOCITY_LIMIT ACCEL=500 ACCEL_TO_DECEL=250
SET_VELOCITY_LIMIT SQUARE_CORNER_VELOCITY=9
EXCLUDE_OBJECT_START NAME=для_захвата.stp_id_0_copy_0
G1 Z.2 F42000
G1 X172.263 Y103.379
G1 Z.2
G1 E.6 F2400
;TYPE:Inner wall
;WIDTH:0.499999
G1 F3600
G1 X172.43 Y103.36 E.00607
G1 X173.191 Y103.116 E.02883
G1 X173.53 Y102.944 E.01375
G1 X173.931 Y102.678 E.01737
G1 X174.22 Y102.43 E.01375
G1 X174.547 Y102.076 E.01737
G1 X174.945 Y101.467 E.02628
G1 X174.858 Y111.057 E.34625
G1 X174.758 Y111.2 E.00631
G1 X174.534 Y111.264 E.00841
G1 X145.178 Y111 E1.05997
G1 X145 Y110.914 E.00716
G1 X144.935 Y110.726 E.00718
G1 X145.062 Y96.098 E.52817
G1 X145.016 Y95.661 E.01585
G1 X144.843 Y95.236 E.01656
G1 X144.591 Y94.91 E.0149
G1 X144.221 Y94.636 E.01663
G1 X143.754 Y94.471 E.01789
G1 X142.953 Y94.346 E.02928
G1 X142.074 Y94.35 E.03173
G1 X141.402 Y94.442 E.02447
G1 X140.903 Y94.597 E.01888
G1 X140.507 Y94.878 E.01751
G1 X140.24 Y95.217 E.01559
G1 X140.09 Y95.559 E.0135
G1 X140.02 Y96.012 E.01655
G1 X139.882 Y110.738 E.53171
G1 X139.796 Y110.89 E.00631
G1 X139.534 Y110.949 E.00971
G1 X123.78 Y110.807 E.56883
G1 X123.985 Y87.951 E.82529
G1 X174.796 Y88.408 E1.83466
G1 X174.976 Y88.484 E.00704
G1 X175.059 Y88.732 E.00947
G1 X174.974 Y98.219 E.34256
G1 X174.555 Y97.553 E.02841
G1 X174.117 Y97.089 E.02304
G1 X173.65 Y96.742 E.02103
G1 X172.935 Y96.4 E.02861
G1 X172.571 Y96.293 E.01371
G1 X171.779 Y96.191 E.0288
G1 X171.144 Y96.242 E.02302
G1 X170.375 Y96.454 E.02881
G1 X169.808 Y96.748 E.02304
G1 X169.181 Y97.241 E.0288
G1 X168.807 Y97.677 E.02075
G1 X168.485 Y98.215 E.02262
G1 X168.271 Y98.761 E.02118
G1 X168.122 Y99.545 E.02881
G1 X168.126 Y100.122 E.02085
G1 X168.241 Y100.753 E.02316
G1 X168.527 Y101.492 E.02859
G1 X168.875 Y102.026 E.02303
G1 X169.327 Y102.518 E.02412
G1 X169.876 Y102.912 E.02441
G1 X170.448 Y103.193 E.02301
G1 X171.223 Y103.388 E.02883
G1 X171.859 Y103.426 E.023
G1 X172.223 Y103.383 E.01326
;WIPE_START
G1 X172.43 Y103.36 E-.06241
G1 X173.191 Y103.116 E-.23958
G1 X173.53 Y102.944 E-.11426
G1 X173.931 Y102.678 E-.14436
G1 X174.031 Y102.592 E-.0394
;WIPE_END
G1 Z.4 F42000
G1 X175.398 Y101.913 Z.4
G1 Z.2
G1 E.6 F2400
G1 F3600
G1 X175.315 Y111.148 E.33347
G1 X175.119 Y111.498 E.01446
G1 X174.867 Y111.657 E.01076
G1 X174.556 Y111.721 E.01148
G1 X145.265 Y111.457 E1.05763
G1 X144.879 Y111.386 E.01417
G1 X144.595 Y111.148 E.01336
G1 X144.478 Y110.773 E.01421
G1 X144.604 Y95.997 E.53352
G1 X144.509 Y95.586 E.01522
G1 X144.268 Y95.234 E.0154
G1 X144.004 Y95.038 E.01188
G1 X143.67 Y94.921 E.01278
G1 X142.945 Y94.803 E.02652
G1 X142.136 Y94.803 E.02923
G1 X141.279 Y94.936 E.03131
G1 X140.955 Y95.098 E.01306
G1 X140.718 Y95.325 E.01186
G1 X140.527 Y95.693 E.01498
G1 X140.477 Y96.017 E.01182
G1 X140.338 Y110.832 E.53495
G1 X140.185 Y111.149 E.0127
G1 X139.986 Y111.314 E.00935
G1 X139.564 Y111.406 E.0156
G1 X123.319 Y111.26 E.58657
G1 X123.532 Y87.489 E.8583
G1 X174.939 Y87.952 E1.85615
G1 X175.203 Y88.085 E.01066
G1 X175.417 Y88.306 E.01112
G1 X175.517 Y88.711 E.01506
G1 X175.43 Y98.295 E.34606
;WIDTH:0.509438
G1 X175.419 Y99.068 E.02848
;WIDTH:0.537375
G1 X175.399 Y99.669 E.0235
;WIDTH:0.544178
G1 X175.389 Y100.433 E.03026
G1 X175.406 Y100.993 E.02217
;WIDTH:0.499999
G1 X175.398 Y101.873 E.03178
;WIPE_START
G1 X175.38 Y103.873 E-.6
;WIPE_END
G1 Z.4 F42000
G1 X143.676 Y95.409 Z.4
G1 Z.2
G1 E.6 F2400
G1 F3600
G1 X143.587 Y95.37 E.00349
G1 X142.938 Y95.26 E.02377
G1 X142.198 Y95.256 E.02673
G1 X141.415 Y95.373 E.02857
G1 X141.143 Y95.535 E.01144
G1 X140.991 Y95.754 E.00965
G1 X140.934 Y96.021 E.00984
G1 X140.795 Y110.918 E.5379
G1 X140.612 Y111.33 E.01625
G1 X140.351 Y111.627 E.0143
G1 X139.996 Y111.807 E.01436
G1 X139.594 Y111.864 E.01468
G1 X122.857 Y111.713 E.6043
G1 X123.079 Y87.028 E.89131
G1 X174.799 Y87.493 E1.86747
M73 P1 R21
G1 X175.2 Y87.567 E.01471
G1 X175.611 Y87.812 E.01726
G1 X175.819 Y88.078 E.01222
G1 X175.88 Y88.236 E.00611
G1 X175.974 Y88.689 E.01671
M73 P1 R20
G1 X175.773 Y111.004 E.80571
G1 X175.699 Y111.404 E.01472
G1 X175.455 Y111.815 E.01726
G1 X175.188 Y112.024 E.01222
G1 X174.861 Y112.149 E.01266
G1 X174.577 Y112.178 E.0103
G1 X145.138 Y111.913 E1.06298
G1 X144.667 Y111.796 E.01751
G1 X144.285 Y111.489 E.0177
G1 X144.1 Y111.185 E.01287
G1 X144.02 Y110.82 E.01348
G1 X144.141 Y95.945 E.5371
G1 X144.054 Y95.698 E.00944
G1 X143.873 Y95.495 E.00983
G1 X143.712 Y95.425 E.00633
G1 X143.504 Y95.82 F42000
;TYPE:Outer wall
G1 F3600
G1 X142.931 Y95.717 E.02102
G1 X142.26 Y95.709 E.02423
G1 X141.588 Y95.801 E.02447
G1 X141.461 Y95.863 E.00513
G1 X141.391 Y96.025 E.00637
G1 X141.252 Y110.905 E.53729
G1 X141.092 Y111.427 E.01971
G1 X140.899 Y111.729 E.01293
G1 X140.545 Y112.047 E.01718
G1 X140.12 Y112.251 E.01704
G1 X139.624 Y112.321 E.01809
G1 X122.396 Y112.166 E.62204
G1 X122.627 Y86.567 E.92431
G1 X174.733 Y87.036 E1.88144
G1 X175.201 Y87.082 E.01698
G1 X175.534 Y87.202 E.01278
G1 X175.928 Y87.476 E.01733
G1 X176.222 Y87.851 E.01719
G1 X176.393 Y88.299 E.01733
G1 X176.431 Y88.668 E.01339
G1 X176.231 Y110.938 E.8041
G1 X176.185 Y111.406 E.01698
G1 X176.065 Y111.738 E.01278
G1 X175.791 Y112.133 E.01733
G1 X175.416 Y112.426 E.01719
G1 X174.968 Y112.598 E.01732
G1 X174.599 Y112.636 E.0134
G1 X145.256 Y112.372 E1.05948
G1 X144.789 Y112.326 E.01696
G1 X144.456 Y112.206 E.01278
G1 X144.058 Y111.929 E.01748
G1 X143.83 Y111.659 E.01277
G1 X143.666 Y111.341 E.01294
G1 X143.563 Y110.867 E.0175
G1 X143.69 Y96.086 E.53371
G1 X143.644 Y95.905 E.00675
G1 X143.538 Y95.84 E.00447
;WIPE_START
G1 X142.931 Y95.717 E-.18585
G1 X142.26 Y95.709 E-.20132
G1 X141.588 Y95.801 E-.20335
G1 X141.56 Y95.815 E-.00948
;WIPE_END
G1 Z.4 F42000
G1 X172.218 Y102.925 Z.4
G1 Z.2
G1 E.6 F2400
;TYPE:Inner wall
G1 F3600
G1 X171.863 Y102.969 E.01291
G1 X171.317 Y102.941 E.01973
G1 X170.846 Y102.842 E.01739
G1 X170.334 Y102.646 E.01976
G1 X169.741 Y102.263 E.02553
G1 X169.217 Y101.722 E.02717
G1 X168.922 Y101.261 E.01976
G1 X168.674 Y100.605 E.02534
G1 X168.579 Y100.062 E.0199
G1 X168.579 Y99.558 E.0182
G1 X168.716 Y98.864 E.02555
G1 X168.922 Y98.356 E.01977
G1 X169.188 Y97.93 E.01814
G1 X169.517 Y97.551 E.01813
G1 X170.076 Y97.118 E.02554
G1 X170.564 Y96.87 E.01976
G1 X171.248 Y96.687 E.02555
G1 X171.793 Y96.648 E.01975
G1 X172.494 Y96.744 E.02554
G1 X173.192 Y97.009 E.02696
G1 X173.659 Y97.303 E.0199
G1 X174.033 Y97.641 E.01821
G1 X174.455 Y98.209 E.02554
G1 X174.756 Y98.898 E.02713
;WIDTH:0.548578
G1 X174.894 Y99.429 E.02192
G1 X174.894 Y100.141 E.02845
;WIDTH:0.544178
G1 X174.865 Y100.371 E.00916
G1 X174.715 Y100.854 E.02002
;WIDTH:0.499999
G1 X174.511 Y101.316 E.01827
G1 X174.21 Y101.767 E.01954
G1 X173.678 Y102.297 E.02715
G1 X173.034 Y102.687 E.02715
G1 X172.362 Y102.908 E.02556
G1 X172.257 Y102.92 E.0038
G1 X172.167 Y102.472 F42000
G1 F3600
G1 X171.867 Y102.511 E.01094
G1 X171.411 Y102.494 E.01647
G1 X170.94 Y102.395 E.01739
G1 X170.396 Y102.161 E.02136
G1 X169.935 Y101.835 E.02039
G1 X169.558 Y101.419 E.02027
G1 X169.293 Y100.986 E.01834
G1 X169.106 Y100.457 E.02024
G1 X169.027 Y99.947 E.01862
G1 X169.053 Y99.436 E.01847
G1 X169.181 Y98.899 E.01994
G1 X169.391 Y98.45 E.01789
G1 X169.636 Y98.097 E.01552
G1 X169.955 Y97.771 E.01647
G1 X170.401 Y97.451 E.01981
G1 X170.883 Y97.242 E.01897
G1 X171.396 Y97.124 E.019
G1 X171.943 Y97.114 E.01977
G1 X172.574 Y97.24 E.02322
G1 X173.131 Y97.494 E.02209
G1 X173.484 Y97.749 E.01574
G1 X173.805 Y98.075 E.0165
G1 X174.156 Y98.614 E.02323
G1 X174.365 Y99.194 E.02227
G1 X174.429 Y99.646 E.01648
G1 X174.404 Y100.232 E.02119
G1 X174.292 Y100.68 E.01668
G1 X174.12 Y101.079 E.01567
G1 X173.874 Y101.457 E.01629
G1 X173.424 Y101.917 E.02324
G1 X172.878 Y102.257 E.02324
G1 X172.293 Y102.456 E.02229
G1 X172.207 Y102.467 E.00314
G1 X172.11 Y102.02 F42000
;TYPE:Outer wall
G1 F3600
G1 X171.871 Y102.054 E.00872
G1 X171.505 Y102.047 E.01321
G1 X171.034 Y101.947 E.01739
G1 X170.656 Y101.785 E.01484
G1 X170.239 Y101.494 E.01838
G1 X169.9 Y101.115 E.01835
G1 X169.675 Y100.709 E.01675
G1 X169.515 Y100.168 E.02035
G1 X169.493 Y99.584 E.02111
G1 X169.607 Y99.07 E.01902
G1 X169.772 Y98.703 E.01454
G1 X169.972 Y98.407 E.01291
G1 X170.223 Y98.141 E.01321
G1 X170.632 Y97.846 E.01819
G1 X170.987 Y97.687 E.01405
G1 X171.492 Y97.572 E.01868
G1 X171.867 Y97.565 E.01355
G1 X172.393 Y97.66 E.01933
G1 X172.871 Y97.87 E.01884
G1 X173.168 Y98.079 E.01309
G1 X173.429 Y98.336 E.01323
G1 X173.729 Y98.779 E.01932
G1 X173.915 Y99.271 E.019
G1 X173.973 Y99.633 E.01322
G1 X173.955 Y100.149 E.01866
G1 X173.869 Y100.507 E.01329
G1 X173.729 Y100.841 E.01307
G1 X173.538 Y101.147 E.01304
G1 X173.171 Y101.536 E.01933
G1 X172.722 Y101.828 E.01933
G1 X172.225 Y102.004 E.01902
G1 X172.15 Y102.015 E.00275
;WIPE_START
G1 X171.871 Y102.054 E-.08445
G1 X171.505 Y102.047 E-.10973
G1 X171.034 Y101.947 E-.14449
G1 X170.656 Y101.785 E-.12333
G1 X170.279 Y101.522 E-.138
;WIPE_END
G1 Z.4 F42000
G1 X152.186 Y98.994 Z.4
G1 Z.2
G1 E.6 F2400
;TYPE:Inner wall
G1 F3600
G1 X152.21 Y98.832 E.00591
G1 X152.386 Y98.285 E.02076
G1 X152.647 Y97.773 E.02074
G1 X153.145 Y97.14 E.02907
G1 X153.621 Y96.725 E.0228
G1 X154.318 Y96.338 E.02876
G1 X154.675 Y96.208 E.01375
G1 X155.247 Y96.078 E.02115
G1 X155.78 Y96.047 E.01929
G1 X156.572 Y96.149 E.02882
G1 X157.178 Y96.349 E.02306
G1 X157.685 Y96.619 E.02074
G1 X158.303 Y97.124 E.02881
G1 X158.712 Y97.613 E.02302
G1 X159.063 Y98.271 E.02693
G1 X159.21 Y98.681 E.01572
G1 X159.335 Y99.305 E.02296
G1 X159.344 Y99.915 E.02205
G1 X159.23 Y100.575 E.02418
G1 X159.015 Y101.185 E.02332
G1 X158.649 Y101.792 E.0256
G1 X158.358 Y102.149 E.01666
G1 X157.885 Y102.577 E.02302
G1 X157.247 Y102.951 E.02669
G1 X156.705 Y103.15 E.02087
G1 X156.084 Y103.263 E.02281
G1 X155.538 Y103.279 E.0197
G1 X154.969 Y103.203 E.02074
G1 X154.207 Y102.943 E.02907
G1 X153.658 Y102.631 E.0228
G1 X153.061 Y102.102 E.02879
G1 X152.854 Y101.86 E.01148
G1 X152.517 Y101.32 E.023
G1 X152.229 Y100.575 E.02883
G1 X152.127 Y99.946 E.02301
G1 X152.122 Y99.433 E.01853
G1 X152.18 Y99.034 E.01456
G1 X152.638 Y99.053 F42000
G1 F3600
G1 X152.659 Y98.917 E.00494
G1 X152.816 Y98.44 E.01814
G1 X153.047 Y97.994 E.01813
G1 X153.493 Y97.437 E.02578
G1 X153.904 Y97.085 E.01954
G1 X154.524 Y96.746 E.0255
G1 X155.249 Y96.543 E.02717
G1 X155.794 Y96.504 E.01975
G1 X156.495 Y96.6 E.02555
G1 X157.014 Y96.775 E.01978
G1 X157.455 Y97.015 E.01812
G1 X158 Y97.467 E.02554
G1 X158.347 Y97.889 E.01975
G1 X158.652 Y98.469 E.02367
G1 X158.763 Y98.776 E.01179
G1 X158.88 Y99.356 E.02134
G1 X158.888 Y99.883 E.01906
G1 X158.781 Y100.49 E.02224
G1 X158.592 Y101.011 E.02002
G1 X158.269 Y101.539 E.02234
G1 X158.047 Y101.814 E.01275
G1 X157.609 Y102.213 E.0214
G1 X157.075 Y102.528 E.02237
G1 X156.601 Y102.705 E.01827
G1 X156.069 Y102.806 E.01955
G1 X155.542 Y102.822 E.01904
G1 X155.045 Y102.752 E.01812
G1 X154.371 Y102.516 E.02578
G1 X153.903 Y102.245 E.01955
G1 X153.377 Y101.772 E.02553
G1 X152.937 Y101.138 E.02787
G1 X152.676 Y100.48 E.02556
G1 X152.584 Y99.941 E.01974
G1 X152.579 Y99.437 E.0182
G1 X152.632 Y99.092 E.01259
G1 X153.096 Y99.09 F42000
G1 F3600
G1 X153.137 Y98.898 E.00711
G1 X153.31 Y98.462 E.01695
G1 X153.525 Y98.103 E.01508
G1 X153.862 Y97.709 E.01874
G1 X154.301 Y97.371 E.01999
G1 X154.805 Y97.122 E.02029
G1 X155.353 Y96.988 E.02037
G1 X155.944 Y96.97 E.02136
G1 X156.55 Y97.087 E.0223
G1 X156.949 Y97.249 E.01553
G1 X157.336 Y97.49 E.01647
G1 X157.747 Y97.858 E.0199
G1 X158.053 Y98.281 E.01887
G1 X158.274 Y98.739 E.01837
G1 X158.415 Y99.34 E.02227
G1 X158.432 Y99.852 E.01849
G1 X158.332 Y100.405 E.0203
G1 X158.146 Y100.889 E.01872
G1 X157.842 Y101.355 E.02008
G1 X157.384 Y101.805 E.02321
G1 X156.902 Y102.104 E.02046
G1 X156.497 Y102.26 E.01567
G1 X156.055 Y102.349 E.01629
G1 X155.546 Y102.365 E.01838
G1 X154.99 Y102.265 E.02042
G1 X154.415 Y102.029 E.02244
G1 X154.041 Y101.776 E.01629
G1 X153.648 Y101.393 E.01981
G1 X153.356 Y100.956 E.01897
G1 X153.123 Y100.385 E.02229
G1 X153.041 Y99.936 E.01648
G1 X153.048 Y99.318 E.02229
G1 X153.088 Y99.13 E.00697
G1 X153.54 Y99.186 F42000
;TYPE:Outer wall
G1 F3600
G1 X153.567 Y99.053 E.00488
G1 X153.71 Y98.683 E.01433
G1 X153.873 Y98.4 E.01179
G1 X154.203 Y98.014 E.01833
G1 X154.507 Y97.779 E.0139
G1 X154.961 Y97.551 E.01835
G1 X155.457 Y97.433 E.01838
G1 X155.868 Y97.421 E.01484
G1 X156.386 Y97.513 E.01903
G1 X156.719 Y97.644 E.01291
G1 X157.033 Y97.832 E.01321
G1 X157.41 Y98.167 E.01823
G1 X157.642 Y98.479 E.01401
G1 X157.862 Y98.941 E.0185
G1 X157.968 Y99.435 E.01823
G1 X157.955 Y99.942 E.0183
G1 X157.849 Y100.413 E.01744
G1 X157.714 Y100.721 E.01215
G1 X157.426 Y101.143 E.01843
G1 X157.056 Y101.484 E.01818
G1 X156.73 Y101.681 E.01375
G1 X156.394 Y101.815 E.01307
G1 X156.041 Y101.893 E.01304
G1 X155.514 Y101.904 E.01903
G1 X155.154 Y101.839 E.01322
G1 X154.66 Y101.643 E.01919
G1 X154.358 Y101.446 E.01304
G1 X153.995 Y101.096 E.0182
G1 X153.775 Y100.775 E.01404
G1 X153.57 Y100.29 E.01902
G1 X153.498 Y99.931 E.01321
G1 X153.497 Y99.404 E.01902
G1 X153.533 Y99.225 E.00658
;WIPE_START
