; HEADER_BLOCK_START
; generated by OrcaSlicer 2.1.0 on 2024-10-15 at 18:57:59
; total layer number: 89
; filament_density: 1.27
; filament_diameter: 1.75
; max_z_height: 23.69
; HEADER_BLOCK_END

; THUMBNAIL_BLOCK_START

;
; THUMBNAIL_BLOCK_END

; THUMBNAIL_BLOCK_START

;
; THUMBNAIL_BLOCK_END

; external perimeters extrusion width = 0.42mm
; perimeters extrusion width = 0.45mm
; infill extrusion width = 0.45mm
; solid infill extrusion width = 0.42mm
; top infill extrusion width = 0.42mm
; first layer extrusion width = 0.50mm

; EXECUTABLE_BLOCK_START
EXCLUDE_OBJECT_DEFINE NAME=другая_СОВЕРШЕННОЕ_ТОНКАЯ.stp_id_0_copy_0 CENTER=110,110 POLYGON=[[0.767411,101.069],[28.6611,64.0806],[152.191,64.0806],[218.068,116.317],[218.209,116.433],[218.342,116.558],[218.468,116.69],[218.585,116.829],[218.694,116.976],[218.794,117.129],[218.884,117.287],[218.965,117.451],[219.035,117.62],[219.095,117.792],[219.144,117.968],[219.183,118.146],[219.21,118.327],[219.227,118.508],[219.233,118.691],[219.233,155.919],[0.767411,155.919],[0.767411,101.069]]
M73 P0 R77
M106 S0
M106 P2 S0
;TYPE:Custom
M140 S0
M104 S0 
START_PRINT EXTRUDER_TEMP=250 BED_TEMP=80
G90
G21
M83 ; use relative distances for extrusion
; filament start gcode
M106 S0
M106 P2 S0
;LAYER_CHANGE
;Z:0.2
;HEIGHT:0.2
;BEFORE_LAYER_CHANGE
;0.2
G92 E0

G1 E-.6 F2400
;_SET_FAN_SPEED_CHANGING_LAYER
SET_VELOCITY_LIMIT ACCEL=500 ACCEL_TO_DECEL=250
SET_VELOCITY_LIMIT SQUARE_CORNER_VELOCITY=9
EXCLUDE_OBJECT_START NAME=другая_СОВЕРШЕННОЕ_ТОНКАЯ.stp_id_0_copy_0
G1 Z.2 F42000
G1 X120.09 Y73.886
G1 Z.2
G1 E.6 F2400
;TYPE:Inner wall
;WIDTH:0.499999
G1 F3600
G1 X120.035 Y74.011 E.00496
G1 X119.724 Y74.498 E.02108
G1 X119.174 Y75.087 E.02942
G1 X118.768 Y75.39 E.01847
G1 X118.304 Y75.67 E.01977
G1 X117.809 Y75.867 E.01945
G1 X117.094 Y76.018 E.02666
G1 X116.306 Y76.046 E.02875
G1 X68.456 Y76.046 E1.74586
G1 X67.883 Y75.977 E.02108
G1 X67.112 Y75.737 E.02943
G1 X66.547 Y75.443 E.02326
G1 X65.918 Y74.939 E.02942
G1 X65.674 Y74.676 E.01307
G1 X65.372 Y74.267 E.01857
G1 X65.07 Y73.704 E.02328
G1 X64.883 Y73.158 E.02108
G1 X64.765 Y72.352 E.02972
G1 X64.785 Y71.722 E.023
G1 X64.966 Y70.937 E.02938
G1 X65.339 Y70.147 E.03189
G1 X65.869 Y69.471 E.03135
G1 X66.54 Y68.926 E.03152
G1 X67.102 Y68.625 E.02327
G1 X67.649 Y68.437 E.02108
G1 X68.511 Y68.309 E.03181
G1 X116.796 Y68.316 E1.76171
G1 X117.593 Y68.438 E.02943
G1 X118.196 Y68.645 E.02325
G1 X118.893 Y69.05 E.02944
G1 X119.38 Y69.463 E.02327
G1 X119.881 Y70.095 E.02945
G1 X120.263 Y70.871 E.03157
G1 X120.369 Y71.214 E.01306
G1 X120.463 Y71.713 E.01856
G1 X120.491 Y72.35 E.02327
G1 X120.423 Y72.925 E.0211
G1 X120.269 Y73.482 E.0211
G1 X120.106 Y73.85 E.01468
G1 X119.671 Y73.707 F42000
G1 F3600
G1 X119.623 Y73.812 E.00422
G1 X119.347 Y74.24 E.01859
G1 X118.851 Y74.764 E.02631
G1 X118.22 Y75.195 E.02787
G1 X117.716 Y75.414 E.02003
G1 X117.009 Y75.569 E.02643
G1 X116.306 Y75.589 E.02564
G1 X68.456 Y75.589 E1.74586
G1 X67.951 Y75.525 E.01859
G1 X67.263 Y75.306 E.02633
G1 X66.776 Y75.047 E.02014
G1 X66.216 Y74.592 E.02631
G1 X65.74 Y73.995 E.02787
G1 X65.482 Y73.506 E.02017
G1 X65.32 Y73.023 E.01859
G1 X65.219 Y72.302 E.02659
G1 X65.24 Y71.756 E.0199
G1 X65.408 Y71.056 E.02629
G1 X65.743 Y70.361 E.02813
G1 X66.216 Y69.769 E.02764
G1 X66.812 Y69.294 E.02782
G1 X67.3 Y69.036 E.02016
G1 X67.783 Y68.874 E.01859
G1 X68.545 Y68.766 E.02808
G1 X116.796 Y68.773 E1.76046
G1 X117.508 Y68.887 E.02632
G1 X118.029 Y69.07 E.02014
G1 X118.65 Y69.437 E.02633
G1 X119.069 Y69.798 E.02016
G1 X119.513 Y70.367 E.02634
G1 X119.844 Y71.054 E.02784
G1 X120.014 Y71.798 E.02785
G1 X120.034 Y72.35 E.02016
G1 X119.971 Y72.856 E.01861
G1 X119.833 Y73.347 E.01861
G1 X119.687 Y73.67 E.01293
G1 X119.242 Y73.54 F42000
G1 F3600
G1 X119.16 Y73.703 E.00664
G1 X118.887 Y74.081 E.01702
G1 X118.528 Y74.441 E.01856
G1 X117.977 Y74.808 E.02415
G1 X117.492 Y75.008 E.01914
G1 X116.924 Y75.12 E.02112
G1 X68.456 Y75.132 E1.76839
G1 X67.957 Y75.061 E.01839
G1 X67.414 Y74.874 E.02095
G1 X66.974 Y74.633 E.01832
G1 X66.514 Y74.246 E.02193
G1 X66.107 Y73.724 E.02415
G1 X65.868 Y73.247 E.01945
G1 X65.73 Y72.762 E.0184
G1 X65.673 Y72.251 E.01877
G1 X65.704 Y71.73 E.01904
G1 X65.849 Y71.174 E.02098
G1 X66.147 Y70.575 E.02438
G1 X66.562 Y70.068 E.02392
G1 X67.083 Y69.662 E.02411
G1 X67.594 Y69.411 E.02077
G1 X68.043 Y69.285 E.01701
G1 X68.584 Y69.224 E.01986
G1 X116.796 Y69.23 E1.75905
G1 X117.423 Y69.336 E.02322
G1 X117.976 Y69.553 E.02167
G1 X118.407 Y69.824 E.01857
G1 X118.843 Y70.228 E.0217
G1 X119.145 Y70.638 E.01857
G1 X119.425 Y71.237 E.02412
G1 X119.565 Y71.883 E.02413
G1 X119.575 Y72.404 E.01899
G1 X119.496 Y72.888 E.01791
G1 X119.358 Y73.308 E.01612
G1 X119.26 Y73.504 E.00802
G1 X118.836 Y73.335 F42000
;TYPE:Outer wall
G1 F3600
G1 X118.782 Y73.445 E.00449
G1 X118.564 Y73.758 E.01392
G1 X118.202 Y74.12 E.01869
G1 X117.733 Y74.421 E.0203
G1 X117.339 Y74.576 E.01547
G1 X116.836 Y74.671 E.01866
G1 X68.456 Y74.674 E1.76519
G1 X68.046 Y74.611 E.01516
G1 X67.565 Y74.443 E.01857
G1 X67.198 Y74.231 E.01547
G1 X66.812 Y73.899 E.01856
G1 X66.475 Y73.452 E.02043
G1 X66.293 Y73.078 E.01519
G1 X66.184 Y72.712 E.01393
G1 X66.128 Y72.2 E.01877
G1 X66.159 Y71.783 E.01526
G1 X66.291 Y71.292 E.01856
G1 X66.551 Y70.79 E.02064
G1 X66.908 Y70.366 E.02021
G1 X67.355 Y70.029 E.02041
G1 X67.729 Y69.848 E.01518
G1 X68.095 Y69.739 E.01392
G1 X68.61 Y69.681 E.01891
G1 X116.796 Y69.687 E1.75811
G1 X117.338 Y69.785 E.02012
G1 X117.733 Y69.94 E.01547
G1 X118.164 Y70.211 E.01857
G1 X118.475 Y70.5 E.01549
G1 X118.778 Y70.909 E.01857
G1 X119.006 Y71.42 E.0204
G1 X119.116 Y71.968 E.02041
G1 X119.117 Y72.384 E.01518
G1 X119.059 Y72.753 E.01363
G1 X118.947 Y73.11 E.01363
G1 X118.854 Y73.299 E.00769
;WIPE_START
G1 X118.782 Y73.445 E-.04889
G1 X118.564 Y73.758 E-.11447
G1 X118.202 Y74.12 E-.15366
G1 X117.733 Y74.421 E-.16695
G1 X117.373 Y74.562 E-.11602
;WIPE_END
G1 Z.4 F42000
G1 X60.803 Y130.735 Z.4
G1 Z.2
G1 E.6 F2400
;TYPE:Inner wall
G1 F3600
G1 X60.711 Y130.554 E.00741
G1 X60.419 Y129.783 E.03009
G1 X60.333 Y129.456 E.01232
G1 X60.24 Y128.844 E.0226
G1 X60.241 Y127.936 E.03311
G1 X60.406 Y127.043 E.03314
G1 X60.729 Y126.194 E.03314
G1 X60.89 Y125.898 E.01232
G1 X61.359 Y125.219 E.0301
G1 X61.615 Y124.93 E.01407
G1 X62.232 Y124.383 E.0301
G1 X62.507 Y124.187 E.01232
G1 X63.047 Y123.883 E.0226
G1 X63.896 Y123.562 E.03312
G1 X64.799 Y123.399 E.03347
G1 X65.458 Y123.404 E.02407
G1 X65.984 Y123.437 E.01922
G1 X66.879 Y123.656 E.03363
G1 X67.707 Y124.03 E.03314
G1 X68.453 Y124.547 E.03311
G1 X69.095 Y125.19 E.03314
G1 X69.299 Y125.459 E.01232
G1 X69.726 Y126.165 E.0301
G1 X69.869 Y126.471 E.01232
G1 X70.071 Y127.056 E.02261
G1 X70.234 Y127.95 E.03314
G1 X70.249 Y128.287 E.01231
G1 X70.199 Y129.11 E.03007
G1 X70.143 Y129.442 E.01231
G1 X69.977 Y130.039 E.02261
G1 X69.603 Y130.867 E.03315
G1 X69.086 Y131.614 E.03313
G1 X68.443 Y132.255 E.03313
G1 X67.687 Y132.774 E.03345
G1 X67.386 Y132.926 E.01228
G1 X66.622 Y133.215 E.02984
G1 X66.296 Y133.3 E.01228
G1 X65.683 Y133.393 E.02261
G1 X64.775 Y133.392 E.03313
G1 X63.883 Y133.227 E.03312
G1 X63.034 Y132.904 E.03312
G1 X62.738 Y132.743 E.01232
G1 X62.059 Y132.274 E.03008
G1 X61.803 Y132.055 E.01231
G1 X61.379 Y131.604 E.02259
G1 X60.864 Y130.855 E.03315
G1 X60.821 Y130.771 E.00346
G1 X61.183 Y130.448 F42000
G1 F3600
G1 X60.846 Y129.621 E.0326
G1 X60.692 Y128.775 E.03136
G1 X60.698 Y127.95 E.0301
G1 X60.853 Y127.139 E.03012
G1 X61.151 Y126.369 E.03013
G1 X61.735 Y125.479 E.03886
G1 X61.918 Y125.272 E.01005
G1 X62.535 Y124.725 E.0301
G1 X63.271 Y124.281 E.03136
G1 X64.045 Y123.994 E.03011
G1 X64.867 Y123.851 E.03043
G1 X65.43 Y123.86 E.02057
G1 X65.947 Y123.892 E.01887
G1 X66.757 Y124.097 E.03048
G1 X67.507 Y124.441 E.03012
G1 X68.182 Y124.915 E.0301
G1 X68.762 Y125.503 E.03012
G1 X69.335 Y126.401 E.03887
G1 X69.639 Y127.205 E.03138
G1 X69.782 Y128.019 E.03012
G1 X69.743 Y129.082 E.03883
G1 X69.537 Y129.917 E.03137
G1 X69.192 Y130.667 E.03014
G1 X68.718 Y131.343 E.03012
G1 X68.13 Y131.922 E.03012
G1 X67.439 Y132.39 E.03041
G1 X66.46 Y132.787 E.03858
G1 X65.615 Y132.942 E.03134
G1 X64.789 Y132.935 E.03012
G1 X63.979 Y132.78 E.03011
G1 X63.209 Y132.482 E.03011
G1 X62.319 Y131.898 E.03885
G1 X61.712 Y131.29 E.03135
G1 X61.247 Y130.607 E.03014
G1 X61.198 Y130.485 E.0048
G1 X61.598 Y130.274 F42000
G1 F3600
G1 X61.273 Y129.459 E.03203
G1 X61.143 Y128.706 E.02785
G1 X61.155 Y127.964 E.02709
G1 X61.3 Y127.235 E.02711
G1 X61.574 Y126.544 E.02712
G1 X62.111 Y125.738 E.03535
G1 X62.6 Y125.278 E.0245
G1 X62.956 Y124.983 E.01686
G1 X63.496 Y124.679 E.0226
G1 X64.194 Y124.426 E.0271
G1 X64.935 Y124.303 E.0274
G1 X65.895 Y124.347 E.03507
G1 X66.634 Y124.537 E.02784
G1 X67.307 Y124.852 E.02711
G1 X67.912 Y125.283 E.02709
G1 X68.429 Y125.816 E.02711
G1 X68.943 Y126.638 E.03536
G1 X69.207 Y127.354 E.02787
G1 X69.33 Y128.087 E.02711
G1 X69.287 Y129.054 E.03532
G1 X69.096 Y129.794 E.02786
G1 X68.781 Y130.467 E.02712
G1 X68.35 Y131.072 E.02711
G1 X67.816 Y131.589 E.02711
G1 X67.192 Y132.006 E.02738
G1 X66.298 Y132.36 E.03508
G1 X65.546 Y132.49 E.02785
G1 X64.803 Y132.478 E.02711
G1 X64.075 Y132.334 E.0271
G1 X63.384 Y132.06 E.02711
G1 X62.578 Y131.522 E.03534
G1 X62.044 Y130.977 E.02784
G1 X61.631 Y130.359 E.02713
G1 X61.612 Y130.312 E.00186
G1 X62.029 Y130.132 F42000
;TYPE:Outer wall
G1 F3600
G1 X62.015 Y130.111 E.00091
G1 X61.701 Y129.296 E.03185
G1 X61.595 Y128.638 E.02435
G1 X61.612 Y127.978 E.02408
G1 X61.746 Y127.331 E.0241
G1 X61.996 Y126.719 E.02411
G1 X62.487 Y125.998 E.03185
G1 X63.181 Y125.382 E.03384
G1 X63.72 Y125.077 E.0226
G1 X64.343 Y124.858 E.0241
G1 X65.003 Y124.755 E.02437
G1 X65.867 Y124.803 E.03157
G1 X66.511 Y124.977 E.02435
G1 X67.107 Y125.263 E.0241
G1 X67.641 Y125.651 E.02409
G1 X68.096 Y126.13 E.02411
G1 X68.552 Y126.874 E.03185
G1 X68.775 Y127.504 E.02436
G1 X68.878 Y128.156 E.0241
G1 X68.83 Y129.027 E.03182
G1 X68.656 Y129.671 E.02436
G1 X68.37 Y130.267 E.02411
G1 X67.982 Y130.801 E.0241
G1 X67.503 Y131.257 E.0241
G1 X66.944 Y131.621 E.02435
G1 X66.136 Y131.932 E.03159
G1 X65.477 Y132.038 E.02435
G1 X64.817 Y132.022 E.0241
G1 X64.171 Y131.887 E.02409
G1 X63.559 Y131.637 E.0241
G1 X62.838 Y131.146 E.03183
G1 X62.377 Y130.664 E.02434
G1 X62.051 Y130.165 E.02175
;WIPE_START
G1 X62.015 Y130.111 E-.01948
G1 X61.701 Y129.296 E-.26185
G1 X61.595 Y128.638 E-.20019
G1 X61.605 Y128.243 E-.11849
;WIPE_END
G1 Z.4 F42000
G1 X26.408 Y143.761 Z.4
G1 Z.2
G1 E.6 F2400
;TYPE:Inner wall
G1 F3600
G1 X26.513 Y144.164 E.01522
G1 X26.571 Y144.969 E.02942
G1 X26.545 Y145.326 E.01307
G1 X26.45 Y145.826 E.01857
G1 X26.344 Y146.169 E.01309
G1 X26.141 Y146.635 E.01856
G1 X25.962 Y146.945 E.01306
G1 X25.66 Y147.354 E.01855
G1 X25.417 Y147.617 E.01307
G1 X25.031 Y147.949 E.01857
G1 X24.493 Y148.291 E.02326
G1 X23.742 Y148.584 E.02943
G1 X23.115 Y148.707 E.02328
G1 X22.538 Y148.724 E.02108
G1 X21.74 Y148.602 E.02944
G1 X20.932 Y148.293 E.03159
G1 X20.212 Y147.812 E.03157
G1 X19.759 Y147.364 E.02325
G1 X19.307 Y146.697 E.02942
G1 X19.151 Y146.374 E.01307
G1 X18.983 Y145.893 E.01857
G1 X18.86 Y145.267 E.02328
G1 X18.863 Y144.461 E.02943
G1 X19.048 Y143.616 E.03157
G1 X19.299 Y143.029 E.02327
G1 X19.609 Y142.542 E.02108
G1 X20.166 Y141.947 E.02972
G1 X20.671 Y141.57 E.023
G1 X21.397 Y141.223 E.02938
G1 X21.742 Y141.116 E.01316
G1 X22.248 Y141.022 E.01877
G1 X22.604 Y140.995 E.01304
G1 X23.107 Y141.015 E.01836
G1 X23.46 Y141.068 E.01301
G1 X23.951 Y141.199 E.01854
G1 X24.284 Y141.33 E.01307
G1 X24.734 Y141.568 E.01858
G1 X25.25 Y141.943 E.02326
G1 X25.797 Y142.536 E.02943
G1 X26.14 Y143.074 E.02327
G1 X26.367 Y143.605 E.0211
G1 X26.398 Y143.722 E.00441
G1 X25.97 Y143.882 F42000
G1 F3600
G1 X26.068 Y144.266 E.01448
G1 X26.115 Y144.986 E.02631
G1 X26.001 Y145.741 E.02787
G1 X25.722 Y146.452 E.02787
G1 X25.292 Y147.083 E.02784
G1 X24.733 Y147.602 E.02787
G1 X24.265 Y147.895 E.02015
G1 X23.59 Y148.153 E.02633
G1 X23.047 Y148.255 E.02017
G1 X22.538 Y148.267 E.01859
G1 X21.825 Y148.153 E.02633
G1 X21.115 Y147.874 E.02786
G1 X20.484 Y147.444 E.02785
G1 X20.094 Y147.053 E.02014
G1 X19.694 Y146.453 E.02631
G1 X19.414 Y145.742 E.02787
G1 X19.312 Y145.199 E.02017
G1 X19.319 Y144.478 E.02632
G1 X19.489 Y143.734 E.02785
G1 X19.711 Y143.228 E.02016
G1 X19.987 Y142.8 E.01859
G1 X20.489 Y142.271 E.02659
G1 X20.928 Y141.948 E.0199
G1 X21.58 Y141.642 E.02629
G1 X22.332 Y141.471 E.02813
G1 X23.09 Y141.471 E.02764
G1 X23.833 Y141.641 E.0278
G1 X24.521 Y141.972 E.02787
G1 X24.965 Y142.301 E.02015
G1 X25.45 Y142.834 E.02633
G1 X25.744 Y143.302 E.02016
G1 X25.942 Y143.772 E.01861
G1 X25.96 Y143.843 E.00265
G1 X25.506 Y143.931 F42000
G1 F3600
G1 X25.547 Y144.037 E.00415
G1 X25.639 Y144.495 E.01702
G1 X25.658 Y145.003 E.01856
G1 X25.552 Y145.656 E.02415
G1 X25.303 Y146.269 E.02414
G1 X24.925 Y146.811 E.02412
G1 X24.434 Y147.256 E.02415
G1 X23.92 Y147.553 E.02167
G1 X23.439 Y147.721 E.01857
G1 X22.877 Y147.81 E.02078
G1 X22.411 Y147.798 E.01702
G1 X21.91 Y147.704 E.01858
G1 X21.297 Y147.455 E.02413
G1 X20.755 Y147.076 E.02413
G1 X20.351 Y146.641 E.02167
G1 X20.08 Y146.21 E.01856
G1 X19.846 Y145.591 E.02415
G1 X19.76 Y145.096 E.01834
G1 X19.776 Y144.495 E.02194
G1 X19.931 Y143.852 E.02413
G1 X20.147 Y143.38 E.01893
G1 X20.447 Y142.958 E.01891
G1 X20.811 Y142.595 E.01877
G1 X21.223 Y142.302 E.01842
G1 X21.763 Y142.06 E.0216
G1 X22.417 Y141.92 E.02438
G1 X23.072 Y141.928 E.02392
G1 X23.714 Y142.082 E.02409
G1 X24.307 Y142.376 E.02415
G1 X24.718 Y142.69 E.01885
G1 X25.104 Y143.132 E.02142
G1 X25.365 Y143.563 E.01836
G1 X25.492 Y143.894 E.01293
G1 X25.083 Y144.092 F42000
;TYPE:Outer wall
G1 F3600
G1 X25.101 Y144.139 E.00182
G1 X25.182 Y144.512 E.01392
G1 X25.201 Y145.02 E.01856
G1 X25.103 Y145.571 E.02043
G1 X24.884 Y146.087 E.02042
G1 X24.557 Y146.54 E.0204
G1 X24.136 Y146.909 E.02043
G1 X23.769 Y147.122 E.01547
G1 X23.288 Y147.29 E.01857
G1 X22.877 Y147.353 E.01519
G1 X22.496 Y147.349 E.01392
G1 X21.995 Y147.255 E.01858
G1 X21.48 Y147.036 E.02041
G1 X21.027 Y146.708 E.02041
G1 X20.738 Y146.398 E.01547
M73 P0 R76
G1 X20.467 Y145.967 E.01856
G1 X20.277 Y145.44 E.02043
G1 X20.214 Y145.02 E.0155
G1 X20.233 Y144.512 E.01855
G1 X20.372 Y143.97 E.02041
G1 X20.551 Y143.595 E.01518
G1 X20.77 Y143.282 E.01394
G1 X21.134 Y142.918 E.01877
G1 X21.48 Y142.683 E.01526
G1 X21.946 Y142.479 E.01856
G1 X22.501 Y142.369 E.02064
G1 X23.055 Y142.385 E.02021
G1 X23.596 Y142.524 E.02039
G1 X24.094 Y142.78 E.02043
G1 X24.425 Y143.045 E.01547
G1 X24.758 Y143.431 E.01857
G1 X24.967 Y143.79 E.01518
G1 X25.069 Y144.055 E.01035
;WIPE_START
G1 X25.101 Y144.139 E-.02697
G1 X25.182 Y144.512 E-.11447
G1 X25.201 Y145.02 E-.1526
G1 X25.103 Y145.571 E-.16799
G1 X24.923 Y145.995 E-.13797
;WIPE_END
G1 Z.4 F42000
G1 X192.506 Y107.145 Z.4
G1 Z.2
G1 E.6 F2400
;TYPE:Inner wall
G1 F3600
G1 X192.931 Y106.62 E.02466
G1 X193.364 Y106.237 E.0211
G1 X193.82 Y105.94 E.01986
G1 X194.376 Y105.684 E.02233
G1 X194.932 Y105.527 E.02109
G1 X195.736 Y105.453 E.02943
G1 X196.371 Y105.508 E.02327
G1 X196.931 Y105.65 E.0211
G1 X197.556 Y105.912 E.0247
G1 X203.832 Y110.004 E.27338
G1 X204.417 Y110.48 E.0275
G1 X204.756 Y110.86 E.01857
G1 X205.109 Y111.39 E.02326
G1 X205.419 Y112.144 E.02972
G1 X205.571 Y112.989 E.03136
G1 X205.531 Y113.852 E.03151
G1 X205.3 Y114.687 E.03159
G1 X205.017 Y115.258 E.02327
G1 X204.68 Y115.728 E.02108
G1 X204.321 Y116.086 E.01851
G1 X203.858 Y116.464 E.02182
G1 X203.354 Y116.748 E.0211
G1 X202.813 Y116.953 E.0211
G1 X202.248 Y117.076 E.0211
G1 X201.671 Y117.112 E.0211
G1 X201.095 Y117.063 E.0211
G1 X200.533 Y116.928 E.0211
G1 X199.997 Y116.711 E.02108
G1 X199.037 Y116.119 E.04115
G1 X193.862 Y112.74 E.22552
G1 X193.959 Y114.086 E.04925
G1 X193.985 Y115.166 E.03941
G1 X193.959 Y116.246 E.03941
G1 X193.881 Y117.323 E.03941
G1 X193.757 Y118.357 E.03801
G1 X193.633 Y119.096 E.02734
G1 X193.348 Y120.478 E.05147
G1 X193.068 Y121.521 E.03941
G1 X192.725 Y122.594 E.0411
G1 X192.167 Y124.026 E.05608
G1 X191.703 Y125.041 E.0407
G1 X191.19 Y126.033 E.04076
G1 X190.664 Y126.935 E.0381
G1 X190.097 Y127.812 E.0381
G1 X189.445 Y128.727 E.041
G1 X188.778 Y129.566 E.03913
