; HEADER_BLOCK_START
; generated by OrcaSlicer 2.1.0 on 2025-03-13 at 19:23:21
; total layer number: 104
; filament_density: 1.27
; filament_diameter: 1.75
; max_z_height: 15.00
; HEADER_BLOCK_END

; THUMBNAIL_BLOCK_START

;
; THUMBNAIL_BLOCK_END

; THUMBNAIL_BLOCK_START

;
; THUMBNAIL_BLOCK_END

; external perimeters extrusion width = 0.42mm
; perimeters extrusion width = 0.45mm
; infill extrusion width = 0.45mm
; solid infill extrusion width = 0.42mm
; top infill extrusion width = 0.42mm
; support material extrusion width = 0.42mm
; first layer extrusion width = 0.50mm

; EXECUTABLE_BLOCK_START
EXCLUDE_OBJECT_DEFINE NAME=драйвер.stp_id_0_copy_0 CENTER=114.353,115.832 POLYGON=[[72.7261,67.3316],[155.979,67.3316],[155.979,105.332],[144.479,164.332],[72.7261,164.332],[72.7261,67.3316]]
M73 P0 R44
M106 S0
M106 P2 S0
;TYPE:Custom
M140 S0
M104 S0 
START_PRINT EXTRUDER_TEMP=250 BED_TEMP=90
M106 P3 S153
G90
G21
M83 ; use relative distances for extrusion
; filament start gcode
M106 S0
M106 P2 S0
;LAYER_CHANGE
;Z:0.2
;HEIGHT:0.2
;BEFORE_LAYER_CHANGE
;0.2
G92 E0

G1 E-.6 F2400
;_SET_FAN_SPEED_CHANGING_LAYER
SET_VELOCITY_LIMIT ACCEL=500 ACCEL_TO_DECEL=250
SET_VELOCITY_LIMIT SQUARE_CORNER_VELOCITY=9
EXCLUDE_OBJECT_START NAME=драйвер.stp_id_0_copy_0
G1 Z.2 F42000
G1 X85.389 Y66.982
G1 Z.2
G1 E.6 F2400
;TYPE:Support
;WIDTH:0.5
G1 F3600
G1 X72.581 Y66.982 E.46244
G1 X72.376 Y67.187 E.01047
G1 X72.376 Y108.262 E1.48306
G1 X69.627 Y108.262 E.09927
G1 X69.627 Y63.974 E1.59904
G1 X85.389 Y63.974 E.56911
G1 X85.389 Y66.913 E.1061
;WIPE_START
G1 X85.389 Y64.913 E-.6
;WIPE_END
G1 Z.4 F42000
G1 X71.965 Y107.85 Z.4
G1 Z.2
G1 E.6 F2400
G1 F3600
G1 X70.038 Y107.85 E.06957
G1 X70.038 Y64.386 E1.56933
G1 X84.978 Y64.386 E.53941
G1 X84.978 Y66.57 E.07887
G1 X72.411 Y66.57 E.45374
G1 X71.965 Y67.016 E.02277
G1 X71.965 Y107.85 E1.47436
G1 X71.457 Y107.342 F42000
G1 F3600
G1 X70.546 Y107.342 E.03289
G1 X70.546 Y64.894 E1.53266
G1 X84.47 Y64.894 E.50273
G1 X84.47 Y66.062 E.04219
G1 X72.2 Y66.062 E.443
G1 X71.457 Y66.806 E.03796
G1 X71.457 Y107.342 E1.46362
G1 X71.054 Y66.491 F42000
G1 F3600
G1 X71.054 Y65.402 E.03932
G1 X72.143 Y65.402 E.03932
G1 X71.054 Y66.491 E.05561
;WIPE_START
G1 X72.143 Y65.402 E-.46208
G1 X71.683 Y65.402 E-.13792
;WIPE_END
G1 Z.4 F42000
G1 X159.078 Y108.262 Z.4
G1 Z.2
G1 E.6 F2400
G1 F3600
G1 X144.829 Y108.262 E.51449
G1 X144.829 Y105.682 E.09316
G1 X156.124 Y105.682 E.40782
G1 X156.329 Y105.477 E.01047
G1 X156.329 Y67.187 E1.3825
G1 X156.124 Y66.982 E.01047
G1 X140.939 Y66.982 E.54827
G1 X140.939 Y63.974 E.10857
G1 X159.078 Y63.974 E.65494
G1 X159.078 Y108.193 E1.59656
G1 X145.24 Y107.85 F42000
G1 F3600
G1 X145.24 Y106.093 E.06345
G1 X156.294 Y106.093 E.39912
G1 X156.74 Y105.647 E.02277
G1 X156.74 Y67.016 E1.3948
G1 X156.294 Y66.57 E.02277
G1 X141.35 Y66.57 E.53956
G1 X141.35 Y64.386 E.07887
G1 X158.667 Y64.386 E.62523
G1 X158.667 Y107.85 E1.56933
G1 X145.24 Y107.85 E.48479
G1 X145.748 Y107.342 F42000
G1 F3600
G1 X145.748 Y106.601 E.02678
G1 X156.505 Y106.601 E.38837
G1 X157.248 Y105.857 E.03796
G1 X157.248 Y66.806 E1.40999
G1 X156.505 Y66.062 E.03796
G1 X141.858 Y66.062 E.52882
G1 X141.858 Y64.894 E.04219
G1 X158.159 Y64.894 E.58856
G1 X158.159 Y107.342 E1.53266
G1 X145.748 Y107.342 E.44811
;WIPE_START
G1 X147.748 Y107.342 E-.6
;WIPE_END
G1 Z.4 F42000
G1 X157.651 Y66.491 Z.4
G1 Z.2
G1 E.6 F2400
G1 F3600
G1 X156.562 Y65.402 E.05561
G1 X157.651 Y65.402 E.03932
G1 X157.651 Y66.491 E.03932
;WIPE_START
G1 X157.651 Y65.402 E-.32675
G1 X156.74 Y65.402 E-.27325
;WIPE_END
G1 Z.4 F42000
G1 X157.702 Y105.919 Z.4
G1 Z.2
G1 E.6 F2400
;TYPE:Brim
G1 F3600
G1 X157.702 Y106.885 E.0349
G1 X156.867 Y106.885 E.03017
G1 X157.604 Y106.148 E.03763
G1 X157.653 Y106.074 E.00322
G1 X157.69 Y105.957 E.00444
;WIPE_START
G1 X157.702 Y106.885 E-.27858
G1 X156.867 Y106.885 E-.25068
G1 X157.033 Y106.719 E-.07075
;WIPE_END
G1 Z.4 F42000
G1 X156.125 Y65.605 Z.4
G1 Z.2
G1 E.6 F2400
G1 F3600
G1 X142.315 Y65.605 E.49862
G1 X142.315 Y65.351 E.00919
G1 X156.088 Y65.351 E.49729
G1 X156.081 Y65.368 E.00066
G1 X156.066 Y65.483 E.00419
G1 X156.108 Y65.569 E.00348
;WIPE_START
G1 X154.108 Y65.575 E-.6
;WIPE_END
G1 Z.4 F42000
G1 X156.108 Y63.517 Z.4
G1 Z.2
G1 E.6 F2400
G1 F3600
G1 X140.844 Y63.517 E.5511
G1 X140.683 Y63.584 E.00632
G1 X140.549 Y63.718 E.00684
G1 X140.482 Y63.88 E.00632
G1 X140.482 Y67.003 E.11277
G1 X85.802 Y67.003 E1.97427
G1 X85.846 Y66.913 E.00362
G1 X85.846 Y63.88 E.10952
G1 X85.779 Y63.718 E.00632
G1 X85.645 Y63.584 E.00684
G1 X85.484 Y63.517 E.00632
G1 X70.473 Y63.517 E.54199
G1 X70.69 Y63.385 E.00919
G1 X71.528 Y63.059 E.03248
G1 X72.155 Y62.928 E.02313
G1 X72.734 Y62.889 E.02093
G1 X155.971 Y62.889 E3.00535
M73 P1 R44
G1 X156.619 Y62.937 E.02348
G1 X157.242 Y63.078 E.02304
G1 X158.085 Y63.435 E.03307
G1 X158.213 Y63.517 E.00551
G1 X156.148 Y63.517 E.07458
;WIPE_START
M73 P1 R43
G1 X154.148 Y63.517 E-.6
;WIPE_END
G1 Z.4 F42000
G1 X140.127 Y63.543 Z.4
G1 Z.2
G1 E.6 F2400
G1 F3600
G1 X140.065 Y63.692 E.00583
G1 X140.025 Y63.893 E.0074
G1 X140.025 Y66.409 E.09083
G1 X139.977 Y66.513 E.00413
G1 X139.888 Y66.546 E.00344
G1 X86.44 Y66.546 E1.92978
G1 X86.336 Y66.498 E.00413
G1 X86.303 Y66.409 E.00344
G1 X86.303 Y63.893 E.09083
G1 X86.263 Y63.693 E.00737
G1 X86.197 Y63.537 E.00612
G1 X86.2 Y63.423 E.00413
G1 X86.323 Y63.346 E.00523
G1 X140 Y63.354 E1.93805
G1 X140.104 Y63.401 E.00413
G1 X140.12 Y63.504 E.00374
G1 X139.535 Y63.858 F42000
G1 F3600
G1 X139.568 Y63.948 E.00344
G1 X139.568 Y65.952 E.07235
G1 X139.52 Y66.056 E.00413
G1 X139.431 Y66.089 E.00344
G1 X86.897 Y66.089 E1.89677
G1 X86.793 Y66.041 E.00413
G1 X86.76 Y65.952 E.00344
G1 X86.76 Y63.941 E.07261
G1 X86.808 Y63.837 E.00413
G1 X86.897 Y63.804 E.00344
G1 X139.431 Y63.811 E1.89677
G1 X139.498 Y63.842 E.00269
G1 X139.078 Y64.315 F42000
G1 F3600
G1 X139.111 Y64.405 E.00344
G1 X139.111 Y65.495 E.03935
G1 X139.063 Y65.599 E.00413
G1 X138.974 Y65.632 E.00344
G1 X87.354 Y65.632 E1.86376
G1 X87.25 Y65.584 E.00413
G1 X87.217 Y65.495 E.00344
G1 X87.217 Y64.398 E.0396
G1 X87.265 Y64.294 E.00413
G1 X87.354 Y64.261 E.00344
G1 X138.974 Y64.268 E1.86376
G1 X139.041 Y64.299 E.00269
G1 X138.621 Y64.772 F42000
G1 F3600
G1 X138.654 Y64.862 E.00344
G1 X138.654 Y65.038 E.00635
G1 X138.606 Y65.142 E.00413
G1 X138.517 Y65.175 E.00344
G1 X87.811 Y65.175 E1.83076
G1 X87.708 Y65.127 E.00413
G1 X87.674 Y65.038 E.00344
G1 X87.674 Y64.855 E.00659
G1 X87.722 Y64.751 E.00413
G1 X87.812 Y64.718 E.00344
G1 X138.517 Y64.725 E1.83076
G1 X138.584 Y64.756 E.00269
;WIPE_START
G1 X138.654 Y64.862 E-.03804
G1 X138.654 Y65.038 E-.05272
G1 X138.606 Y65.142 E-.03432
G1 X138.517 Y65.175 E-.02861
G1 X137.029 Y65.175 E-.44631
;WIPE_END
G1 Z.4 F42000
G1 X159.536 Y64.756 Z.4
G1 Z.2
G1 E.6 F2400
G1 F3600
G1 X159.536 Y64.683 E.00263
G1 X159.594 Y64.751 E.00325
G1 X159.926 Y65.296 E.02303
G1 X160.237 Y66.082 E.03052
G1 X160.383 Y66.761 E.0251
G1 X160.421 Y67.339 E.02091
G1 X160.421 Y105.323 E1.37145
G1 X160.373 Y105.972 E.02348
G1 X160.233 Y106.593 E.023
G1 X159.83 Y107.52 E.03651
G1 X159.536 Y107.97 E.0194
G1 X159.536 Y64.796 E1.55884
;WIPE_START
G1 X159.536 Y64.683 E-.03388
G1 X159.594 Y64.751 E-.02697
G1 X159.926 Y65.296 E-.19136
G1 X160.237 Y66.082 E-.25355
G1 X160.303 Y66.389 E-.09424
;WIPE_END
G1 Z.4 F42000
G1 X84.013 Y65.351 Z.4
G1 Z.2
G1 E.6 F2400
G1 F3600
G1 X84.013 Y65.605 E.00919
G1 X72.581 Y65.605 E.41276
G1 X72.633 Y65.517 E.00371
G1 X72.617 Y65.351 E.00601
G1 X83.973 Y65.351 E.41002
;WIPE_START
G1 X84.013 Y65.605 E-.07728
G1 X82.27 Y65.605 E-.52272
;WIPE_END
G1 Z.4 F42000
G1 X69.17 Y65.351 Z.4
G1 Z.2
G1 E.6 F2400
G1 F3600
G1 X69.17 Y108.356 E1.55276
G1 X69.237 Y108.518 E.00632
G1 X69.37 Y108.652 E.00684
G1 X69.532 Y108.719 E.00632
G1 X72.398 Y108.719 E.10346
G1 X72.398 Y164.332 E2.00796
G1 X72.422 Y164.448 E.00429
G1 X72.531 Y164.585 E.00632
G1 X72.615 Y164.632 E.0035
G1 X72.726 Y164.66 E.00413
G1 X144.479 Y164.66 E2.59071
G1 X144.595 Y164.636 E.00429
G1 X144.732 Y164.527 E.00632
G1 X144.779 Y164.442 E.0035
G1 X144.808 Y164.332 E.00413
G1 X144.808 Y108.719 E2.00796
G1 X158.832 Y108.719 E.50638
G1 X158.56 Y108.946 E.01279
G1 X158.015 Y109.279 E.02308
G1 X157.229 Y109.59 E.03052
G1 X156.549 Y109.736 E.0251
G1 X155.971 Y109.774 E.02091
G1 X149.15 Y109.774 E.2463
G1 X149.009 Y109.822 E.00538
G1 X148.921 Y110.002 E.00722
G1 X148.921 Y164.323 E1.96131
G1 X148.873 Y164.972 E.02348
G1 X148.733 Y165.594 E.02304
G1 X148.376 Y166.437 E.03307
G1 X147.979 Y167.056 E.02653
G1 X147.553 Y167.535 E.02313
G1 X147.06 Y167.946 E.02317
G1 X146.515 Y168.278 E.02305
G1 X145.677 Y168.604 E.03248
G1 X145.05 Y168.736 E.02313
G1 X144.471 Y168.774 E.02093
G1 X72.735 Y168.774 E2.59013
G1 X72.086 Y168.726 E.02348
G1 X71.464 Y168.585 E.02304
G1 X70.62 Y168.228 E.03307
G1 X70.002 Y167.832 E.02653
G1 X69.523 Y167.406 E.02313
G1 X69.112 Y166.913 E.02317
G1 X68.779 Y166.368 E.02305
G1 X68.453 Y165.53 E.03248
G1 X68.322 Y164.902 E.02313
G1 X68.284 Y164.324 E.02093
G1 X68.284 Y67.34 E3.50171
G1 X68.332 Y66.692 E.02348
G1 X68.472 Y66.069 E.02304
G1 X68.83 Y65.226 E.03307
G1 X69.17 Y64.695 E.02275
G1 X69.17 Y65.311 E.02222
;WIPE_START
G1 X69.17 Y67.311 E-.6
;WIPE_END
G1 Z.4 F42000
G1 X68.899 Y108.864 Z.4
G1 Z.2
G1 E.6 F2400
G1 F3600
G1 X68.975 Y108.903 E.00309
G1 X69.208 Y109.079 E.01055
G1 X69.345 Y109.136 E.00534
G1 X69.546 Y109.176 E.0074
G1 X71.803 Y109.176 E.08152
G1 X71.907 Y109.224 E.00413
G1 X71.941 Y109.313 E.00344
G1 X71.941 Y164.321 E1.98612
G1 X71.973 Y164.528 E.00758
G1 X72.074 Y164.745 E.00865
G1 X72.165 Y164.859 E.00525
G1 X72.383 Y165.025 E.00992
G1 X72.608 Y165.101 E.00857
G1 X72.735 Y165.117 E.0046
G1 X144.468 Y165.117 E2.59002
G1 X144.676 Y165.085 E.00758
M73 P2 R43
G1 X144.893 Y164.983 E.00865
G1 X145.006 Y164.893 E.00525
G1 X145.135 Y164.74 E.0072
G1 X145.222 Y164.549 E.00759
G1 X145.265 Y164.319 E.00845
G1 X145.265 Y109.313 E1.98605
G1 X145.312 Y109.209 E.00413
G1 X145.402 Y109.176 E.00344
G1 X148.727 Y109.176 E.12008
G1 X148.831 Y109.224 E.00413
G1 X148.863 Y109.334 E.00413
G1 X148.798 Y109.431 E.00423
G1 X148.7 Y109.489 E.00409
G1 X148.592 Y109.634 E.00654
G1 X148.517 Y109.788 E.0062
G1 X148.464 Y110.018 E.00851
G1 X148.464 Y164.301 E1.95995
G1 X148.421 Y164.894 E.02146
G1 X148.291 Y165.465 E.02114
G1 X147.974 Y166.213 E.02932
G1 X147.619 Y166.77 E.02385
G1 X147.226 Y167.212 E.02136
G1 X146.785 Y167.578 E.02072
G1 X146.301 Y167.871 E.02043
G1 X145.535 Y168.167 E.02962
G1 X144.997 Y168.28 E.01985
G1 X144.452 Y168.317 E.01974
G1 X72.757 Y168.317 E2.58863
G1 X72.164 Y168.273 E.02146
G1 X71.593 Y168.144 E.02114
G1 X70.845 Y167.827 E.02932
G1 X70.288 Y167.472 E.02385
G1 X69.846 Y167.079 E.02136
G1 X69.479 Y166.637 E.02072
G1 X69.186 Y166.153 E.02043
G1 X68.891 Y165.388 E.02962
G1 X68.778 Y164.85 E.01985
G1 X68.741 Y164.304 E.01973
G1 X68.741 Y109 E1.99683
G1 X68.789 Y108.896 E.00413
G1 X68.86 Y108.875 E.00269
G1 X69.246 Y109.636 F42000
G1 F3600
G1 X69.362 Y109.605 E.00434
G1 X69.444 Y109.622 E.003
G1 X71.347 Y109.633 E.06873
G1 X71.451 Y109.681 E.00413
G1 X71.483 Y109.77 E.00342
G1 X71.483 Y164.312 E1.9693
G1 X71.52 Y164.59 E.01012
G1 X71.563 Y164.732 E.00534
G1 X71.655 Y164.929 E.00786
G1 X71.802 Y165.135 E.00915
G1 X72.1 Y165.384 E.01401
G1 X72.246 Y165.461 E.00598
G1 X72.56 Y165.556 E.01184
G1 X72.742 Y165.574 E.00658
G1 X144.46 Y165.574 E2.58944
G1 X144.737 Y165.538 E.01012
G1 X144.876 Y165.496 E.00524
G1 X145.185 Y165.334 E.01259
G1 X145.359 Y165.183 E.00833
G1 X145.555 Y164.92 E.01183
G1 X145.674 Y164.62 E.01165
G1 X145.722 Y164.309 E.01138
G1 X145.722 Y109.77 E1.96917
G1 X145.769 Y109.666 E.00413
G1 X145.859 Y109.633 E.00344
G1 X147.912 Y109.633 E.07412
G1 X148.015 Y109.681 E.00413
G1 X148.047 Y109.793 E.0042
G1 X148.007 Y110.029 E.00866
G1 X148.007 Y164.279 E1.95875
G1 X147.968 Y164.816 E.01942
G1 X147.85 Y165.335 E.01924
G1 X147.573 Y165.989 E.02562
G1 X147.259 Y166.484 E.02117
G1 X146.9 Y166.889 E.01955
G1 X146.51 Y167.21 E.01823
G1 X146.087 Y167.464 E.01781
G1 X145.394 Y167.73 E.02679
G1 X144.925 Y167.826 E.0173
G1 X144.432 Y167.86 E.01786
G1 X72.778 Y167.86 E2.58711
G1 X72.242 Y167.821 E.01942
G1 X71.722 Y167.702 E.01924
G1 X71.069 Y167.425 E.02562
G1 X70.573 Y167.112 E.02117
G1 X70.169 Y166.752 E.01955
G1 X69.847 Y166.363 E.01823
G1 X69.594 Y165.94 E.01781
G1 X69.328 Y165.247 E.02679
G1 X69.231 Y164.778 E.0173
G1 X69.198 Y164.284 E.01786
G1 X69.198 Y109.74 E1.96938
G1 X69.229 Y109.672 E.00269
G1 X69.703 Y110.114 F42000
G1 F3600
G1 X69.793 Y110.081 E.00347
G1 X70.89 Y110.087 E.03961
G1 X70.994 Y110.136 E.00413
G1 X71.026 Y110.224 E.00342
G1 X71.026 Y164.304 E1.9526
G1 X71.065 Y164.639 E.01218
G1 X71.153 Y164.933 E.01107
G1 X71.288 Y165.201 E.01083
G1 X71.516 Y165.492 E.01336
G1 X71.799 Y165.728 E.01328
G1 X72.025 Y165.86 E.00945
G1 X72.42 Y165.99 E.01502
G1 X72.75 Y166.031 E.01203
G1 X144.452 Y166.031 E2.58885
G1 X144.789 Y165.992 E.01225
G1 X145.001 Y165.935 E.00793
G1 X145.391 Y165.742 E.01572
G1 X145.489 Y165.675 E.00429
G1 X145.733 Y165.446 E.01207
G1 X145.982 Y165.082 E.01593
G1 X146.127 Y164.678 E.01552
G1 X146.179 Y164.299 E.01378
G1 X146.179 Y110.227 E1.95233
G1 X146.226 Y110.123 E.00413
G1 X146.316 Y110.09 E.00344
G1 X147.413 Y110.09 E.03961
G1 X147.517 Y110.138 E.00413
G1 X147.55 Y110.227 E.00344
G1 X147.55 Y164.258 E1.95083
G1 X147.512 Y164.758 E.01812
G1 X147.408 Y165.205 E.01658
G1 X147.171 Y165.766 E.02197
G1 X146.899 Y166.199 E.01847
G1 X146.573 Y166.566 E.0177
G1 X146.237 Y166.841 E.0157
G1 X145.875 Y167.056 E.01519
G1 X145.255 Y167.292 E.02398
G1 X144.854 Y167.373 E.01476
G1 X144.412 Y167.403 E.01601
G1 X72.8 Y167.403 E2.58561
G1 X72.299 Y167.365 E.01812
G1 X71.852 Y167.261 E.01658
G1 X71.292 Y167.023 E.02197
G1 X70.859 Y166.752 E.01847
G1 X70.492 Y166.426 E.0177
G1 X70.217 Y166.09 E.0157
G1 X70.002 Y165.728 E.01519
G1 X69.766 Y165.107 E.02398
G1 X69.685 Y164.707 E.01476
G1 X69.655 Y164.264 E.01601
G1 X69.655 Y110.218 E1.9514
G1 X69.686 Y110.15 E.00269
G1 X70.16 Y110.574 F42000
G1 F3600
G1 X70.25 Y110.541 E.00347
G1 X70.433 Y110.542 E.0066
G1 X70.537 Y110.59 E.00413
G1 X70.569 Y110.679 E.00342
G1 X70.569 Y164.296 E1.93589
G1 X70.63 Y164.779 E.0176
G1 X70.749 Y165.147 E.01396
G1 X70.934 Y165.49 E.01407
G1 X71.233 Y165.851 E.01691
G1 X71.574 Y166.125 E.0158
G1 X71.892 Y166.298 E.01308
G1 X72.374 Y166.445 E.0182
G1 X72.758 Y166.488 E.01394
G1 X144.444 Y166.488 E2.5883
G1 X144.834 Y166.447 E.01413
G1 X145.109 Y166.379 E.01024
G1 X145.588 Y166.154 E.01911
G1 X145.739 Y166.058 E.00647
G1 X146.118 Y165.693 E.01899
G1 X146.354 Y165.348 E.0151
G1 X146.414 Y165.23 E.00478
G1 X146.582 Y164.727 E.01912
G1 X146.636 Y164.291 E.01589
G1 X146.636 Y110.684 E1.93552
G1 X146.684 Y110.58 E.00413
G1 X146.773 Y110.547 E.00344
G1 X146.956 Y110.547 E.0066
G1 X147.06 Y110.595 E.00413
G1 X147.093 Y110.684 E.00344
G1 X147.093 Y164.235 E1.93352
G1 X147.06 Y164.678 E.01604
G1 X146.967 Y165.074 E.01468
G1 X146.769 Y165.544 E.01841
G1 X146.538 Y165.914 E.01575
G1 X146.247 Y166.242 E.01582
G1 X145.965 Y166.471 E.01312
G1 X145.665 Y166.646 E.01256
G1 X145.116 Y166.854 E.02119
G1 X144.784 Y166.92 E.01222
G1 X144.392 Y166.946 E.01419
G1 X72.822 Y166.946 E2.58409
G1 X72.379 Y166.913 E.01604
G1 X71.983 Y166.82 E.01468
G1 X71.514 Y166.621 E.01841
G1 X71.143 Y166.391 E.01575
G1 X70.816 Y166.1 E.01582
G1 X70.587 Y165.818 E.01312
G1 X70.411 Y165.518 E.01256
G1 X70.204 Y164.969 E.02119
G1 X70.138 Y164.636 E.01222
G1 X70.112 Y164.244 E.01419
G1 X70.112 Y110.678 E1.93408
G1 X70.143 Y110.61 E.00269
;WIPE_START
G1 X70.25 Y110.541 E-.03825
G1 X70.433 Y110.542 E-.05485
G1 X70.537 Y110.59 E-.03432
G1 X70.569 Y110.679 E-.02838
G1 X70.569 Y112.159 E-.4442
;WIPE_END
G1 Z.4 F42000
G1 X143.974 Y103.61 Z.4
M73 P3 R43
G1 Z.2
G1 E.6 F2400
;TYPE:Inner wall
;WIDTH:0.499999
G1 F3600
G1 X143.64 Y103.706 E.01253
G1 X143.269 Y103.943 E.01589
G1 X142.97 Y104.283 E.01636
G1 X142.782 Y104.679 E.01582
G1 X142.708 Y105.16 E.01759
G1 X142.708 Y162.56 E2.07249
G1 X74.497 Y162.56 E2.4628
G1 X74.497 Y69.103 E3.37437
G1 X154.208 Y69.103 E2.87802
G1 X154.208 Y103.56 E1.24412
G1 X144.147 Y103.56 E.36327
G1 X144.012 Y103.599 E.00505
G1 X144.045 Y104.055 F42000
