; HEADER_BLOCK_START
; generated by OrcaSlicer 2.1.0 on 2025-03-13 at 19:23:51
; total layer number: 48
; filament_density: 1.27
; filament_diameter: 1.75
; max_z_height: 7.20
; HEADER_BLOCK_END

; THUMBNAIL_BLOCK_START

;
; THUMBNAIL_BLOCK_END

; THUMBNAIL_BLOCK_START

;
; THUMBNAIL_BLOCK_END

; external perimeters extrusion width = 0.42mm
; perimeters extrusion width = 0.45mm
; infill extrusion width = 0.45mm
; solid infill extrusion width = 0.42mm
; top infill extrusion width = 0.42mm
; support material extrusion width = 0.42mm
; first layer extrusion width = 0.50mm

; EXECUTABLE_BLOCK_START
EXCLUDE_OBJECT_DEFINE NAME=драйвер_2.stp_id_0_copy_0 CENTER=110,110 POLYGON=[[68.3736,91],[151.626,91],[151.626,129],[68.3736,129],[68.3736,91]]
M73 P0 R15
M106 S0
M106 P2 S0
;TYPE:Custom
M140 S0
M104 S0 
START_PRINT EXTRUDER_TEMP=250 BED_TEMP=90
M106 P3 S153
G90
G21
M83 ; use relative distances for extrusion
; filament start gcode
M106 S0
M106 P2 S0
;LAYER_CHANGE
;Z:0.2
;HEIGHT:0.2
;BEFORE_LAYER_CHANGE
;0.2
G92 E0

G1 E-.6 F2400
;_SET_FAN_SPEED_CHANGING_LAYER
SET_VELOCITY_LIMIT ACCEL=500 ACCEL_TO_DECEL=250
SET_VELOCITY_LIMIT SQUARE_CORNER_VELOCITY=9
EXCLUDE_OBJECT_START NAME=драйвер_2.stp_id_0_copy_0
G1 Z.2 F42000
G1 X122.157 Y90.65
G1 Z.2
G1 E.6 F2400
;TYPE:Support
;WIDTH:0.5
G1 F3600
G1 X119.682 Y90.65 E.08935
G1 X119.477 Y90.855 E.01047
G1 X119.477 Y129.145 E1.3825
G1 X119.682 Y129.35 E.01047
G1 X122.157 Y129.35 E.08935
G1 X123.762 Y130.955 E.08196
G1 X103.307 Y130.955 E.73853
G1 X103.307 Y129.35 E.05795
G1 X104.215 Y129.35 E.03276
G1 X104.42 Y129.145 E.01047
G1 X104.42 Y90.855 E1.3825
G1 X104.215 Y90.65 E.01047
G1 X103.307 Y90.65 E.03276
G1 X103.307 Y89.045 E.05795
G1 X123.762 Y89.045 E.73853
G1 X122.205 Y90.602 E.07948
G1 X104.831 Y90.685 F42000
G1 F3600
G1 X104.385 Y90.239 E.02277
G1 X103.719 Y90.239 E.02406
G1 X103.719 Y89.456 E.02825
G1 X122.769 Y89.456 E.68782
G1 X121.987 Y90.239 E.03995
G1 X119.512 Y90.239 E.08935
G1 X119.066 Y90.685 E.02277
G1 X119.066 Y129.315 E1.3948
G1 X119.512 Y129.761 E.02277
G1 X121.987 Y129.761 E.08935
G1 X122.769 Y130.544 E.03995
G1 X103.719 Y130.544 E.68782
G1 X103.719 Y129.761 E.02825
G1 X104.385 Y129.761 E.02406
G1 X104.831 Y129.315 E.02277
G1 X104.831 Y90.685 E1.3948
G1 X105.339 Y90.474 F42000
G1 F3600
G1 X104.829 Y89.964 E.02605
G1 X119.068 Y89.964 E.51411
G1 X118.558 Y90.474 E.02605
G1 X118.558 Y129.526 E1.40999
G1 X119.068 Y130.036 E.02605
G1 X104.829 Y130.036 E.51411
G1 X105.339 Y129.526 E.02605
G1 X105.339 Y90.474 E1.40999
M73 P1 R15
G1 X105.847 Y90.472 F42000
G1 F3600
G1 X118.05 Y90.472 E.4406
G1 X118.05 Y129.528 E1.41015
G1 X105.847 Y129.528 E.4406
G1 X105.847 Y90.472 E1.41015
G1 X106.355 Y90.98 F42000
G1 F3600
G1 X117.542 Y90.98 E.40393
G1 X117.542 Y129.02 E1.37348
G1 X106.355 Y129.02 E.40393
G1 X106.355 Y90.98 E1.37348
G1 X106.863 Y91.488 F42000
G1 F3600
G1 X117.034 Y91.488 E.36726
G1 X117.034 Y128.512 E1.33681
G1 X106.863 Y128.512 E.36726
G1 X106.863 Y91.488 E1.33681
G1 X107.371 Y91.996 F42000
G1 F3600
G1 X116.526 Y91.996 E.33058
G1 X116.526 Y128.004 E1.30013
G1 X107.371 Y128.004 E.33058
G1 X107.371 Y91.996 E1.30013
G1 X107.878 Y92.503 F42000
G1 F3600
G1 X116.019 Y92.503 E.29391
G1 X116.019 Y127.497 E1.26346
M73 P2 R14
G1 X107.878 Y127.497 E.29391
G1 X107.878 Y92.503 E1.26346
G1 X108.386 Y93.011 F42000
G1 F3600
G1 X115.511 Y93.011 E.25723
G1 X115.511 Y126.989 E1.22679
G1 X108.386 Y126.989 E.25723
G1 X108.386 Y93.011 E1.22679
G1 X108.894 Y93.519 F42000
G1 F3600
G1 X115.003 Y93.519 E.22056
G1 X115.003 Y126.481 E1.19011
G1 X108.894 Y126.481 E.22056
G1 X108.894 Y93.519 E1.19011
G1 X109.402 Y94.027 F42000
G1 F3600
G1 X114.495 Y94.027 E.18389
G1 X114.495 Y125.973 E1.15344
G1 X109.402 Y125.973 E.18389
G1 X109.402 Y94.027 E1.15344
G1 X109.91 Y94.535 F42000
G1 F3600
G1 X113.987 Y94.535 E.14721
G1 X113.987 Y125.465 E1.11676
G1 X109.91 Y125.465 E.14721
G1 X109.91 Y94.535 E1.11676
G1 X110.418 Y95.043 F42000
G1 F3600
G1 X113.479 Y95.043 E.11054
G1 X113.479 Y124.957 E1.08009
G1 X110.418 Y124.957 E.11054
G1 X110.418 Y95.043 E1.08009
M73 P3 R14
G1 X110.926 Y95.551 F42000
G1 F3600
G1 X112.971 Y95.551 E.07386
G1 X112.971 Y124.449 E1.04342
G1 X110.926 Y124.449 E.07386
G1 X110.926 Y95.551 E1.04342
G1 X111.433 Y96.059 F42000
G1 F3600
G1 X112.464 Y96.059 E.03719
G1 X112.464 Y123.941 E1.00674
G1 X111.433 Y123.941 E.03719
G1 X111.433 Y96.059 E1.00674
;WIPE_START
G1 X111.433 Y98.059 E-.6
;WIPE_END
G1 Z.4 F42000
G1 X142.774 Y111.052 Z.4
G1 Z.2
G1 E.6 F2400
;TYPE:Inner wall
;WIDTH:0.499999
G1 F3600
G1 X142.779 Y111.208 E.00564
G1 X142.902 Y111.834 E.02303
G1 X143.07 Y112.314 E.01837
G1 X143.225 Y112.637 E.01292
G1 X143.678 Y113.304 E.02913
G1 X144.132 Y113.753 E.02303
G1 X144.797 Y114.209 E.02913
G1 X145.383 Y114.46 E.02301
G1 X145.874 Y114.592 E.01838
G1 X146.229 Y114.645 E.01293
G1 X147.093 Y114.637 E.03123
G1 X147.88 Y114.46 E.02913
G1 X148.412 Y114.232 E.02088
G1 X148.95 Y113.889 E.02303
G1 X149.336 Y113.557 E.01838
G1 X149.855 Y112.92 E.02967
G1 X149.855 Y127.229 E.51661
G1 X121.598 Y127.229 E1.02024
G1 X121.598 Y92.771 E1.24412
G1 X149.855 Y92.771 E1.02024
G1 X149.855 Y108.689 E.57472
G1 X149.575 Y108.295 E.01745
G1 X149.169 Y107.884 E.02086
G1 X148.653 Y107.509 E.02302
G1 X147.871 Y107.14 E.03124
G1 X147.027 Y106.955 E.03119
G1 X146.523 Y106.936 E.0182
G1 X146.166 Y106.962 E.01291
G1 X145.372 Y107.14 E.02939
G1 X144.79 Y107.399 E.02301
G1 X144.358 Y107.67 E.01839
G1 X144.078 Y107.893 E.01294
G1 X143.528 Y108.483 E.02911
G1 X143.193 Y109.025 E.02301
G1 X142.989 Y109.491 E.01838
G1 X142.884 Y109.834 E.01294
G1 X142.761 Y110.631 E.02911
G1 X142.773 Y111.012 E.01378
;WIPE_START
G1 X142.779 Y111.208 E-.05884
G1 X142.902 Y111.834 E-.19137
G1 X143.07 Y112.314 E-.1526
G1 X143.225 Y112.637 E-.10738
G1 X143.393 Y112.884 E-.08981
;WIPE_END
G1 Z.4 F42000
G1 X150.332 Y111.46 Z.4
G1 Z.2
G1 E.6 F2400
;WIDTH:0.461759
G1 F3600
G1 X150.331 Y111.464 E.00011
;WIDTH:0.499999
G1 X150.312 Y111.718 E.00921
G1 X150.312 Y127.686 E.57653
G1 X121.141 Y127.686 E1.05325
G1 X121.141 Y92.314 E1.27713
G1 X150.312 Y92.314 E1.05325
G1 X150.312 Y109.881 E.63425
M73 P4 R14
G1 X150.335 Y110.256 E.01356
;WIDTH:0.455193
G1 X150.357 Y110.63 E.01223
;WIDTH:0.423519
G1 X150.351 Y111.21 E.01741
;WIDTH:0.461759
G1 X150.335 Y111.42 E.007
;WIPE_START
G1 X150.331 Y111.464 E-.01304
G1 X150.312 Y111.718 E-.07652
G1 X150.312 Y113.42 E-.51044
;WIPE_END
G1 Z.4 F42000
G1 X143.228 Y111.032 Z.4
G1 Z.2
G1 E.6 F2400
;WIDTH:0.499999
G1 F3600
G1 X143.218 Y110.631 E.01449
G1 X143.333 Y109.919 E.02604
G1 X143.612 Y109.207 E.02758
G1 X143.906 Y108.74 E.01993
G1 X144.402 Y108.216 E.02604
G1 X145.033 Y107.786 E.02759
G1 X145.539 Y107.566 E.01993
G1 X146.251 Y107.411 E.02629
G1 X147.009 Y107.412 E.02738
G1 X147.752 Y107.582 E.02752
G1 X148.44 Y107.913 E.02756
G1 X148.884 Y108.241 E.01995
G1 X149.24 Y108.606 E.0184
G1 X149.641 Y109.206 E.02606
G1 X149.861 Y109.713 E.01993
G1 X149.92 Y109.917 E.0077
G1 X149.948 Y110.171 E.00922
;WIDTH:0.460836
G1 X149.976 Y110.425 E.00843
;WIDTH:0.421672
G1 X149.99 Y110.969 E.01629
;WIDTH:0.455198
G1 X149.955 Y111.325 E.01165
;WIDTH:0.499999
G1 X149.92 Y111.681 E.01292
G1 X149.641 Y112.392 E.02757
G1 X149.211 Y113.023 E.02757
G1 X148.652 Y113.543 E.02758
G1 X148.183 Y113.836 E.01995
G1 X147.713 Y114.034 E.01841
G1 X147.009 Y114.188 E.02605
G1 X146.246 Y114.188 E.02754
G1 X145.501 Y114.018 E.02758
G1 X144.995 Y113.797 E.01993
G1 X144.403 Y113.385 E.02605
G1 X144.013 Y112.994 E.01995
G1 X143.612 Y112.393 E.02605
G1 X143.333 Y111.683 E.02756
G1 X143.231 Y111.14 E.01995
G1 X143.229 Y111.072 E.00246
G1 X143.683 Y111.008 F42000
G1 F3600
G1 X143.681 Y110.545 E.01671
G1 X143.782 Y110.003 E.0199
G1 X144.031 Y109.39 E.0239
G1 X144.308 Y108.964 E.01835
G1 X144.725 Y108.54 E.02149
G1 X145.276 Y108.173 E.02391
G1 X145.763 Y107.972 E.01903
G1 X146.335 Y107.861 E.02104
G1 X146.992 Y107.869 E.0237
G1 X147.634 Y108.023 E.02385
G1 X148.226 Y108.317 E.02388
G1 X148.674 Y108.668 E.02055
G1 X148.983 Y109.019 E.01685
G1 X149.254 Y109.45 E.01838
G1 X149.471 Y110.002 E.02145
G1 X149.565 Y110.503 E.01839
G1 X149.567 Y111.088 E.02112
G1 X149.471 Y111.597 E.01869
G1 X149.222 Y112.21 E.02388
G1 X148.844 Y112.752 E.02388
G1 X148.353 Y113.197 E.0239
G1 X147.863 Y113.485 E.02055
G1 X147.423 Y113.644 E.01687
G1 X146.924 Y113.739 E.01837
G1 X146.263 Y113.731 E.02386
G1 X145.619 Y113.577 E.0239
G1 X145.136 Y113.354 E.01919
G1 X144.674 Y113.017 E.02066
G1 X144.306 Y112.633 E.01923
G1 X143.999 Y112.15 E.02063
G1 X143.765 Y111.532 E.02388
G1 X143.683 Y111.072 E.01688
G1 X143.683 Y111.048 E.00086
G1 X144.139 Y111.028 F42000
;TYPE:Outer wall
G1 F3600
G1 X144.135 Y111.004 E.0009
G1 X144.137 Y110.588 E.015
G1 X144.231 Y110.088 E.01837
G1 X144.45 Y109.573 E.02022
G1 X144.689 Y109.222 E.01531
G1 X145.048 Y108.863 E.01837
G1 X145.519 Y108.56 E.02022
G1 X145.914 Y108.405 E.01532
G1 X146.42 Y108.31 E.01856
G1 X146.974 Y108.325 E.02003
G1 X147.516 Y108.465 E.02018
G1 X148.013 Y108.721 E.0202
G1 X148.339 Y108.979 E.01502
G1 X148.596 Y109.262 E.01378
G1 X148.867 Y109.693 E.01838
G1 X149.022 Y110.088 E.01531
G1 X149.116 Y110.588 E.01839
G1 X149.116 Y111.012 E.01531
G1 X149.022 Y111.512 E.01837
G1 X148.803 Y112.027 E.0202
G1 X148.476 Y112.48 E.0202
G1 X148.055 Y112.85 E.02022
G1 X147.696 Y113.059 E.01502
G1 X147.338 Y113.195 E.01379
G1 X146.839 Y113.29 E.01837
G1 X146.28 Y113.275 E.02019
G1 X145.737 Y113.135 E.02022
G1 X145.355 Y112.951 E.01531
G1 X144.946 Y112.649 E.01838
G1 X144.657 Y112.338 E.01533
G1 X144.386 Y111.907 E.01837
G1 X144.196 Y111.381 E.0202
G1 X144.145 Y111.068 E.01146
;WIPE_START
G1 X144.135 Y111.004 E-.01946
G1 X144.137 Y110.588 E-.12464
G1 X144.231 Y110.088 E-.1526
G1 X144.45 Y109.573 E-.16799
G1 X144.689 Y109.222 E-.12722
G1 X144.708 Y109.203 E-.00809
;WIPE_END
G1 Z.4 F42000
G1 X120.684 Y91.857 Z.4
G1 Z.2
G1 E.6 F2400
;TYPE:Inner wall
G1 F3600
G1 X150.769 Y91.857 E1.08625
G1 X150.769 Y128.143 E1.31014
G1 X120.684 Y128.143 E1.08625
G1 X120.684 Y91.897 E1.30869
G1 X120.227 Y91.4 F42000
;TYPE:Outer wall
G1 F3600
G1 X151.226 Y91.4 E1.11926
G1 X151.226 Y128.6 E1.34314
G1 X120.227 Y128.6 E1.11926
G1 X120.227 Y91.44 E1.3417
;WIPE_START
G1 X122.227 Y91.437 E-.6
;WIPE_END
G1 Z.4 F42000
G1 X149.718 Y93.835 Z.4
G1 Z.2
G1 E.6 F2400
;TYPE:Bottom surface
;WIDTH:0.501488
G1 F6300
G1 X148.997 Y93.114 E.03696
G1 X148.348 Y93.114 E.02349
G1 X149.512 Y94.278 E.05964
G1 X149.512 Y94.927 E.02349
G1 X147.7 Y93.114 E.09287
M73 P5 R14
G1 X147.051 Y93.114 E.02349
G1 X149.512 Y95.575 E.12609
G1 X149.512 Y96.224 E.02349
G1 X146.403 Y93.114 E.15931
G1 X145.754 Y93.114 E.02349
G1 X149.512 Y96.872 E.19253
G1 X149.512 Y97.521 E.02349
G1 X145.106 Y93.114 E.22575
G1 X144.457 Y93.114 E.02349
G1 X149.512 Y98.169 E.25897
G1 X149.512 Y98.818 E.02349
G1 X143.809 Y93.114 E.2922
G1 X143.16 Y93.114 E.02349
G1 X149.512 Y99.466 E.32542
G1 X149.512 Y100.115 E.02349
G1 X142.512 Y93.114 E.35864
G1 X141.863 Y93.114 E.02349
G1 X149.512 Y100.763 E.39186
G1 X149.512 Y101.412 E.02349
G1 X141.214 Y93.114 E.42508
G1 X140.566 Y93.114 E.02349
G1 X149.512 Y102.06 E.45831
G1 X149.512 Y102.709 E.02349
G1 X139.917 Y93.114 E.49153
G1 X139.269 Y93.114 E.02349
G1 X149.512 Y103.357 E.52475
G1 X149.512 Y104.006 E.02349
G1 X138.62 Y93.114 E.55797
G1 X137.972 Y93.114 E.02349
G1 X149.512 Y104.655 E.59119
G1 X149.512 Y105.303 E.02349
G1 X137.323 Y93.114 E.62442
G1 X136.675 Y93.114 E.02349
G1 X149.512 Y105.952 E.65764
G1 X149.512 Y106.6 E.02349
G1 X136.026 Y93.114 E.69086
G1 X135.378 Y93.114 E.02349
G1 X149.512 Y107.249 E.72408
G1 X149.512 Y107.743 E.01789
G1 X149.387 Y107.62 E.00635
G1 X149.113 Y107.401 E.01271
G1 X148.833 Y107.218 E.01213
G1 X134.729 Y93.114 E.72249
G1 X134.081 Y93.114 E.02349
G1 X147.709 Y106.742 E.69813
G1 X147.462 Y106.676 E.00925
G1 X146.929 Y106.61 E.01947
G1 X133.432 Y93.114 E.69139
G1 X132.784 Y93.114 E.02349
G1 X146.273 Y106.604 E.69104
G1 X145.727 Y106.706 E.02014
G1 X132.135 Y93.114 E.69627
G1 X131.487 Y93.114 E.02349
G1 X145.212 Y106.839 E.70312
G1 X144.927 Y106.947 E.01103
G1 X144.757 Y107.033 E.00691
G1 X130.838 Y93.114 E.71301
G1 X130.19 Y93.114 E.02349
G1 X144.348 Y107.272 E.72527
M73 P6 R14
G1 X143.964 Y107.536 E.01689
G1 X129.541 Y93.114 E.73882
G1 X128.893 Y93.114 E.02349
G1 X143.636 Y107.857 E.75526
G1 X143.389 Y108.103 E.01262
G1 X143.325 Y108.195 E.00405
G1 X128.244 Y93.114 E.77256
G1 X127.596 Y93.114 E.02349
G1 X143.058 Y108.577 E.79212
G1 X142.971 Y108.701 E.00551
G1 X142.835 Y109.002 E.01195
G1 X126.947 Y93.114 E.8139
G1 X126.299 Y93.114 E.02349
G1 X142.64 Y109.456 E.83714
G1 X142.571 Y109.661 E.00785
G1 X142.511 Y109.975 E.01159
G1 X125.65 Y93.114 E.86376
G1 X125.002 Y93.114 E.02349
G1 X142.429 Y110.542 E.89278
G1 X142.418 Y110.972 E.0156
G1 X142.435 Y111.196 E.00813
G1 X124.353 Y93.114 E.92631
G1 X123.705 Y93.114 E.02349
G1 X142.937 Y112.346 E.98523
;WIPE_START
G1 X141.523 Y110.932 E-.6
;WIPE_END
G1 Z.4 F42000
G1 X149.718 Y114.588 Z.4
G1 Z.2
G1 E.6 F2400
G1 F6300
G1 X149.23 Y114.1 E.02499
G1 X148.854 Y114.372 E.01683
G1 X149.512 Y115.031 E.03375
G1 X149.512 Y115.679 E.02349
G1 X148.431 Y114.598 E.05541
G1 X147.973 Y114.789 E.01796
G1 X149.512 Y116.328 E.07884
G1 X149.512 Y116.976 E.02349
G1 X147.454 Y114.918 E.10545
G1 X147.151 Y114.975 E.01117
G1 X146.883 Y114.995 E.00974
G1 X149.512 Y117.625 E.13471
G1 X149.512 Y118.273 E.02349
G1 X146.227 Y114.988 E.1683
G1 X145.792 Y114.924 E.01593
G1 X145.412 Y114.821 E.01427
G1 X149.512 Y118.922 E.21007
G1 X149.512 Y119.57 E.02349
G1 X123.056 Y93.114 E1.3553
G1 X122.408 Y93.114 E.02349
G1 X149.512 Y120.219 E1.38852
G1 X149.512 Y120.867 E.02349
G1 X121.941 Y93.296 E1.41241
G1 X121.941 Y93.945 E.02349
G1 X149.512 Y121.516 E1.41241
G1 X149.512 Y122.164 E.02349
G1 X121.941 Y94.593 E1.41241
M73 P7 R14
G1 X121.941 Y95.242 E.02349
G1 X149.512 Y122.813 E1.41241
G1 X149.512 Y123.461 E.02349
G1 X121.941 Y95.89 E1.41241
G1 X121.941 Y96.539 E.02349
G1 X149.512 Y124.11 E1.41241
G1 X149.512 Y124.758 E.02349
G1 X121.941 Y97.187 E1.41241
G1 X121.941 Y97.836 E.02349
G1 X149.512 Y125.407 E1.41241
G1 X149.512 Y126.055 E.02349
G1 X121.941 Y98.484 E1.41241
G1 X121.941 Y99.133 E.02349
G1 X149.512 Y126.704 E1.41241
G1 X149.512 Y126.886 E.00659
G1 X149.046 Y126.886 E.0169
G1 X121.941 Y99.781 E1.38852
G1 X121.941 Y100.43 E.02349
G1 X148.397 Y126.886 E1.35529
G1 X147.749 Y126.886 E.02349
G1 X121.941 Y101.078 E1.32207
G1 X121.941 Y101.727 E.02349
G1 X147.1 Y126.886 E1.28885
G1 X146.452 Y126.886 E.02349
G1 X121.941 Y102.375 E1.25563
G1 X121.941 Y103.024 E.02349
G1 X145.803 Y126.886 E1.22241
G1 X145.155 Y126.886 E.02349
G1 X121.941 Y103.672 E1.18918
G1 X121.941 Y104.321 E.02349
G1 X144.506 Y126.886 E1.15596
G1 X143.858 Y126.886 E.02349
G1 X121.941 Y104.969 E1.12274
M73 P8 R14
G1 X121.941 Y105.618 E.02349
G1 X143.209 Y126.886 E1.08952
G1 X142.561 Y126.886 E.02349
G1 X121.941 Y106.266 E1.0563
G1 X121.941 Y106.915 E.02349
G1 X141.912 Y126.886 E1.02308
G1 X141.264 Y126.886 E.02349
G1 X121.941 Y107.563 E.98985
G1 X121.941 Y108.212 E.02349
G1 X140.615 Y126.886 E.95663
G1 X139.967 Y126.886 E.02349
G1 X121.941 Y108.86 E.92341
G1 X121.941 Y109.509 E.02349
G1 X139.318 Y126.886 E.89019
G1 X138.67 Y126.886 E.02349
G1 X121.941 Y110.157 E.85697
G1 X121.941 Y110.806 E.02349
G1 X138.021 Y126.886 E.82374
G1 X137.373 Y126.886 E.02349
G1 X121.941 Y111.454 E.79052
M73 P8 R13
G1 X121.941 Y112.103 E.02349
G1 X136.724 Y126.886 E.7573
G1 X136.076 Y126.886 E.02349
G1 X121.941 Y112.752 E.72408
G1 X121.941 Y113.4 E.02349
G1 X135.427 Y126.886 E.69086
G1 X134.779 Y126.886 E.02349
G1 X121.941 Y114.049 E.65763
G1 X121.941 Y114.697 E.02349
G1 X134.13 Y126.886 E.62441
G1 X133.482 Y126.886 E.02349
G1 X121.941 Y115.346 E.59119
G1 X121.941 Y115.994 E.02349
G1 X132.833 Y126.886 E.55797
G1 X132.185 Y126.886 E.02349
G1 X121.941 Y116.643 E.52475
G1 X121.941 Y117.291 E.02349
G1 X131.536 Y126.886 E.49152
G1 X130.888 Y126.886 E.02349
G1 X121.941 Y117.94 E.4583
G1 X121.941 Y118.588 E.02349
G1 X130.239 Y126.886 E.42508
G1 X129.59 Y126.886 E.02349
G1 X121.941 Y119.237 E.39186
G1 X121.941 Y119.885 E.02349
G1 X128.942 Y126.886 E.35864
M73 P9 R13
G1 X128.293 Y126.886 E.02349
