; HEADER_BLOCK_START
; generated by OrcaSlicer 2.1.0 on 2024-12-11 at 17:22:50
; total layer number: 46
; filament_density: 1.27
; filament_diameter: 1.75
; max_z_height: 9.20
; HEADER_BLOCK_END

; THUMBNAIL_BLOCK_START

;
; THUMBNAIL_BLOCK_END

; THUMBNAIL_BLOCK_START

;
; THUMBNAIL_BLOCK_END

; external perimeters extrusion width = 0.42mm
; perimeters extrusion width = 0.45mm
; infill extrusion width = 0.45mm
; solid infill extrusion width = 0.42mm
; top infill extrusion width = 0.42mm
; support material extrusion width = 0.42mm
; first layer extrusion width = 0.50mm

; EXECUTABLE_BLOCK_START
EXCLUDE_OBJECT_DEFINE NAME=елка_верочки.stp_id_0_copy_0 CENTER=110,110 POLYGON=[[17.8,80.5],[20.2,80.5],[26.8952,81.6017],[27.1089,81.6454],[192.734,120.291],[193.104,120.384],[193.472,120.488],[193.836,120.604],[194.197,120.73],[194.553,120.868],[194.905,121.018],[195.252,121.178],[195.594,121.348],[195.93,121.53],[196.261,121.722],[196.585,121.923],[196.903,122.135],[197.215,122.357],[197.519,122.589],[197.816,122.829],[198.105,123.079],[198.386,123.338],[198.659,123.606],[198.923,123.882],[199.179,124.166],[199.426,124.457],[199.663,124.757],[199.892,125.063],[200.11,125.377],[200.319,125.697],[200.517,126.024],[200.705,126.357],[200.883,126.695],[201.05,127.039],[201.206,127.387],[201.351,127.741],[201.486,128.099],[201.609,128.461],[201.72,128.826],[201.82,129.195],[201.909,129.567],[201.986,129.941],[202.051,130.318],[202.105,130.696],[202.146,131.076],[202.176,131.457],[202.194,131.839],[202.2,132.221],[202.2,139.5],[38.3004,139.5],[38.2579,139.499],[38.221,139.498],[38.1804,139.495],[38.1403,139.491],[38.0583,139.48],[38.0076,139.47],[37.9339,139.455],[19.355,135.45],[19.2105,135.411],[19.0693,135.362],[18.9322,135.302],[18.8,135.232],[18.6734,135.152],[18.553,135.064],[18.4397,134.966],[18.3339,134.86],[18.2363,134.747],[18.1475,134.627],[18.068,134.5],[17.9981,134.368],[17.9383,134.231],[17.8889,134.09],[17.8501,133.945],[17.8223,133.798],[17.8056,133.649],[17.8,133.5],[17.8,80.5]]
M73 P0 R42
M106 S0
M106 P2 S0
;TYPE:Custom
M140 S0
M104 S0 
START_PRINT EXTRUDER_TEMP=250 BED_TEMP=80
G90
G21
M83 ; use relative distances for extrusion
; filament start gcode
M106 S0
M106 P2 S0
;LAYER_CHANGE
;Z:0.2
;HEIGHT:0.2
;BEFORE_LAYER_CHANGE
;0.2
G92 E0

G1 E-.6 F2400
;_SET_FAN_SPEED_CHANGING_LAYER
SET_VELOCITY_LIMIT ACCEL=500 ACCEL_TO_DECEL=250
SET_VELOCITY_LIMIT SQUARE_CORNER_VELOCITY=9
EXCLUDE_OBJECT_START NAME=елка_верочки.stp_id_0_copy_0
G1 Z.2 F42000
G1 X23.229 Y132.15
G1 Z.2
G1 E.6 F2400
;TYPE:Support
;WIDTH:0.5
G1 F3600
G1 X20.55 Y132.15 E.09773
G1 X20.55 Y89.045 E1.57273
G1 X23.229 Y89.045 E.09773
G1 X23.229 Y132.081 E1.57023
G1 X22.817 Y89.456 F42000
G1 F3600
G1 X22.817 Y131.739 E1.54272
G1 X20.961 Y131.739 E.06771
G1 X20.961 Y89.456 E1.54272
G1 X22.817 Y89.456 E.06771
G1 X22.309 Y89.964 F42000
G1 F3600
G1 X22.309 Y131.231 E1.50566
G1 X21.469 Y131.231 E.03065
G1 X21.469 Y89.964 E1.50566
G1 X22.309 Y89.964 E.03065
;WIPE_START
G1 X21.469 Y89.964 E-.25205
G1 X21.469 Y91.124 E-.34795
;WIPE_END
G1 Z.4 F42000
G1 X43.003 Y142.84 Z.4
G1 Z.2
G1 E.6 F2400
G1 F3600
G1 X36.749 Y142.84 E.22818
G1 X36.749 Y135.85 E.25506
G1 X43.003 Y135.85 E.22818
G1 X43.003 Y142.772 E.25255
G1 X42.592 Y136.261 F42000
G1 F3600
G1 X42.592 Y142.429 E.22504
G1 X37.161 Y142.429 E.19816
G1 X37.161 Y136.261 E.22504
G1 X42.592 Y136.261 E.19816
G1 X42.084 Y136.769 F42000
G1 F3600
G1 X42.084 Y141.921 E.18798
G1 X37.668 Y141.921 E.1611
G1 X37.668 Y136.769 E.18798
G1 X42.084 Y136.769 E.1611
G1 X41.576 Y137.277 F42000
G1 F3600
G1 X41.576 Y141.413 E.15092
G1 X38.176 Y141.413 E.12404
G1 X38.176 Y137.277 E.15092
G1 X41.576 Y137.277 E.12404
G1 X41.068 Y137.785 F42000
G1 F3600
G1 X41.068 Y140.906 E.11386
G1 X38.684 Y140.906 E.08698
G1 X38.684 Y137.785 E.11386
G1 X41.068 Y137.785 E.08698
G1 X40.56 Y138.293 F42000
G1 F3600
G1 X40.56 Y140.398 E.0768
G1 X39.192 Y140.398 E.04992
G1 X39.192 Y138.293 E.0768
G1 X40.56 Y138.293 E.04992
;WIPE_START
G1 X39.192 Y138.293 E-.41049
G1 X39.192 Y138.925 E-.18951
;WIPE_END
G1 Z.4 F42000
G1 X184.363 Y140.902 Z.4
G1 Z.2
G1 E.6 F2400
;TYPE:Support interface
G1 F3600
G1 X183.689 Y140.902 E.02458
G1 X183.689 Y136.148 E.17346
G1 X184.552 Y136.148 E.03146
G1 X184.552 Y140.902 E.17346
G1 X185.429 Y140.902 E.032
G1 X185.429 Y136.148 E.17346
G1 X186.306 Y136.148 E.032
G1 X186.306 Y140.902 E.17346
G1 X187.183 Y140.902 E.032
G1 X187.183 Y136.148 E.17346
G1 X188.06 Y136.148 E.032
G1 X188.06 Y140.902 E.17346
G1 X188.937 Y140.902 E.032
G1 X188.937 Y136.148 E.17346
G1 X189.814 Y136.148 E.032
G1 X189.814 Y140.902 E.17346
G1 X190.691 Y140.902 E.032
G1 X190.691 Y136.148 E.17346
G1 X191.568 Y136.148 E.032
G1 X191.568 Y140.902 E.17346
G1 X192.445 Y140.902 E.032
G1 X192.445 Y136.148 E.17346
G1 X193.323 Y136.148 E.032
G1 X193.323 Y140.902 E.17346
G1 X194.2 Y140.902 E.032
G1 X194.2 Y136.148 E.17346
G1 X195.077 Y136.148 E.032
G1 X195.077 Y140.902 E.17346
G1 X195.954 Y140.902 E.032
G1 X195.954 Y136.148 E.17346
G1 X196.831 Y136.148 E.032
G1 X196.831 Y140.902 E.17346
G1 X197.708 Y140.902 E.032
G1 X197.708 Y136.148 E.17346
G1 X198.585 Y136.148 E.032
G1 X198.585 Y140.902 E.17346
G1 X199.462 Y140.902 E.032
G1 X199.462 Y136.148 E.17346
G1 X200.329 Y136.148 E.03163
G1 X200.329 Y140.902 E.17346
G1 X199.651 Y140.902 E.02475
;WIPE_START
G1 X200.329 Y140.902 E-.20353
G1 X200.329 Y139.58 E-.39647
;WIPE_END
G1 Z.4 F42000
G1 X204.645 Y142.84 Z.4
G1 Z.2
G1 E.6 F2400
;TYPE:Support
G1 F3600
G1 X179.374 Y142.84 E.92203
G1 X179.374 Y135.85 E.25506
G1 X183.251 Y135.85 E.14145
G1 X183.251 Y141.341 E.20033
G1 X200.768 Y141.341 E.63912
G1 X200.768 Y135.85 E.20033
G1 X200.966 Y135.85 E.00725
G1 X201.171 Y135.645 E.01058
G1 X201.171 Y134.209 E.05238
G1 X204.645 Y134.209 E.12672
G1 X204.645 Y142.772 E.31241
;WIPE_START
G1 X204.645 Y140.772 E-.6
;WIPE_END
G1 Z.4 F42000
G1 X179.785 Y136.261 Z.4
G1 Z.2
G1 E.6 F2400
G1 F3600
G1 X182.839 Y136.261 E.11143
G1 X182.839 Y141.752 E.20033
G1 X201.179 Y141.752 E.66914
G1 X201.179 Y136.219 E.20188
G1 X201.583 Y135.815 E.02083
G1 X201.583 Y134.621 E.04358
G1 X204.233 Y134.621 E.09671
G1 X204.233 Y142.429 E.28489
G1 X179.785 Y142.429 E.89201
G1 X179.785 Y136.261 E.22504
G1 X180.293 Y136.769 F42000
G1 F3600
G1 X182.332 Y136.769 E.07437
G1 X182.332 Y141.921 E.18798
G1 X180.293 Y141.921 E.07437
G1 X180.293 Y136.769 E.18798
G1 X180.801 Y137.277 F42000
G1 F3600
G1 X181.824 Y137.277 E.03731
G1 X181.824 Y141.413 E.15092
G1 X180.801 Y141.413 E.03731
G1 X180.801 Y137.277 E.15092
;WIPE_START
G1 X180.801 Y139.277 E-.6
;WIPE_END
G1 Z.4 F42000
G1 X201.687 Y136.429 Z.4
G1 Z.2
G1 E.6 F2400
G1 F3600
G1 X202.091 Y136.026 E.02083
G1 X202.091 Y135.129 E.03273
G1 X203.725 Y135.129 E.05965
G1 X203.725 Y141.921 E.24783
G1 X201.687 Y141.921 E.07437
G1 X201.687 Y136.429 E.20037
G1 X202.195 Y136.64 F42000
G1 F3600
G1 X202.598 Y136.236 E.02083
G1 X202.598 Y135.637 E.02188
G1 X203.217 Y135.637 E.02259
G1 X203.217 Y141.413 E.21077
G1 X202.195 Y141.413 E.03731
G1 X202.195 Y136.64 E.17417
;WIPE_START
G1 X202.195 Y138.64 E-.6
;WIPE_END
G1 Z.4 F42000
M73 P1 R42
G1 X24.883 Y133.729 Z.4
G1 Z.2
G1 E.6 F2400
;TYPE:Inner wall
;WIDTH:0.499999
G1 F3600
G1 X25.227 Y133.287 E.02043
G1 X25.35 Y132.671 E.02289
G1 X25.35 Y85.751 E1.71196
M73 P1 R41
G1 X25.403 Y85.333 E.01536
G1 X25.501 Y85.081 E.00988
G1 X25.764 Y84.831 E.01322
G1 X26.031 Y84.721 E.01052
G1 X26.48 Y84.733 E.01639
G1 X192.026 Y123.36 E6.20237
G1 X192.746 Y123.57 E.02737
G1 X193.588 Y123.89 E.03286
G1 X194.342 Y124.26 E.03067
G1 X194.982 Y124.645 E.02725
G1 X195.547 Y125.046 E.02528
G1 X196.225 Y125.632 E.03269
G1 X196.606 Y126.017 E.01977
G1 X197.073 Y126.569 E.02639
G1 X197.429 Y127.038 E.02148
G1 X197.928 Y127.846 E.03463
G1 X198.19 Y128.362 E.0211
G1 X198.518 Y129.159 E.03145
G1 X198.766 Y129.973 E.03107
G1 X198.941 Y130.823 E.03165
G1 X199.007 Y131.369 E.02008
G1 X199.044 Y131.974 E.02212
G1 X199.047 Y133.729 E.06401
G1 X24.923 Y133.729 E6.3531
;WIPE_START
G1 X25.227 Y133.287 E-.1609
G1 X25.35 Y132.671 E-.18825
G1 X25.35 Y131.835 E-.25086
;WIPE_END
G1 Z.4 F42000
G1 X19.895 Y133.776 Z.4
G1 Z.2
G1 E.6 F2400
;WIDTH:0.465013
G1 F3600
G1 X20.029 Y133.793 E.00455
;WIDTH:0.457302
G1 X23.915 Y133.793 E.12855
;WIDTH:0.499999
G1 X24.436 Y133.586 E.02046
G1 X24.805 Y133.111 E.02194
G1 X24.893 Y132.671 E.01635
G1 X24.893 Y85.751 E1.71196
G1 X24.968 Y85.154 E.02196
G1 X25.072 Y84.913 E.00956
G1 X25.322 Y84.589 E.01494
G1 X25.721 Y84.335 E.01725
G1 X26.071 Y84.26 E.01307
G1 X26.56 Y84.283 E.01787
G1 X192.103 Y122.909 E6.20223
G1 X192.689 Y123.065 E.02212
G1 X193.292 Y123.278 E.02336
G1 X193.779 Y123.475 E.01916
G1 X194.57 Y123.864 E.03216
G1 X195.24 Y124.267 E.02852
G1 X195.835 Y124.691 E.02665
G1 X196.538 Y125.298 E.03388
G1 X196.944 Y125.708 E.02107
G1 X197.422 Y126.274 E.02704
G1 X197.809 Y126.783 E.02332
G1 X198.327 Y127.622 E.03596
G1 X198.606 Y128.171 E.02247
G1 X198.949 Y129.005 E.0329
G1 X199.21 Y129.86 E.03263
G1 X199.392 Y130.748 E.03305
G1 X199.463 Y131.339 E.02172
G1 X199.501 Y131.973 E.02321
G1 X199.505 Y134.186 E.08072
G1 X24.636 Y134.186 E6.38029
G1 X23.75 Y134.207 E.03232
;WIDTH:0.457302
G1 X20.029 Y134.207 E.1231
;WIDTH:0.465013
G1 X19.628 Y134.164 E.01357
G1 X19.389 Y134.064 E.00874
;WIDTH:0.456047
G1 X19.187 Y133.821 E.01042
G1 X19.103 Y133.573 E.00864
G1 X19.092 Y133.212 E.0119
G1 X19.19 Y133.415 E.00744
G1 X19.404 Y133.602 E.00937
;WIDTH:0.465013
G1 X19.718 Y133.753 E.01171
G1 X19.855 Y133.771 E.00467
G1 X19.934 Y133.335 F42000
;WIDTH:0.499999
G1 F3600
G1 X20.029 Y133.357 E.00353
G1 X23.845 Y133.357 E.13924
G1 X24.161 Y133.22 E.01259
G1 X24.383 Y132.935 E.01316
G1 X24.436 Y132.671 E.00981
G1 X24.436 Y85.6 E1.71745
G1 X24.531 Y84.993 E.02241
G1 X24.672 Y84.691 E.01219
G1 X25.01 Y84.251 E.02022
G1 X25.328 Y84.016 E.01446
G1 X25.674 Y83.872 E.01367
G1 X26.109 Y83.799 E.0161
G1 X26.641 Y83.832 E.01944
G1 X192.214 Y122.466 E6.20335
G1 X192.823 Y122.628 E.02303
G1 X193.712 Y122.941 E.03438
G1 X194.565 Y123.334 E.03425
G1 X195.311 Y123.763 E.03141
G1 X195.868 Y124.143 E.0246
G1 X196.267 Y124.46 E.0186
G1 X197.004 Y125.12 E.03608
G1 X197.42 Y125.564 E.02222
G1 X198.007 Y126.279 E.03376
G1 X198.293 Y126.697 E.01846
G1 X198.818 Y127.579 E.03745
G1 X199.093 Y128.154 E.02326
G1 X199.439 Y129.045 E.03486
G1 X199.69 Y129.927 E.03348
G1 X199.86 Y130.798 E.03236
G1 X199.919 Y131.308 E.01873
G1 X199.958 Y131.973 E.0243
G1 X199.963 Y134.643 E.09743
G1 X20.029 Y134.643 E6.56509
G1 X19.465 Y134.585 E.02066
G1 X19.084 Y134.376 E.01585
G1 X18.828 Y134.066 E.01469
G1 X18.688 Y133.701 E.01427
G1 X18.657 Y133.453 E.00913
;WIDTH:0.538128
G1 X18.676 Y133.192 E.01032
;WIDTH:0.576257
G1 X18.695 Y132.932 E.01111
;WIDTH:0.614385
G1 X18.714 Y132.671 E.01191
G1 X18.714 Y84.528 E2.19614
G1 X19.286 Y84.528 E.02607
G1 X19.286 Y132.79 E2.20153
M73 P2 R41
G1 X19.362 Y132.902 E.0062
;WIDTH:0.576257
G1 X19.439 Y133.014 E.00579
;WIDTH:0.538128
G1 X19.516 Y133.127 E.00537
;WIDTH:0.499999
G1 X19.728 Y133.288 E.00974
G1 X19.895 Y133.326 E.00625
G1 X20.029 Y132.9 F42000
;TYPE:Outer wall
G1 F3600
G1 X23.75 Y132.9 E.13578
G1 X23.887 Y132.854 E.00527
G1 X23.979 Y132.671 E.00746
G1 X23.979 Y85.751 E1.71196
G1 X24.019 Y85.31 E.01616
G1 X24.134 Y84.749 E.02088
G1 X24.371 Y84.291 E.01881
G1 X24.697 Y83.914 E.01819
G1 X25.251 Y83.546 E.02424
G1 X25.791 Y83.364 E.02082
G1 X26.297 Y83.328 E.01849
G1 X26.722 Y83.382 E.01564
G1 X192.324 Y122.022 E6.20447
G1 X192.958 Y122.191 E.02394
G1 X193.884 Y122.517 E.03581
G1 X194.775 Y122.927 E.03578
G1 X195.554 Y123.375 E.03279
G1 X196.135 Y123.771 E.02566
G1 X196.566 Y124.114 E.02008
G1 X197.329 Y124.798 E.03739
G1 X197.769 Y125.269 E.02352
G1 X198.377 Y126.01 E.03497
G1 X198.682 Y126.457 E.01973
G1 X199.225 Y127.372 E.03884
G1 X199.516 Y127.98 E.0246
G1 X199.876 Y128.911 E.03642
G1 X200.138 Y129.835 E.03505
G1 X200.313 Y130.74 E.0336
G1 X200.376 Y131.277 E.01975
G1 X200.416 Y131.972 E.02539
G1 X200.421 Y135.1 E.11413
G1 X19.903 Y135.1 E6.58638
G1 X19.329 Y135.026 E.02111
G1 X18.895 Y134.817 E.01757
G1 X18.631 Y134.59 E.01272
G1 X18.361 Y134.193 E.01752
G1 X18.251 Y133.836 E.01364
G1 X18.2 Y133.488 E.01283
G1 X18.2 Y84.014 E1.8051
G1 X19.8 Y84.014 E.05838
G1 X19.8 Y132.671 E1.77532
G1 X19.87 Y132.836 E.00654
G1 X19.991 Y132.885 E.00476
;WIPE_START
G1 X21.991 Y132.893 E-.6
;WIPE_END
G1 Z.4 F42000
G1 X140.379 Y127.103 Z.4
G1 Z.2
G1 E.6 F2400
;TYPE:Inner wall
G1 F3600
G1 X140.006 Y127.508 E.02009
G1 X139.428 Y128.028 E.02834
G1 X138.825 Y128.488 E.02769
G1 X138.193 Y128.898 E.02751
G1 X137.217 Y129.405 E.04008
G1 X136.163 Y129.809 E.0412
G1 X135.069 Y130.089 E.0412
G1 X134.295 Y130.209 E.02859
G1 X133.544 Y130.264 E.02748
G1 X132.783 Y130.261 E.02775
G1 X131.697 Y130.153 E.03982
G1 X130.921 Y130.001 E.02885
G1 X129.876 Y129.686 E.03982
G1 X128.839 Y129.242 E.04118
G1 X127.859 Y128.68 E.0412
G1 X127.22 Y128.227 E.02859
G1 X126.637 Y127.738 E.02775
G1 X126.104 Y127.217 E.0272
G1 X125.608 Y126.65 E.02748
G1 X125.157 Y126.047 E.02747
G1 X124.586 Y125.109 E.04009
G1 X124.112 Y124.084 E.0412
G1 X123.855 Y123.351 E.02833
G1 X123.593 Y122.27 E.04058
G1 X123.481 Y121.501 E.02836
G1 X123.433 Y120.75 E.02746
G1 X123.443 Y119.989 E.02775
G1 X123.562 Y118.904 E.03982
G1 X123.811 Y117.803 E.04118
G1 X124.056 Y117.059 E.02859
G1 X124.348 Y116.365 E.02748
G1 X124.869 Y115.398 E.04008
G1 X125.513 Y114.471 E.0412
G1 X126.02 Y113.873 E.02859
G1 X126.552 Y113.34 E.02748
G1 X127.399 Y112.64 E.04009
G1 X128.351 Y112.02 E.04147
G1 X129.039 Y111.66 E.02833
G1 X130.058 Y111.25 E.04007
G1 X130.809 Y111.027 E.02859
G1 X131.888 Y110.819 E.04009
G1 X132.675 Y110.744 E.02886
G1 X133.767 Y110.747 E.03982
G1 X134.546 Y110.823 E.02857
G1 X135.288 Y110.955 E.02749
G1 X136.017 Y111.145 E.02747
G1 X136.729 Y111.389 E.02748
G1 X137.42 Y111.688 E.02748
G1 X138.382 Y112.219 E.04008
G1 X139.303 Y112.872 E.0412
G1 X140.142 Y113.627 E.0412
G1 X140.672 Y114.205 E.02859
G1 X141.134 Y114.799 E.02748
G1 X141.554 Y115.433 E.02775
G1 X142.066 Y116.397 E.03982
G1 X142.367 Y117.12 E.02857
G1 X142.687 Y118.171 E.04008
G1 X142.893 Y119.281 E.0412
G1 X142.96 Y120.062 E.02859
G1 X142.965 Y120.815 E.02748
G1 X142.867 Y121.909 E.04009
G1 X142.64 Y123.015 E.04119
G1 X142.286 Y124.088 E.0412
G1 X141.971 Y124.805 E.02859
G1 X141.613 Y125.467 E.02747
G1 X141.206 Y126.101 E.02749
G1 X140.751 Y126.701 E.02747
G1 X140.406 Y127.074 E.01854
G1 X140.043 Y126.796 F42000
G1 F3600
G1 X139.672 Y127.196 E.01991
G1 X139.126 Y127.685 E.02673
G1 X138.55 Y128.123 E.02642
G1 X137.946 Y128.513 E.02622
G1 X137.01 Y128.998 E.03848
G1 X136.004 Y129.38 E.03927
G1 X134.96 Y129.645 E.03927
G1 X134.229 Y129.756 E.02698
G1 X133.513 Y129.808 E.02619
G1 X132.788 Y129.804 E.02646
G1 X131.746 Y129.698 E.03822
G1 X131.014 Y129.553 E.02724
G1 X130.011 Y129.249 E.03822
G1 X129.023 Y128.823 E.03926
G1 X128.09 Y128.286 E.03927
G1 X127.488 Y127.856 E.02698
G1 X126.933 Y127.39 E.02646
G1 X126.426 Y126.892 E.02593
G1 X125.954 Y126.351 E.0262
G1 X125.525 Y125.776 E.02618
G1 X124.978 Y124.874 E.03848
G1 X124.529 Y123.896 E.03927
G1 X124.288 Y123.204 E.02673
G1 X124.038 Y122.166 E.03897
G1 X123.934 Y121.44 E.02675
G1 X123.889 Y120.723 E.02618
G1 X123.9 Y119.998 E.02646
G1 X124.016 Y118.957 E.03822
G1 X124.255 Y117.908 E.03926
G1 X124.488 Y117.206 E.02698
G1 X124.768 Y116.545 E.02619
G1 X125.27 Y115.618 E.03848
G1 X125.886 Y114.735 E.03927
G1 X126.366 Y114.173 E.02698
G1 X126.874 Y113.665 E.02619
G1 X127.688 Y112.994 E.03848
G1 X128.597 Y112.405 E.03953
G1 X129.247 Y112.067 E.02673
G1 X130.226 Y111.675 E.03847
G1 X130.935 Y111.466 E.02698
G1 X131.971 Y111.269 E.03848
G1 X132.715 Y111.199 E.02725
G1 X133.762 Y111.204 E.03822
G1 X134.498 Y111.277 E.02697
G1 X135.205 Y111.405 E.02621
G1 X135.899 Y111.586 E.02618
G1 X136.578 Y111.821 E.02619
G1 X137.236 Y112.106 E.02619
G1 X138.159 Y112.617 E.03848
G1 X139.035 Y113.242 E.03927
G1 X139.833 Y113.964 E.03927
G1 X140.332 Y114.51 E.02698
G1 X140.772 Y115.077 E.02619
G1 X141.171 Y115.683 E.02646
G1 X141.661 Y116.609 E.03822
G1 X141.944 Y117.292 E.02697
G1 X142.249 Y118.301 E.03848
G1 X142.443 Y119.36 E.03927
G1 X142.505 Y120.097 E.02698
G1 X142.508 Y120.815 E.02619
