; HEADER_BLOCK_START
; generated by OrcaSlicer 2.1.0 on 2024-12-14 at 16:29:05
; total layer number: 20
; filament_density: 1.27
; filament_diameter: 1.75
; max_z_height: 4.00
; HEADER_BLOCK_END

; THUMBNAIL_BLOCK_START

;
; THUMBNAIL_BLOCK_END

; THUMBNAIL_BLOCK_START

;
; THUMBNAIL_BLOCK_END

; external perimeters extrusion width = 0.42mm
; perimeters extrusion width = 0.45mm
; infill extrusion width = 0.45mm
; solid infill extrusion width = 0.42mm
; top infill extrusion width = 0.42mm
; support material extrusion width = 0.42mm
; first layer extrusion width = 0.50mm

; EXECUTABLE_BLOCK_START
EXCLUDE_OBJECT_DEFINE NAME=затычка.stp_id_0_copy_0 CENTER=110,110 POLYGON=[[100,101.5],[100.006,101.369],[100.023,101.24],[100.051,101.112],[100.09,100.987],[100.141,100.866],[100.201,100.75],[100.271,100.64],[100.351,100.536],[100.439,100.439],[100.536,100.351],[100.64,100.271],[100.75,100.201],[100.866,100.141],[100.987,100.09],[101.112,100.051],[101.24,100.023],[101.369,100.006],[101.5,100],[118.5,100],[118.631,100.006],[118.76,100.023],[118.888,100.051],[119.013,100.09],[119.134,100.141],[119.25,100.201],[119.36,100.271],[119.464,100.351],[119.561,100.439],[119.649,100.536],[119.729,100.64],[119.799,100.75],[119.859,100.866],[119.91,100.987],[119.949,101.112],[119.977,101.24],[119.994,101.369],[120,101.5],[120,118.5],[119.994,118.631],[119.977,118.76],[119.949,118.888],[119.91,119.013],[119.859,119.134],[119.799,119.25],[119.729,119.36],[119.649,119.464],[119.561,119.561],[119.464,119.649],[119.36,119.729],[119.25,119.799],[119.134,119.859],[119.013,119.91],[118.888,119.949],[118.76,119.977],[118.631,119.994],[118.5,120],[101.5,120],[101.369,119.994],[101.24,119.977],[101.112,119.949],[100.987,119.91],[100.866,119.859],[100.75,119.799],[100.64,119.729],[100.536,119.649],[100.439,119.561],[100.351,119.464],[100.271,119.36],[100.201,119.25],[100.141,119.134],[100.09,119.013],[100.051,118.888],[100.023,118.76],[100.006,118.631],[100,118.5],[100,101.5]]
M73 P0 R3
M106 S0
M106 P2 S0
;TYPE:Custom
M140 S0
M104 S0 
START_PRINT EXTRUDER_TEMP=250 BED_TEMP=80
G90
G21
M83 ; use relative distances for extrusion
; filament start gcode
M106 S0
M106 P2 S0
;LAYER_CHANGE
;Z:0.2
;HEIGHT:0.2
;BEFORE_LAYER_CHANGE
;0.2
G92 E0

G1 E-.6 F2400
;_SET_FAN_SPEED_CHANGING_LAYER
SET_VELOCITY_LIMIT ACCEL=500 ACCEL_TO_DECEL=250
SET_VELOCITY_LIMIT SQUARE_CORNER_VELOCITY=9
EXCLUDE_OBJECT_START NAME=затычка.stp_id_0_copy_0
G1 Z.2 F42000
G1 X118.027 Y101.977
G1 Z.2
G1 E.6 F2400
;TYPE:Inner wall
;WIDTH:0.499999
G1 F3600
G1 X118.027 Y118.027 E.5856
G1 X101.973 Y118.027 E.58572
G1 X101.973 Y101.973 E.58572
M73 P1 R3
G1 X117.987 Y101.977 E.58426
G1 X118.462 Y101.52 F42000
G1 F3600
G1 X118.484 Y101.635 E.00429
G1 X118.484 Y118.461 E.6139
G1 X118.376 Y118.484 E.00401
G1 X101.539 Y118.484 E.61432
G1 X101.516 Y118.376 E.00401
G1 X101.516 Y101.539 E.61432
G1 X101.624 Y101.516 E.004
G1 X118.422 Y101.52 E.61291
M73 P2 R3
G1 X118.768 Y101.181 F42000
G1 F3600
G1 X118.887 Y101.318 E.00661
G1 X118.941 Y101.635 E.01174
G1 X118.941 Y118.436 E.61298
G1 X118.865 Y118.708 E.01032
G1 X118.673 Y118.888 E.00959
G1 X118.424 Y118.941 E.0093
G1 X101.564 Y118.941 E.61514
G1 X101.292 Y118.865 E.01032
G1 X101.112 Y118.673 E.00959
G1 X101.059 Y118.424 E.0093
G1 X101.059 Y101.564 E.61514
G1 X101.135 Y101.292 E.01031
G1 X101.327 Y101.112 E.00959
G1 X101.576 Y101.059 E.0093
G1 X118.476 Y101.063 E.61662
G1 X118.74 Y101.153 E.01018
G1 X119.131 Y100.867 F42000
;TYPE:Outer wall
G1 F3600
G1 X119.315 Y101.135 E.01184
G1 X119.398 Y101.635 E.01852
G1 X119.398 Y118.364 E.61035
G1 X119.34 Y118.804 E.0162
G1 X119.165 Y119.096 E.01243
G1 X118.863 Y119.315 E.01361
G1 X118.472 Y119.398 E.0146
M73 P3 R3
G1 X101.636 Y119.398 E.61426
G1 X101.196 Y119.34 E.0162
G1 X100.904 Y119.165 E.01243
G1 X100.685 Y118.863 E.01361
G1 X100.602 Y118.472 E.0146
G1 X100.602 Y101.636 E.61426
G1 X100.66 Y101.196 E.01619
G1 X100.835 Y100.904 E.01243
G1 X101.137 Y100.685 E.01361
G1 X101.528 Y100.602 E.0146
G1 X118.414 Y100.605 E.61609
G1 X118.88 Y100.691 E.01728
G1 X119.099 Y100.844 E.00974
;WIPE_START
G1 X119.315 Y101.135 E-.10869
G1 X119.398 Y101.635 E-.15225
G1 X119.398 Y102.766 E-.33906
;WIPE_END
G1 Z.4 F42000
G1 X117.89 Y103.057 Z.4
G1 Z.2
G1 E.6 F2400
;TYPE:Bottom surface
;WIDTH:0.509112
G1 F6300
G1 X117.152 Y102.319 E.03883
G1 X116.492 Y102.319 E.02454
G1 X117.684 Y103.511 E.06271
G1 X117.684 Y104.17 E.02453
G1 X115.833 Y102.319 E.09741
G1 X115.173 Y102.319 E.02454
G1 X117.684 Y104.829 E.13211
M73 P4 R3
G1 X117.684 Y105.489 E.02453
G1 X114.514 Y102.319 E.16682
G1 X113.855 Y102.319 E.02454
G1 X117.684 Y106.148 E.20152
G1 X117.684 Y106.807 E.02453
G1 X113.195 Y102.318 E.23623
G1 X112.536 Y102.318 E.02454
G1 X117.684 Y107.466 E.27093
G1 X117.684 Y108.126 E.02453
G1 X111.876 Y102.318 E.30564
G1 X111.217 Y102.318 E.02454
G1 X117.684 Y108.785 E.34034
G1 X117.684 Y109.444 E.02453
G1 X110.557 Y102.318 E.37504
G1 X109.898 Y102.318 E.02454
G1 X117.684 Y110.104 E.40975
M73 P5 R3
G1 X117.684 Y110.763 E.02453
G1 X109.239 Y102.318 E.44445
G1 X108.579 Y102.318 E.02454
G1 X117.684 Y111.422 E.47916
G1 X117.684 Y112.082 E.02453
G1 X107.92 Y102.317 E.51386
G1 X107.26 Y102.317 E.02454
G1 X117.684 Y112.741 E.54856
G1 X117.684 Y113.4 E.02453
G1 X106.601 Y102.317 E.58327
G1 X105.941 Y102.317 E.02454
G1 X117.684 Y114.059 E.61797
M73 P6 R3
G1 X117.684 Y114.719 E.02453
G1 X105.282 Y102.317 E.65268
G1 X104.623 Y102.317 E.02454
G1 X117.684 Y115.378 E.68738
G1 X117.684 Y116.037 E.02453
G1 X103.963 Y102.317 E.72209
G1 X103.304 Y102.317 E.02454
G1 X117.684 Y116.697 E.75679
G1 X117.684 Y117.356 E.02453
G1 X102.644 Y102.316 E.79149
M73 P7 R3
G1 X102.316 Y102.316 E.01221
G1 X102.316 Y102.647 E.01232
G1 X117.353 Y117.684 E.79133
G1 X116.693 Y117.684 E.02453
G1 X102.316 Y103.307 E.75663
G1 X102.316 Y103.966 E.02453
G1 X116.034 Y117.684 E.72193
G1 X115.375 Y117.684 E.02453
G1 X102.316 Y104.625 E.68724
M73 P8 R3
G1 X102.316 Y105.285 E.02453
G1 X114.715 Y117.684 E.65254
G1 X114.056 Y117.684 E.02453
G1 X102.316 Y105.944 E.61784
G1 X102.316 Y106.603 E.02453
G1 X113.397 Y117.684 E.58315
G1 X112.737 Y117.684 E.02453
G1 X102.316 Y107.263 E.54845
G1 X102.316 Y107.922 E.02453
G1 X112.078 Y117.684 E.51375
G1 X111.419 Y117.684 E.02453
G1 X102.316 Y108.581 E.47905
M73 P9 R3
G1 X102.316 Y109.24 E.02453
G1 X110.76 Y117.684 E.44436
G1 X110.1 Y117.684 E.02453
G1 X102.316 Y109.9 E.40966
G1 X102.316 Y110.559 E.02453
G1 X109.441 Y117.684 E.37496
G1 X108.782 Y117.684 E.02453
G1 X102.316 Y111.218 E.34026
G1 X102.316 Y111.878 E.02453
M73 P9 R2
G1 X108.122 Y117.684 E.30557
G1 X107.463 Y117.684 E.02453
G1 X102.316 Y112.537 E.27087
G1 X102.316 Y113.196 E.02453
G1 X106.804 Y117.684 E.23617
M73 P10 R2
G1 X106.144 Y117.684 E.02453
G1 X102.316 Y113.856 E.20148
G1 X102.316 Y114.515 E.02453
G1 X105.485 Y117.684 E.16678
G1 X104.826 Y117.684 E.02453
G1 X102.316 Y115.174 E.13208
G1 X102.316 Y115.833 E.02453
G1 X104.167 Y117.684 E.09738
G1 X103.507 Y117.684 E.02453
G1 X102.316 Y116.493 E.06269
G1 X102.316 Y117.152 E.02453
G1 X103.054 Y117.89 E.03881
;LAYER_CHANGE
;Z:0.4
;HEIGHT:0.2
;BEFORE_LAYER_CHANGE
;0.4
G92 E0

;WIPE_START
G1 F6300
G1 X102.316 Y117.152 E-.31291
G1 X102.316 Y116.493 E-.19779
G1 X102.527 Y116.703 E-.0893
;WIPE_END
EXCLUDE_OBJECT_END NAME=затычка.stp_id_0_copy_0
;_SET_FAN_SPEED_CHANGING_LAYER
SET_VELOCITY_LIMIT ACCEL=12000 ACCEL_TO_DECEL=6000
M140 S80 ; set bed temperature
SET_VELOCITY_LIMIT SQUARE_CORNER_VELOCITY=12
EXCLUDE_OBJECT_START NAME=затычка.stp_id_0_copy_0
G1 Z.4 F42000
G1 X118.536 Y101.565 Z.4
G1 E.6 F2400
SET_VELOCITY_LIMIT ACCEL=5000 ACCEL_TO_DECEL=2500 SQUARE_CORNER_VELOCITY=7
;TYPE:Inner wall
;WIDTH:0.449999
G1 F7929
G1 X118.541 Y118.362 E.5458
G1 X118.516 Y118.524 E.00534
G1 X118.426 Y118.541 E.00297
G1 X101.639 Y118.541 E.5455
G1 X101.476 Y118.516 E.00535
G1 X101.459 Y118.426 E.00297
G1 X101.459 Y101.639 E.5455
G1 X101.484 Y101.476 E.00535
G1 X101.574 Y101.459 E.00296
G1 X118.486 Y101.466 E.54954
M73 P11 R2
G1 X118.518 Y101.529 E.00233
SET_VELOCITY_LIMIT ACCEL=12000 ACCEL_TO_DECEL=6000 SQUARE_CORNER_VELOCITY=12
G1 X118.904 Y101.357 F42000
SET_VELOCITY_LIMIT ACCEL=5000 ACCEL_TO_DECEL=2500 SQUARE_CORNER_VELOCITY=7
G1 F7929
G1 X118.943 Y101.565 E.00686
G1 X118.948 Y118.362 E.5458
G1 X118.893 Y118.705 E.0113
G1 X118.715 Y118.886 E.00826
G1 X118.447 Y118.949 E.00894
G1 X101.639 Y118.949 E.54619
G1 X101.295 Y118.893 E.0113
G1 X101.114 Y118.715 E.00826
G1 X101.051 Y118.447 E.00894
G1 X101.051 Y101.639 E.54619
G1 X101.107 Y101.295 E.0113
G1 X101.285 Y101.114 E.00826
G1 X101.553 Y101.051 E.00893
G1 X118.502 Y101.058 E.55076
G1 X118.742 Y101.148 E.00832
G1 X118.89 Y101.321 E.0074
SET_VELOCITY_LIMIT ACCEL=12000 ACCEL_TO_DECEL=6000 SQUARE_CORNER_VELOCITY=12
G1 X119.298 Y101.282 F42000
SET_VELOCITY_LIMIT ACCEL=5000 ACCEL_TO_DECEL=2500 SQUARE_CORNER_VELOCITY=7
G1 F7929
G1 X119.35 Y101.565 E.00933
G1 X119.356 Y118.361 E.5458
G1 X119.291 Y118.815 E.01489
G1 X119.135 Y119.068 E.00966
G1 X118.849 Y119.278 E.01152
G1 X118.468 Y119.356 E.01263
G1 X101.639 Y119.356 E.54688
G1 X101.185 Y119.291 E.01489
G1 X100.932 Y119.135 E.00966
G1 X100.722 Y118.849 E.01152
G1 X100.644 Y118.468 E.01263
G1 X100.644 Y101.639 E.54688
G1 X100.709 Y101.185 E.01489
G1 X100.865 Y100.932 E.00966
G1 X101.151 Y100.722 E.01152
G1 X101.531 Y100.644 E.01262
G1 X118.435 Y100.651 E.54928
G1 X118.857 Y100.733 E.01398
G1 X119.096 Y100.9 E.00948
G1 X119.276 Y101.161 E.01028
G1 X119.291 Y101.243 E.00273
SET_VELOCITY_LIMIT ACCEL=12000 ACCEL_TO_DECEL=6000 SQUARE_CORNER_VELOCITY=12
G1 X119.693 Y101.21 F42000
SET_VELOCITY_LIMIT ACCEL=5000 ACCEL_TO_DECEL=2500 SQUARE_CORNER_VELOCITY=7
;TYPE:Outer wall
;WIDTH:0.419999
G1 F7771.55
G1 X119.742 Y101.565 E.01079
G1 F7749.777
G1 X119.742 Y102.349 E.0236
G1 F7327.189
G1 X119.747 Y117.571 E.45818
G1 F7305.264
G1 X119.748 Y118.361 E.02378
G1 X119.668 Y118.934 E.01741
G1 F7397.242
G1 X119.529 Y119.193 E.00885
G1 F7389.067
G1 X119.213 Y119.522 E.01373
G1 X118.898 Y119.674 E.01053
G1 F7301.492
G1 X118.489 Y119.748 E.01251
G1 X117.699 Y119.748 E.02378
G1 X102.428 Y119.748 E.45966
G1 X101.639 Y119.748 E.02375
G1 X101.066 Y119.668 E.01741
G1 F7397.261
G1 X100.807 Y119.529 E.00885
G1 F7389.062
G1 X100.478 Y119.213 E.01373
G1 X100.326 Y118.898 E.01053
G1 F7301.492
G1 X100.252 Y118.489 E.01251
G1 X100.252 Y117.699 E.02378
M73 P12 R2
G1 X100.252 Y102.428 E.45966
G1 X100.252 Y101.639 E.02375
G1 X100.332 Y101.066 E.01741
G1 F7397.268
G1 X100.471 Y100.807 E.00885
G1 F7389.062
G1 X100.787 Y100.478 E.01373
G1 X101.102 Y100.326 E.01053
G1 F7301.75
G1 X101.511 Y100.252 E.01251
G1 X102.301 Y100.253 E.02378
G1 F7329.614
G1 X117.819 Y100.259 E.46709
G1 F7415.063
G1 X118.608 Y100.259 E.02375
G1 X119.026 Y100.372 E.01303
G1 F7551.656
G1 X119.379 Y100.619 E.01297
G1 F7548.924
G1 X119.638 Y100.995 E.01374
G1 X119.683 Y101.171 E.00547
SET_VELOCITY_LIMIT ACCEL=12000 ACCEL_TO_DECEL=6000 SQUARE_CORNER_VELOCITY=12
;WIPE_START
G1 X119.742 Y101.565 E-.11947
G1 X119.743 Y103.166 E-.48053
;WIPE_END
G1 Z.6 F42000
G1 X118.164 Y118.097 Z.6
G1 Z.4
G1 E.6 F2400
;TYPE:Internal solid infill
;WIDTH:0.439796
G1 F7929
M106 S0
G1 X118.09 Y118.139 E.00272
G1 X118.169 Y118.174 E.00274
G1 X117.404 Y118.38 F42000
;WIDTH:0.421256
G1 F7929
G1 X118.21 Y117.574 E.03444
G1 X118.21 Y117.039 E.01615
G1 X117.038 Y118.21 E.05003
G1 X116.503 Y118.21 E.01616
G1 X118.21 Y116.504 E.07288
G1 X118.21 Y115.969 E.01615
G1 X115.968 Y118.21 E.09572
G1 X115.433 Y118.21 E.01616
G1 X118.209 Y115.434 E.11857
G1 X118.209 Y114.899 E.01615
G1 X114.898 Y118.21 E.14141
G1 X114.363 Y118.21 E.01616
G1 X118.209 Y114.365 E.16426
G1 X118.209 Y113.83 E.01615
G1 X113.828 Y118.21 E.1871
G1 X113.293 Y118.21 E.01616
G1 X118.209 Y113.295 E.20995
G1 X118.209 Y112.76 E.01615
G1 X112.758 Y118.21 E.23279
G1 X112.223 Y118.21 E.01616
G1 X118.208 Y112.225 E.25563
G1 X118.208 Y111.69 E.01615
G1 X111.688 Y118.21 E.27848
G1 X111.153 Y118.21 E.01616
G1 X118.208 Y111.155 E.30132
G1 X118.208 Y110.62 E.01615
G1 X110.618 Y118.21 E.32417
G1 X110.083 Y118.21 E.01616
G1 X118.208 Y110.086 E.34701
G1 X118.208 Y109.551 E.01615
G1 X109.548 Y118.21 E.36986
G1 X109.013 Y118.21 E.01616
G1 X118.207 Y109.016 E.3927
G1 X118.207 Y108.481 E.01615
G1 X108.478 Y118.21 E.41555
G1 X107.943 Y118.21 E.01616
G1 X118.207 Y107.946 E.43839
M73 P13 R2
G1 X118.207 Y107.411 E.01615
G1 X107.408 Y118.21 E.46123
G1 X106.873 Y118.21 E.01616
G1 X118.207 Y106.876 E.48408
G1 X118.207 Y106.341 E.01615
G1 X106.338 Y118.21 E.50692
G1 X105.802 Y118.21 E.01616
G1 X118.206 Y105.807 E.52977
G1 X118.206 Y105.272 E.01615
G1 X105.267 Y118.21 E.55261
G1 X104.732 Y118.21 E.01616
G1 X118.206 Y104.737 E.57546
G1 X118.206 Y104.202 E.01615
G1 X104.197 Y118.21 E.5983
G1 X103.662 Y118.21 E.01616
G1 X118.206 Y103.667 E.62114
G1 X118.205 Y103.132 E.01615
G1 X103.127 Y118.21 E.64399
G1 X102.592 Y118.21 E.01616
G1 X118.205 Y102.597 E.66683
G1 X118.205 Y102.062 E.01615
G1 X102.057 Y118.21 E.68968
G1 X101.79 Y118.21 E.00808
G1 X101.79 Y117.943 E.00808
G1 X117.936 Y101.796 E.68962
M73 P14 R2
G1 X117.401 Y101.796 E.01615
G1 X101.79 Y117.408 E.66678
G1 X101.79 Y116.873 E.01616
G1 X116.867 Y101.796 E.64394
G1 X116.332 Y101.796 E.01615
G1 X101.79 Y116.338 E.62109
G1 X101.79 Y115.803 E.01616
G1 X115.797 Y101.795 E.59825
G1 X115.262 Y101.795 E.01615
G1 X101.79 Y115.268 E.57541
G1 X101.79 Y114.733 E.01616
G1 X114.727 Y101.795 E.55257
G1 X114.192 Y101.795 E.01615
G1 X101.79 Y114.198 E.52972
G1 X101.79 Y113.663 E.01616
G1 X113.658 Y101.795 E.50688
G1 X113.123 Y101.794 E.01615
G1 X101.79 Y113.128 E.48404
G1 X101.79 Y112.592 E.01616
G1 X112.588 Y101.794 E.4612
G1 X112.053 Y101.794 E.01615
G1 X101.79 Y112.057 E.43835
G1 X101.79 Y111.522 E.01616
G1 X111.518 Y101.794 E.41551
M73 P15 R2
G1 X110.983 Y101.793 E.01615
G1 X101.79 Y110.987 E.39267
G1 X101.79 Y110.452 E.01616
G1 X110.449 Y101.793 E.36983
G1 X109.914 Y101.793 E.01615
G1 X101.79 Y109.917 E.34698
G1 X101.79 Y109.382 E.01616
G1 X109.379 Y101.793 E.32414
G1 X108.844 Y101.793 E.01615
G1 X101.79 Y108.847 E.3013
G1 X101.79 Y108.312 E.01616
G1 X108.309 Y101.792 E.27846
G1 X107.774 Y101.792 E.01615
G1 X101.79 Y107.777 E.25561
G1 X101.79 Y107.242 E.01616
G1 X107.24 Y101.792 E.23277
G1 X106.705 Y101.792 E.01615
G1 X101.79 Y106.707 E.20993
G1 X101.79 Y106.172 E.01616
G1 X106.17 Y101.791 E.18709
G1 X105.635 Y101.791 E.01615
G1 X101.79 Y105.637 E.16424
G1 X101.79 Y105.102 E.01616
G1 X105.1 Y101.791 E.1414
G1 X104.565 Y101.791 E.01615
G1 X101.79 Y104.567 E.11856
G1 X101.79 Y104.032 E.01616
G1 X104.031 Y101.791 E.09572
G1 X103.496 Y101.79 E.01615
G1 X101.79 Y103.497 E.07287
G1 X101.79 Y102.962 E.01616
G1 X102.961 Y101.79 E.05003
G1 X102.426 Y101.79 E.01615
G1 X101.62 Y102.596 E.03444
G1 X101.885 Y101.818 F42000
;WIDTH:0.439898
G1 F7929
G1 X101.811 Y101.861 E.00272
G1 X101.89 Y101.895 E.00274
;LAYER_CHANGE
;Z:0.6
;HEIGHT:0.2
;BEFORE_LAYER_CHANGE
;0.6
G92 E0

G1 E-.57262 F2400
;WIPE_START
G1 F15114.188
G1 X101.811 Y101.861 E-.01373
G1 X101.885 Y101.818 E-.01365
;WIPE_END
EXCLUDE_OBJECT_END NAME=затычка.stp_id_0_copy_0
;_SET_FAN_SPEED_CHANGING_LAYER
EXCLUDE_OBJECT_START NAME=затычка.stp_id_0_copy_0
G1 Z.6 F42000
G1 X118.438 Y118.584 Z.6
G1 E.6 F2400
SET_VELOCITY_LIMIT ACCEL=5000 ACCEL_TO_DECEL=2500 SQUARE_CORNER_VELOCITY=7
;TYPE:Inner wall
;WIDTH:0.449999
G1 F7901
G1 X101.568 Y118.584 E.54818
G1 X101.476 Y118.558 E.00313
G1 X101.416 Y118.438 E.00434
G1 X101.416 Y101.568 E.54818
G1 X101.442 Y101.476 E.00313
G1 X101.562 Y101.416 E.00434
G1 X118.518 Y101.422 E.55099
G1 X118.578 Y101.575 E.00535
G1 X118.584 Y118.432 E.54774
M73 P16 R2
G1 X118.558 Y118.524 E.00313
G1 X118.474 Y118.566 E.00304
SET_VELOCITY_LIMIT ACCEL=12000 ACCEL_TO_DECEL=6000 SQUARE_CORNER_VELOCITY=12
G1 X118.683 Y118.943 F42000
SET_VELOCITY_LIMIT ACCEL=5000 ACCEL_TO_DECEL=2500 SQUARE_CORNER_VELOCITY=7
G1 F7901
G1 X118.456 Y118.991 E.00754
G1 X101.503 Y118.991 E.55088
G1 X101.256 Y118.901 E.00854
G1 X101.057 Y118.683 E.0096
G1 X101.009 Y118.456 E.00754
G1 X101.009 Y101.503 E.55088
G1 X101.099 Y101.256 E.00854
G1 X101.317 Y101.057 E.0096
G1 X101.544 Y101.009 E.00754
G1 X118.499 Y101.015 E.55094
G1 X118.769 Y101.116 E.00937
