; HEADER_BLOCK_START
; generated by OrcaSlicer 2.1.0 on 2025-02-12 at 19:30:32
; total layer number: 90
; filament_density: 1.27
; filament_diameter: 1.75
; max_z_height: 18.00
; HEADER_BLOCK_END

; THUMBNAIL_BLOCK_START

;
; THUMBNAIL_BLOCK_END

; THUMBNAIL_BLOCK_START

;
; THUMBNAIL_BLOCK_END

; external perimeters extrusion width = 0.42mm
; perimeters extrusion width = 0.45mm
; infill extrusion width = 0.45mm
; solid infill extrusion width = 0.42mm
; top infill extrusion width = 0.42mm
; support material extrusion width = 0.42mm
; first layer extrusion width = 0.50mm

; external perimeters extrusion width = 0.42mm
; perimeters extrusion width = 0.45mm
; infill extrusion width = 0.45mm
; solid infill extrusion width = 0.42mm
; top infill extrusion width = 0.42mm
; support material extrusion width = 0.42mm
; first layer extrusion width = 0.50mm

; EXECUTABLE_BLOCK_START
EXCLUDE_OBJECT_DEFINE NAME=кабельканал_встав.stp_id_0_copy_0 CENTER=105.519,130.959 POLYGON=[[89.5194,126.959],[89.5252,126.731],[89.5425,126.503],[89.5713,126.277],[89.6115,126.053],[89.663,125.831],[89.7258,125.612],[89.7995,125.396],[89.8841,125.184],[89.9793,124.977],[90.0848,124.775],[90.2005,124.578],[90.3259,124.388],[90.4609,124.204],[90.605,124.028],[90.7578,123.858],[90.919,123.697],[91.0882,123.544],[91.2649,123.4],[91.4487,123.265],[91.639,123.14],[91.8355,123.024],[92.0376,122.919],[92.2448,122.823],[92.4565,122.739],[92.6722,122.665],[92.8914,122.602],[93.1135,122.551],[93.338,122.511],[93.5641,122.482],[93.7915,122.465],[94.0194,122.459],[121.519,122.459],[121.519,139.459],[94.0194,139.459],[93.7915,139.453],[93.5641,139.436],[93.338,139.407],[93.1135,139.367],[92.8914,139.315],[92.6722,139.252],[92.4565,139.179],[92.2448,139.094],[92.0376,138.999],[91.8355,138.893],[91.639,138.778],[91.4487,138.652],[91.2649,138.517],[91.0882,138.373],[90.919,138.22],[90.7578,138.059],[90.605,137.89],[90.4609,137.713],[90.3259,137.529],[90.2005,137.339],[90.0848,137.143],[89.9793,136.941],[89.8841,136.733],[89.7995,136.522],[89.7258,136.306],[89.663,136.087],[89.6115,135.865],[89.5713,135.64],[89.5425,135.414],[89.5252,135.187],[89.5194,134.959],[89.5194,126.959]]
EXCLUDE_OBJECT_DEFINE NAME=кабельканал.stp_id_1_copy_0 CENTER=104.658,170.566 POLYGON=[[88.6583,166.566],[88.6641,166.338],[88.6814,166.111],[88.7102,165.884],[88.7504,165.66],[88.8019,165.438],[88.8647,165.219],[88.9384,165.003],[89.023,164.791],[89.1182,164.584],[89.2237,164.382],[89.3394,164.185],[89.4649,163.995],[89.5998,163.811],[89.7439,163.635],[89.8967,163.465],[90.0579,163.304],[90.2271,163.151],[90.4038,163.007],[90.5876,162.872],[90.778,162.747],[90.9744,162.631],[91.1765,162.526],[91.3837,162.431],[91.5954,162.346],[91.8112,162.272],[92.0304,162.209],[92.2524,162.158],[92.4769,162.118],[92.703,162.089],[92.9304,162.072],[93.1583,162.066],[120.658,162.066],[120.658,179.066],[93.1583,179.066],[92.9304,179.06],[92.703,179.043],[92.4769,179.014],[92.2524,178.974],[92.0304,178.922],[91.8112,178.859],[91.5954,178.786],[91.3837,178.701],[91.1765,178.606],[90.9744,178.5],[90.778,178.385],[90.5876,178.259],[90.4038,178.124],[90.2271,177.98],[90.0579,177.827],[89.8967,177.666],[89.7439,177.497],[89.5998,177.32],[89.4649,177.137],[89.3394,176.946],[89.2237,176.75],[89.1182,176.548],[89.023,176.34],[88.9384,176.129],[88.8647,175.913],[88.8019,175.694],[88.7504,175.472],[88.7102,175.247],[88.6814,175.021],[88.6641,174.794],[88.6583,174.566],[88.6583,166.566]]
M73 P0 R16
M106 S0
M106 P2 S0
;TYPE:Custom
M140 S0
M104 S0 
START_PRINT EXTRUDER_TEMP=260 BED_TEMP=80
G90
G21
M83 ; use relative distances for extrusion
; filament start gcode
M106 S0
M106 P2 S0
;LAYER_CHANGE
;Z:0.2
;HEIGHT:0.2
;BEFORE_LAYER_CHANGE
;0.2
G92 E0

G1 E-.6 F2400
;_SET_FAN_SPEED_CHANGING_LAYER
SET_VELOCITY_LIMIT ACCEL=500 ACCEL_TO_DECEL=250
SET_VELOCITY_LIMIT SQUARE_CORNER_VELOCITY=9
EXCLUDE_OBJECT_START NAME=кабельканал_встав.stp_id_0_copy_0
G1 Z.2 F42000
G1 X107.77 Y126.087
G1 Z.2
G1 E.6 F2400
;TYPE:Inner wall
;WIDTH:0.499999
G1 F3600
G1 X107.748 Y126.287 E.00734
G1 X107.748 Y135.63 E.34089
G1 X107.787 Y135.981 E.01289
G1 X107.936 Y136.383 E.01563
G1 X108.245 Y136.789 E.01859
G1 X108.733 Y137.107 E.02126
;WIDTH:0.500222
G1 X109.348 Y137.23 E.02291
G1 X119.748 Y137.23 E.37964
G1 X119.748 Y137.687 E.01669
;WIDTH:0.500223
G1 X108.617 Y137.688 E.40634
;WIDTH:0.499999
G1 X98.316 Y137.688 E.37583
G1 X98.433 Y137.569 E.00608
G1 X98.796 Y137.111 E.02132
G1 X99.145 Y136.49 E.02599
G1 X99.381 Y135.849 E.02492
G1 X99.491 Y134.946 E.03318
G1 X99.491 Y126.833 E.29602
G1 X99.388 Y126.073 E.02798
G1 X99.172 Y125.46 E.02374
G1 X98.98 Y125.083 E.01541
G1 X98.708 Y124.657 E.01846
G1 X98.345 Y124.23 E.02043
G1 X108.617 Y124.23 E.37476
;WIDTH:0.500223
G1 X119.748 Y124.23 E.40634
G1 X119.748 Y124.687 E.01669
G1 X109.125 Y124.687 E.38777
G1 X108.733 Y124.811 E.01502
;WIDTH:0.499999
G1 X108.245 Y125.129 E.02126
G1 X107.936 Y125.534 E.01859
G1 X107.787 Y125.936 E.01563
G1 X107.775 Y126.048 E.00409
;WIPE_START
G1 X107.748 Y126.287 E-.07235
G1 X107.748 Y128.046 E-.52765
;WIPE_END
G1 Z.4 F42000
G1 X96.841 Y123.773 Z.4
G1 Z.2
G1 E.6 F2400
G1 F3600
G1 X120.205 Y123.773 E.85248
G1 X120.205 Y125.145 E.05005
G1 X109.348 Y125.145 E.39614
G1 X108.908 Y125.232 E.01635
G1 X108.56 Y125.46 E.01518
G1 X108.34 Y125.75 E.01328
G1 X108.233 Y126.036 E.01117
G1 X108.205 Y126.287 E.00921
G1 X108.205 Y135.806 E.3473
G1 X108.34 Y136.168 E.01409
G1 X108.56 Y136.458 E.01328
G1 X108.908 Y136.685 E.01518
G1 X109.348 Y136.773 E.01635
G1 X120.205 Y136.773 E.39614
G1 X120.205 Y138.145 E.05005
G1 X96.77 Y138.145 E.85506
G1 X97.277 Y137.91 E.02036
G1 X97.704 Y137.623 E.01881
G1 X98.084 Y137.274 E.01881
G1 X98.406 Y136.872 E.0188
G1 X98.75 Y136.26 E.02559
G1 X98.928 Y135.787 E.01847
G1 X99.034 Y134.946 E.0309
G1 X99.034 Y126.864 E.2949
G1 X98.935 Y126.134 E.02686
G1 X98.781 Y125.696 E.01696
G1 X98.594 Y125.329 E.01502
G1 X98.192 Y124.735 E.02617
G1 X97.768 Y124.324 E.02154
G1 X97.211 Y123.948 E.02453
G1 X96.877 Y123.79 E.01349
;WIPE_START
G1 X98.877 Y123.788 E-.6
;WIPE_END
G1 Z.4 F42000
G1 X91.982 Y125.627 Z.4
G1 Z.2
G1 E.6 F2400
;WIDTH:0.397387
G1 F3600
G1 X91.85 Y125.894 E.00841
;WIDTH:0.432978
G1 X91.807 Y126.161 E.00843
;WIDTH:0.468569
G1 X91.764 Y126.428 E.0092
;WIDTH:0.500223
G1 X91.748 Y127.054 E.02284
G1 X91.748 Y134.887 E.28593
G1 X91.765 Y135.31 E.01547
;WIDTH:0.469271
G1 X91.782 Y135.733 E.01442
;WIDTH:0.438319
G1 X91.866 Y136.003 E.00892
;WIDTH:0.40801
G1 X91.95 Y136.273 E.00824
;WIDTH:0.377701
G1 X92.366 Y136.931 E.0208
;WIDTH:0.35885
G1 X92.716 Y137.422 E.01521
G1 X92.206 Y137.084 E.01544
G1 X91.933 Y136.813 E.0097
;WIDTH:0.377701
G1 X91.663 Y136.442 E.01226
;WIDTH:0.413687
G1 X91.463 Y136.021 E.0138
;WIDTH:0.44837
G1 X91.393 Y135.705 E.01048
;WIDTH:0.483053
G1 X91.322 Y135.389 E.01138
;WIDTH:0.500223
G1 X91.291 Y134.887 E.01837
G1 X91.291 Y127.046 E.28621
G1 X91.339 Y126.407 E.0234
;WIDTH:0.468569
G1 X91.417 Y126.05 E.0124
;WIDTH:0.427713
G1 X91.595 Y125.598 E.01493
;WIDTH:0.386944
G1 X91.885 Y125.157 E.01449
;WIDTH:0.361059
G1 X92.278 Y124.778 E.01388
G1 X92.655 Y124.538 E.01132
G1 X92.402 Y124.878 E.01076
;WIDTH:0.364708
G1 X92.084 Y125.421 E.01616
;WIDTH:0.397387
G1 X92 Y125.591 E.00537
G1 X92.242 Y126.082 F42000
;WIDTH:0.499999
G1 F3600
G1 X92.205 Y126.287 E.0076
G1 X92.208 Y135.705 E.34363
G1 X92.31 Y136.108 E.01515
G1 X92.687 Y136.717 E.02615
G1 X93.041 Y137.211 E.02217
G1 X93.411 Y137.569 E.01879
G1 X93.832 Y137.867 E.01881
G1 X94.421 Y138.145 E.02377
G1 X94.049 Y138.144 E.01359
G1 X93.546 Y138.098 E.01843
G1 X92.968 Y137.953 E.02172
G1 X92.365 Y137.674 E.02426
G1 X91.977 Y137.396 E.01741
G1 X91.605 Y137.032 E.01901
G1 X91.299 Y136.604 E.01918
G1 X91 Y135.963 E.02581
G1 X90.874 Y135.441 E.01961
G1 X90.834 Y134.913 E.01932
G1 X90.834 Y127.019 E.28801
G1 X90.906 Y126.304 E.02621
G1 X91.054 Y125.811 E.01879
G1 X91.313 Y125.299 E.02093
G1 X91.702 Y124.776 E.02378
G1 X92.096 Y124.43 E.01914
G1 X92.661 Y124.084 E.02415
G1 X93.185 Y123.895 E.02033
G1 X93.742 Y123.797 E.02065
G1 X94.333 Y123.773 E.02157
G1 X93.969 Y123.942 E.01463
G1 X93.542 Y124.215 E.01849
G1 X93.161 Y124.548 E.01849
G1 X92.833 Y124.935 E.01849
G1 X92.547 Y125.399 E.01988
G1 X92.276 Y125.891 E.02051
G1 X92.249 Y126.043 E.00562
G1 X92.692 Y126.146 F42000
G1 F3600
G1 X92.719 Y126.015 E.0049
G1 X93.131 Y125.306 E.02991
G1 X93.47 Y124.885 E.01972
G1 X93.919 Y124.512 E.02129
G1 X94.47 Y124.208 E.02297
;WIDTH:0.54759
G1 X94.633 Y124.133 E.00721
;WIDTH:0.595181
G1 X94.795 Y124.058 E.0079
;WIDTH:0.642772
G1 X94.958 Y123.983 E.00858
G1 X95.704 Y123.939 E.0358
;WIDTH:0.618718
G1 X95.897 Y123.946 E.00886
G1 X96.059 Y123.997 E.0078
;WIDTH:0.579145
G1 X96.221 Y124.047 E.00726
;WIDTH:0.539572
G1 X96.383 Y124.098 E.00673
;WIDTH:0.499999
G1 X96.955 Y124.326 E.0225
G1 X97.512 Y124.703 E.02453
G1 X97.937 Y125.148 E.02245
G1 X98.209 Y125.575 E.01846
G1 X98.482 Y126.196 E.02474
G1 X98.576 Y126.895 E.02574
G1 X98.576 Y134.946 E.29377
G1 X98.476 Y135.724 E.02861
G1 X98.368 Y136.008 E.01108
G1 X98.017 Y136.633 E.02615
G1 X97.662 Y137.053 E.02005
G1 X97.321 Y137.34 E.01629
G1 X96.939 Y137.574 E.01633
;WIDTH:0.537885
G1 X96.696 Y137.68 E.01045
;WIDTH:0.575771
G1 X96.454 Y137.786 E.01125
;WIDTH:0.613656
G1 X96.212 Y137.891 E.01205
;WIDTH:0.626038
G1 X95.762 Y137.957 E.02117
;WIDTH:0.638555
G1 X95.192 Y137.942 E.02708
G1 X94.943 Y137.851 E.01262
;WIDTH:0.59237
G1 X94.694 Y137.759 E.01164
;WIDTH:0.546185
G1 X94.445 Y137.668 E.01066
;WIDTH:0.499999
G1 X93.96 Y137.409 E.02005
G1 X93.475 Y137 E.02315
G1 X93.286 Y136.79 E.01031
G1 X93 Y136.362 E.01878
G1 X92.884 Y136.112 E.01004
G1 X92.795 Y136.036 E.00427
G1 X92.674 Y135.759 E.01103
G1 X92.662 Y126.287 E.34558
G1 X92.683 Y126.185 E.0038
G1 X93.144 Y126.219 F42000
;TYPE:Outer wall
G1 F3600
G1 X93.173 Y126.14 E.00308
G1 X93.243 Y126.107 E.00282
G1 X93.354 Y125.828 E.01097
G1 X93.544 Y125.509 E.01355
G1 X93.954 Y125.061 E.02215
G1 X94.363 Y124.766 E.0184
G1 X94.699 Y124.608 E.01354
G1 X95.072 Y124.5 E.01415
M73 P1 R16
G1 X95.742 Y124.45 E.02454
G1 X96.298 Y124.547 E.02059
G1 X96.699 Y124.705 E.01572
G1 X97.256 Y125.082 E.02453
G1 X97.551 Y125.394 E.01568
G1 X97.823 Y125.821 E.01846
G1 X97.952 Y126.141 E.0126
G1 X98.029 Y126.257 E.00507
G1 X98.119 Y126.925 E.02462
G1 X98.119 Y134.946 E.29265
G1 X98.023 Y135.661 E.02633
G1 X97.987 Y135.756 E.00369
G1 X97.939 Y135.782 E.002
G1 X97.806 Y136.101 E.0126
G1 X97.607 Y136.422 E.01378
G1 X97.361 Y136.708 E.01378
G1 X97.075 Y136.955 E.01378
G1 X96.755 Y137.156 E.01379
G1 X96.403 Y137.307 E.01396
G1 X96.044 Y137.402 E.01357
G1 X95.668 Y137.442 E.01378
G1 X95.291 Y137.425 E.01378
G1 X94.921 Y137.352 E.01378
G1 X94.519 Y137.198 E.01568
G1 X93.986 Y136.857 E.0231
G1 X93.666 Y136.537 E.01653
G1 X93.38 Y136.108 E.01878
G1 X93.258 Y135.82 E.01144
G1 X93.14 Y135.726 E.0055
G1 X93.119 Y134.887 E.03062
G1 X93.119 Y126.287 E.31376
G1 X93.131 Y126.257 E.00119
;WIPE_START
G1 X93.173 Y126.14 E-.03732
G1 X93.243 Y126.107 E-.02318
G1 X93.354 Y125.828 E-.09019
G1 X93.544 Y125.509 E-.11141
G1 X93.954 Y125.061 E-.18209
G1 X94.363 Y124.766 E-.15129
G1 X94.377 Y124.76 E-.00452
;WIPE_END
G1 Z.4 F42000
G1 X91.188 Y124.704 Z.4
G1 Z.2
G1 E.6 F2400
;TYPE:Inner wall
G1 F3600
G1 X91.374 Y124.456 E.01129
G1 X91.785 Y124.085 E.02019
G1 X92.327 Y123.747 E.02333
G1 X92.657 Y123.594 E.01329
G1 X93.279 Y123.404 E.02372
G1 X93.892 Y123.328 E.02253
G1 X94.437 Y123.316 E.01989
;WIDTH:0.545425
G1 X94.628 Y123.339 E.00772
;WIDTH:0.59085
G1 X94.819 Y123.361 E.00842
;WIDTH:0.636275
G1 X95.011 Y123.384 E.00912
G1 X95.95 Y123.375 E.04449
;WIDTH:0.618718
G1 X96.118 Y123.355 E.0078
;WIDTH:0.579145
G1 X96.287 Y123.336 E.00726
;WIDTH:0.539572
G1 X96.455 Y123.316 E.00673
;WIDTH:0.499999
G1 X120.662 Y123.316 E.88321
G1 X120.662 Y125.602 E.0834
G1 X109.348 Y125.602 E.41282
G1 X109.084 Y125.654 E.00981
G1 X108.875 Y125.791 E.00911
G1 X108.743 Y125.965 E.00797
G1 X108.662 Y126.287 E.01213
G1 X108.662 Y135.63 E.34089
G1 X108.743 Y135.953 E.01213
G1 X108.875 Y136.127 E.00797
G1 X109.084 Y136.263 E.00911
G1 X109.348 Y136.316 E.00981
G1 X120.662 Y136.316 E.41282
G1 X120.662 Y138.602 E.0834
G1 X96.806 Y138.602 E.87043
;WIDTH:0.537885
G1 X96.637 Y138.583 E.00673
;WIDTH:0.575771
G1 X96.467 Y138.564 E.00724
;WIDTH:0.613656
G1 X96.298 Y138.545 E.00776
;WIDTH:0.626038
G1 X95.795 Y138.539 E.02345
;WIDTH:0.629554
G1 X95.295 Y138.537 E.02342
G1 X95.127 Y138.555 E.00788
;WIDTH:0.592736
G1 X94.96 Y138.574 E.00738
;WIDTH:0.555918
G1 X94.793 Y138.592 E.00689
;WIDTH:0.5191
G1 X94.284 Y138.602 E.01933
;WIDTH:0.499999
G1 X93.66 Y138.582 E.02279
G1 X93.16 Y138.493 E.01852
G1 X92.642 Y138.324 E.0199
G1 X92.153 Y138.08 E.01994
G1 X91.707 Y137.764 E.01994
G1 X91.311 Y137.384 E.02002
G1 X90.976 Y136.947 E.0201
G1 X90.7 Y136.446 E.02086
G1 X90.532 Y135.991 E.01771
G1 X90.414 Y135.424 E.0211
G1 X90.376 Y134.887 E.01967
G1 X90.376 Y126.986 E.28827
G1 X90.483 Y126.123 E.03173
G1 X90.639 Y125.62 E.01919
G1 X90.931 Y125.047 E.02346
G1 X91.164 Y124.736 E.0142
;WIPE_START
G1 X91.374 Y124.456 E-.10486
G1 X91.785 Y124.085 E-.16603
G1 X92.327 Y123.747 E-.19182
G1 X92.657 Y123.594 E-.10924
G1 X92.747 Y123.566 E-.02806
;WIPE_END
G1 Z.4 F42000
G1 X109.119 Y126.287 Z.4
G1 Z.2
G1 E.6 F2400
;TYPE:Outer wall
G1 F3600
G1 X109.119 Y135.63 E.34089
G1 X109.19 Y135.796 E.00657
G1 X109.348 Y135.859 E.00619
G1 X121.119 Y135.859 E.42949
G1 X121.119 Y139.059 E.11676
G1 X94.284 Y139.059 E.97911
G1 X93.608 Y139.037 E.0247
G1 X92.992 Y138.927 E.02283
G1 X92.403 Y138.726 E.02271
G1 X91.851 Y138.437 E.02272
G1 X91.349 Y138.069 E.02271
G1 X90.909 Y137.629 E.02271
G1 X90.541 Y137.127 E.02271
G1 X90.295 Y136.658 E.01933
G1 X90.109 Y136.189 E.0184
G1 X89.967 Y135.579 E.02283
G1 X89.919 Y134.947 E.02313
G1 X89.919 Y126.973 E.29096
G1 X90.005 Y126.131 E.03087
G1 X90.175 Y125.535 E.02262
G1 X90.435 Y124.969 E.02271
G1 X90.728 Y124.524 E.01944
G1 X91.046 Y124.137 E.01829
G1 X91.508 Y123.719 E.02273
G1 X92.217 Y123.277 E.03045
G1 X92.792 Y123.047 E.02262
G1 X93.399 Y122.907 E.02271
G1 X94.031 Y122.859 E.02313
G1 X121.119 Y122.859 E.98836
G1 X121.119 Y126.059 E.11676
G1 X109.348 Y126.059 E.42949
G1 X109.19 Y126.122 E.00619
G1 X109.135 Y126.251 E.00511
G1 X108.229 Y124.98 F42000
;TYPE:Bottom surface
;WIDTH:0.511497
G1 F6300
G1 X107.822 Y124.573 E.02154
G1 X107.159 Y124.573 E.02479
G1 X107.773 Y125.187 E.0325
G1 X107.633 Y125.371 E.00865
G1 X107.542 Y125.618 E.00985
G1 X106.496 Y124.573 E.05529
G1 X105.834 Y124.573 E.02479
G1 X107.419 Y126.158 E.08385
G1 X107.405 Y126.807 E.02428
G1 X105.171 Y124.573 E.11818
G1 X104.508 Y124.573 E.02479
G1 X107.405 Y127.47 E.15324
G1 X107.405 Y128.132 E.02479
G1 X103.846 Y124.573 E.18829
G1 X103.183 Y124.573 E.02479
G1 X107.405 Y128.795 E.22334
G1 X107.405 Y129.458 E.02479
G1 X102.52 Y124.573 E.2584
G1 X101.858 Y124.573 E.02479
G1 X107.405 Y130.12 E.29345
G1 X107.405 Y130.783 E.02479
G1 X101.195 Y124.573 E.3285
G1 X100.532 Y124.573 E.02479
G1 X107.405 Y131.446 E.36356
G1 X107.405 Y132.108 E.02479
G1 X99.87 Y124.573 E.39861
G1 X99.207 Y124.573 E.02479
G1 X107.405 Y132.771 E.43366
M73 P2 R16
G1 X107.405 Y133.434 E.02479
G1 X99.584 Y125.612 E.41373
G1 X99.726 Y126.016 E.016
G1 X99.789 Y126.48 E.01751
G1 X107.405 Y134.096 E.40289
G1 X107.405 Y134.759 E.02479
G1 X99.833 Y127.187 E.40053
G1 X99.833 Y127.85 E.02479
G1 X107.405 Y135.422 E.40053
G1 X107.405 Y135.637 E.00804
G1 X107.452 Y136.058 E.01587
G1 X107.495 Y136.174 E.00464
G1 X99.833 Y128.512 E.40529
G1 X99.833 Y129.175 E.02479
G1 X108.002 Y137.344 E.43212
M73 P2 R15
G1 X107.34 Y137.344 E.02479
G1 X99.833 Y129.838 E.39705
G1 X99.833 Y130.5 E.02479
G1 X106.677 Y137.344 E.36199
G1 X106.014 Y137.344 E.02479
G1 X99.833 Y131.163 E.32693
G1 X99.833 Y131.826 E.02479
G1 X105.351 Y137.343 E.29187
G1 X104.688 Y137.343 E.02479
G1 X99.833 Y132.488 E.2568
G1 X99.833 Y133.151 E.02479
G1 X104.025 Y137.343 E.22174
G1 X103.363 Y137.343 E.02479
G1 X99.833 Y133.814 E.18668
G1 X99.833 Y134.476 E.02479
G1 X102.7 Y137.343 E.15162
G1 X102.037 Y137.343 E.02479
G1 X99.821 Y135.127 E.1172
G1 X99.746 Y135.714 E.02214
G1 X101.374 Y137.342 E.08613
G1 X100.711 Y137.342 E.02479
