; HEADER_BLOCK_START
; generated by OrcaSlicer 2.1.0 on 2025-02-12 at 18:56:53
; total layer number: 90
; filament_density: 1.27
; filament_diameter: 1.75
; max_z_height: 18.00
; HEADER_BLOCK_END

; THUMBNAIL_BLOCK_START

;
; THUMBNAIL_BLOCK_END

; THUMBNAIL_BLOCK_START

;
; THUMBNAIL_BLOCK_END

; external perimeters extrusion width = 0.42mm
; perimeters extrusion width = 0.45mm
; infill extrusion width = 0.45mm
; solid infill extrusion width = 0.42mm
; top infill extrusion width = 0.42mm
; support material extrusion width = 0.42mm
; first layer extrusion width = 0.50mm

; EXECUTABLE_BLOCK_START
EXCLUDE_OBJECT_DEFINE NAME=кабельканал.stp_id_0_copy_0 CENTER=110,110 POLYGON=[[94,101.5],[126,101.5],[126,118.5],[94,118.5],[94,101.5]]
M73 P0 R12
M106 S0
M106 P2 S0
;TYPE:Custom
M140 S0
M104 S0 
START_PRINT EXTRUDER_TEMP=260 BED_TEMP=80
G90
G21
M83 ; use relative distances for extrusion
; filament start gcode
M106 S0
M106 P2 S0
;LAYER_CHANGE
;Z:0.2
;HEIGHT:0.2
;BEFORE_LAYER_CHANGE
;0.2
G92 E0

G1 E-.6 F2400
;_SET_FAN_SPEED_CHANGING_LAYER
SET_VELOCITY_LIMIT ACCEL=500 ACCEL_TO_DECEL=250
SET_VELOCITY_LIMIT SQUARE_CORNER_VELOCITY=9
EXCLUDE_OBJECT_START NAME=кабельканал.stp_id_0_copy_0
G1 Z.2 F42000
G1 X124.171 Y116.271
G1 Z.2
G1 E.6 F2400
;TYPE:Inner wall
;WIDTH:0.500223
G1 F3600
G1 X124.229 Y116.271 E.00209
G1 X124.229 Y116.729 E.01669
G1 X111.639 Y116.729 E.45956
;WIDTH:0.506034
G1 X110.458 Y116.729 E.04366
;WIDTH:0.499999
G1 X102.797 Y116.729 E.27955
G1 X102.913 Y116.61 E.00608
G1 X103.276 Y116.152 E.02132
G1 X103.626 Y115.531 E.02599
G1 X103.862 Y114.89 E.02492
G1 X103.971 Y113.988 E.03318
G1 X103.971 Y106.319 E.27982
G1 X103.957 Y105.768 E.02009
G1 X103.869 Y105.115 E.02406
G1 X103.652 Y104.501 E.02374
G1 X103.46 Y104.125 E.01541
G1 X103.188 Y103.698 E.01846
G1 X102.826 Y103.271 E.02043
G1 X109.811 Y103.271 E.25487
;WIDTH:0.533207
G1 X110.951 Y103.288 E.04462
G1 X111.639 Y103.271 E.02694
;WIDTH:0.500222
G1 X124.229 Y103.271 E.45956
G1 X124.229 Y103.748 E.01739
;WIDTH:0.500223
G1 X124.171 Y103.729 E.0022
G1 X111.639 Y103.729 E.45747
;WIDTH:0.533207
G1 X110.979 Y103.777 E.02592
G1 X110.576 Y103.893 E.01641
;WIDTH:0.5018
G1 X109.973 Y104.13 E.02371
;WIDTH:0.499999
G1 X109.608 Y104.332 E.01523
G1 X109.216 Y104.621 E.01776
G1 X108.915 Y104.911 E.01524
G1 X108.512 Y105.416 E.0236
G1 X108.297 Y105.774 E.01523
G1 X108.102 Y106.22 E.01776
G1 X107.986 Y106.621 E.01521
G1 X107.872 Y107.496 E.03223
G1 X107.878 Y112.664 E.18855
G1 X107.906 Y112.96 E.01084
G1 X108.088 Y113.747 E.02949
G1 X108.297 Y114.226 E.01906
G1 X108.765 Y114.928 E.03076
G1 X109.054 Y115.228 E.01523
G1 X109.56 Y115.631 E.0236
G1 X109.973 Y115.87 E.0174
;WIDTH:0.533203
G1 X110.979 Y116.223 E.04172
G1 X111.639 Y116.271 E.02592
;WIDTH:0.500223
G1 X124.131 Y116.271 E.45601
G1 X124.446 Y115.723 F42000
;WIDTH:0.499999
G1 F3600
G1 X124.686 Y115.643 E.00924
G1 X124.686 Y117.186 E.0563
G1 X101.251 Y117.186 E.85506
G1 X101.757 Y116.952 E.02036
G1 X102.185 Y116.664 E.01881
G1 X102.564 Y116.315 E.01881
G1 X102.887 Y115.913 E.0188
G1 X103.23 Y115.302 E.02559
G1 X103.409 Y114.828 E.01847
G1 X103.514 Y113.988 E.0309
G1 X103.504 Y105.829 E.29767
G1 X103.416 Y105.176 E.02406
G1 X103.261 Y104.737 E.01696
G1 X103.075 Y104.37 E.01502
G1 X102.673 Y103.776 E.02617
G1 X102.249 Y103.366 E.02154
G1 X101.692 Y102.989 E.02453
G1 X101.321 Y102.814 E.01495
G1 X124.686 Y102.814 E.85248
G1 X124.686 Y104.357 E.0563
G1 X124.171 Y104.186 E.01978
G1 X111.639 Y104.186 E.45725
G1 X111.032 Y104.247 E.02227
G1 X110.743 Y104.319 E.01086
G1 X110.14 Y104.555 E.02362
G1 X109.879 Y104.7 E.01088
G1 X109.273 Y105.196 E.02859
G1 X108.869 Y105.701 E.0236
G1 X108.521 Y106.403 E.02858
G1 X108.438 Y106.689 E.01087
G1 X108.329 Y107.498 E.02978
G1 X108.335 Y112.789 E.19305
G1 X108.521 Y113.598 E.03029
G1 X108.844 Y114.265 E.02704
G1 X109.339 Y114.871 E.02855
G1 X109.845 Y115.274 E.0236
G1 X110.14 Y115.444 E.01243
G1 X110.743 Y115.681 E.02363
G1 X111.032 Y115.753 E.01086
G1 X111.639 Y115.814 E.02227
G1 X124.171 Y115.814 E.45725
G1 X124.408 Y115.735 E.00909
G1 X124.309 Y115.311 F42000
G1 F3600
G1 X124.171 Y115.357 E.00527
G1 X111.639 Y115.357 E.45725
G1 X111.083 Y115.299 E.0204
G1 X110.307 Y115.019 E.03011
G1 X109.624 Y114.513 E.031
G1 X109.211 Y113.994 E.02422
G1 X108.94 Y113.415 E.02332
G1 X108.792 Y112.735 E.02538
G1 X108.786 Y107.497 E.19111
G1 X108.89 Y106.757 E.02726
G1 X109.134 Y106.14 E.02424
G1 X109.63 Y105.481 E.03009
G1 X110.151 Y105.067 E.02425
G1 X110.91 Y104.744 E.0301
G1 X111.591 Y104.643 E.02514
G1 X124.171 Y104.643 E.459
G1 X124.583 Y104.78 E.01582
G1 X124.699 Y105.054 E.01086
;WIDTH:0.45719
G1 X124.814 Y105.329 E.00984
;WIDTH:0.41438
G1 X124.814 Y114.671 E.27703
;WIDTH:0.420657
M73 P1 R12
G1 X124.808 Y114.783 E.00337
;WIDTH:0.460328
G1 X124.695 Y115.002 E.00819
;WIDTH:0.499999
G1 X124.583 Y115.22 E.00896
G1 X124.347 Y115.299 E.00909
;WIPE_START
G1 X124.171 Y115.357 E-.05536
G1 X122.356 Y115.357 E-.54464
;WIPE_END
G1 Z.4 F42000
G1 X96.464 Y115.462 Z.4
G1 Z.2
G1 E.6 F2400
;WIDTH:0.502921
G1 F3600
G1 X96.72 Y115.91 E.01895
;WIDTH:0.499999
G1 X97.006 Y116.339 E.01878
G1 X97.349 Y116.729 E.01897
G1 X95.771 Y116.729 E.05758
G1 X95.771 Y115.937 E.0289
;WIDTH:0.502921
G1 X95.771 Y114.671 E.04646
;WIDTH:0.500223
G1 X95.771 Y104.131 E.38479
;WIDTH:0.499999
G1 X95.771 Y103.271 E.03135
G1 X97.315 Y103.271 E.05633
G1 X97.169 Y103.426 E.00776
G1 X96.823 Y103.884 E.02096
G1 X96.539 Y104.382 E.0209
;WIDTH:0.500223
G1 X96.229 Y105.329 E.03636
G1 X96.229 Y114.889 E.34899
;WIDTH:0.502921
G1 X96.32 Y115.209 E.01224
G1 X96.445 Y115.427 E.00922
G1 X96.862 Y115.244 F42000
;WIDTH:0.499999
G1 F3600
G1 X97.106 Y115.665 E.01774
G1 X97.522 Y116.252 E.02625
G1 X97.892 Y116.61 E.01879
G1 X98.312 Y116.909 E.01881
G1 X98.902 Y117.186 E.02377
G1 X95.314 Y117.186 E.13091
G1 X95.314 Y102.814 E.52437
M73 P1 R11
G1 X98.799 Y102.814 E.12716
G1 X98.302 Y103.067 E.02035
G1 X97.89 Y103.361 E.01849
G1 X97.525 Y103.713 E.01849
G1 X97.217 Y104.116 E.01849
G1 X96.907 Y104.652 E.02261
G1 X96.686 Y105.329 E.02596
G1 X96.686 Y114.671 E.34089
G1 X96.752 Y115.055 E.01421
G1 X96.842 Y115.21 E.00652
G1 X97.255 Y115.024 F42000
G1 F3600
G1 X97.183 Y114.902 E.00518
G1 X97.143 Y114.671 E.00853
G1 X97.143 Y105.329 E.34089
G1 X97.305 Y104.886 E.01718
G1 X97.611 Y104.347 E.02264
G1 X97.951 Y103.926 E.01972
G1 X98.279 Y103.635 E.01602
G1 X98.647 Y103.395 E.01602
;WIDTH:0.547743
G1 X99.001 Y103.232 E.01571
;WIDTH:0.595486
G1 X99.354 Y103.068 E.0172
;WIDTH:0.636275
G1 X99.513 Y103.018 E.00789
G1 X100.185 Y102.98 E.03186
;WIDTH:0.618718
G1 X100.377 Y102.987 E.00886
G1 X100.539 Y103.038 E.0078
;WIDTH:0.579145
G1 X100.701 Y103.088 E.00726
;WIDTH:0.539572
G1 X100.863 Y103.139 E.00673
;WIDTH:0.499999
G1 X101.436 Y103.368 E.0225
G1 X101.993 Y103.744 E.02453
G1 X102.417 Y104.19 E.02245
G1 X102.689 Y104.616 E.01846
G1 X102.963 Y105.237 E.02474
G1 X103.051 Y105.89 E.02406
G1 X103.057 Y113.988 E.29544
G1 X102.956 Y114.765 E.02861
G1 X102.849 Y115.05 E.01108
G1 X102.497 Y115.674 E.02615
G1 X102.142 Y116.094 E.02005
G1 X101.801 Y116.382 E.01629
G1 X101.419 Y116.615 E.01633
;WIDTH:0.537885
G1 X101.177 Y116.721 E.01045
;WIDTH:0.575771
G1 X100.935 Y116.827 E.01125
;WIDTH:0.613656
G1 X100.692 Y116.933 E.01205
;WIDTH:0.626038
G1 X100.242 Y116.999 E.02117
;WIDTH:0.638555
G1 X99.673 Y116.983 E.02708
G1 X99.424 Y116.892 E.01262
;WIDTH:0.59237
G1 X99.174 Y116.801 E.01164
;WIDTH:0.546185
G1 X98.925 Y116.709 E.01066
;WIDTH:0.499999
G1 X98.441 Y116.45 E.02005
G1 X98.088 Y116.176 E.01629
G1 X97.766 Y115.831 E.01721
G1 X97.481 Y115.403 E.01878
G1 X97.276 Y115.058 E.01465
G1 X97.709 Y114.845 F42000
;TYPE:Outer wall
G1 F3600
G1 X97.649 Y114.813 E.00248
G1 X97.6 Y114.671 E.00545
G1 X97.6 Y105.329 E.34089
G1 X97.654 Y105.181 E.00573
G1 X97.724 Y105.149 E.00282
G1 X97.911 Y104.739 E.01645
G1 X98.237 Y104.288 E.02029
G1 X98.535 Y104.013 E.01478
G1 X98.844 Y103.808 E.01354
G1 X99.18 Y103.65 E.01354
G1 X99.552 Y103.542 E.01415
G1 X100.223 Y103.492 E.02454
G1 X100.779 Y103.588 E.02059
G1 X101.18 Y103.746 E.01572
G1 X101.737 Y104.123 E.02453
G1 X102.032 Y104.435 E.01568
G1 X102.304 Y104.862 E.01846
G1 X102.432 Y105.183 E.0126
G1 X102.51 Y105.298 E.00507
G1 X102.598 Y105.951 E.02406
G1 X102.6 Y113.988 E.29321
G1 X102.503 Y114.703 E.02633
G1 X102.468 Y114.797 E.00369
G1 X102.419 Y114.823 E.002
G1 X102.287 Y115.142 E.0126
G1 X102.087 Y115.463 E.01378
G1 X101.842 Y115.75 E.01378
G1 X101.556 Y115.996 E.01378
G1 X101.235 Y116.197 E.01379
G1 X100.884 Y116.349 E.01396
G1 X100.524 Y116.443 E.01357
G1 X100.149 Y116.483 E.01378
G1 X99.772 Y116.466 E.01378
G1 X99.401 Y116.393 E.01378
G1 X99.046 Y116.264 E.01377
G1 X98.715 Y116.084 E.01378
G1 X98.414 Y115.856 E.01378
G1 X98.146 Y115.578 E.01407
G1 X97.861 Y115.15 E.01878
G1 X97.741 Y114.866 E.01123
;WIPE_START
G1 X97.649 Y114.813 E-.03199
G1 X97.6 Y114.671 E-.04484
G1 X97.6 Y112.928 E-.52317
;WIPE_END
G1 Z.4 F42000
G1 X125.174 Y114.958 Z.4
G1 Z.2
G1 E.6 F2400
;TYPE:Inner wall
;WIDTH:0.45719
G1 F3600
G1 X125.164 Y115.131 E.00572
;WIDTH:0.499999
G1 X125.143 Y115.5 E.01349
G1 X125.143 Y117.643 E.07819
G1 X101.116 Y117.643 E.87663
;WIDTH:0.548504
G1 X100.95 Y117.619 E.00677
;WIDTH:0.597009
G1 X100.784 Y117.594 E.00742
;WIDTH:0.645514
G1 X100.618 Y117.57 E.00807
G1 X100.118 Y117.581 E.02406
;WIDTH:0.638555
G1 X99.617 Y117.574 E.02385
G1 X99.447 Y117.597 E.00814
;WIDTH:0.59237
G1 X99.278 Y117.62 E.00751
;WIDTH:0.546185
G1 X99.108 Y117.643 E.00688
;WIDTH:0.499999
G1 X94.857 Y117.643 E.15509
G1 X94.857 Y102.357 E.55772
G1 X98.918 Y102.357 E.14816
;WIDTH:0.545425
G1 X99.109 Y102.38 E.00772
;WIDTH:0.59085
G1 X99.3 Y102.403 E.00842
;WIDTH:0.636275
G1 X99.491 Y102.425 E.00912
G1 X100.431 Y102.416 E.04449
;WIDTH:0.618718
G1 X100.599 Y102.397 E.0078
;WIDTH:0.579145
G1 X100.768 Y102.377 E.00726
;WIDTH:0.539572
G1 X100.936 Y102.357 E.00673
;WIDTH:0.499999
G1 X125.143 Y102.357 E.88321
G1 X125.143 Y104.5 E.07819
M73 P2 R11
G1 X125.164 Y104.914 E.01514
;WIDTH:0.45719
G1 X125.186 Y105.329 E.01372
;WIDTH:0.41438
G1 X125.186 Y114.762 E.2797
;WIDTH:0.45719
G1 X125.177 Y114.918 E.00519
;WIPE_START
G1 X125.164 Y115.131 E-.06388
G1 X125.143 Y115.5 E-.11095
G1 X125.143 Y116.917 E-.42517
;WIPE_END
G1 Z.4 F42000
G1 X125.6 Y118.1 Z.4
G1 Z.2
G1 E.6 F2400
;TYPE:Outer wall
;WIDTH:0.499999
G1 F3600
G1 X94.4 Y118.1 E1.13836
G1 X94.4 Y101.9 E.59107
G1 X125.6 Y101.9 E1.13836
G1 X125.6 Y118.06 E.58961
;WIPE_START
G1 X123.6 Y118.063 E-.6
;WIPE_END
G1 Z.4 F42000
G1 X124.171 Y114.9 Z.4
G1 Z.2
G1 E.6 F2400
G1 F3600
G1 X111.639 Y114.9 E.45725
G1 X111.135 Y114.844 E.01852
G1 X110.474 Y114.593 E.02579
G1 X109.909 Y114.156 E.02606
G1 X109.579 Y113.722 E.01989
G1 X109.359 Y113.232 E.0196
G1 X109.249 Y112.685 E.02036
G1 X109.243 Y107.497 E.1893
G1 X109.342 Y106.826 E.02474
G1 X109.553 Y106.322 E.01991
G1 X109.988 Y105.766 E.02576
G1 X110.422 Y105.435 E.01992
G1 X111.077 Y105.17 E.02578
G1 X111.625 Y105.1 E.02016
G1 X124.171 Y105.1 E.45777
G1 X124.309 Y105.146 E.00527
G1 X124.4 Y105.329 E.00746
G1 X124.4 Y114.671 E.34089
G1 X124.309 Y114.854 E.00746
G1 X124.209 Y114.887 E.00381
;WIPE_START
G1 X122.209 Y114.889 E-.6
;WIPE_END
G1 Z.4 F42000
G1 X110.013 Y103.967 Z.4
G1 Z.2
G1 E.6 F2400
;TYPE:Bottom surface
;WIDTH:0.511704
G1 F6300
G1 X109.662 Y103.615 E.01859
G1 X108.998 Y103.615 E.02482
G1 X109.426 Y104.043 E.02264
G1 X109.043 Y104.323 E.01775
G1 X108.335 Y103.615 E.03746
G1 X107.672 Y103.615 E.02482
G1 X108.701 Y104.644 E.05447
G1 X108.401 Y105.006 E.01762
G1 X107.009 Y103.614 E.07367
G1 X106.346 Y103.614 E.02481
G1 X108.127 Y105.395 E.09427
G1 X107.985 Y105.631 E.01028
G1 X107.9 Y105.832 E.00817
G1 X105.683 Y103.614 E.11737
G1 X105.02 Y103.614 E.02481
G1 X107.709 Y106.304 E.14234
G1 X107.603 Y106.861 E.02122
G1 X104.357 Y103.614 E.17181
G1 X103.694 Y103.614 E.02481
G1 X107.532 Y107.453 E.20314
G1 X107.53 Y108.113 E.02472
G1 X104.061 Y104.645 E.18355
G1 X104.207 Y105.057 E.01637
G1 X104.266 Y105.512 E.01716
G1 X107.531 Y108.777 E.17277
G1 X107.531 Y109.441 E.02484
G1 X104.31 Y106.219 E.17048
G1 X104.31 Y106.883 E.02482
G1 X107.532 Y110.104 E.1705
G1 X107.533 Y110.768 E.02484
G1 X104.311 Y107.546 E.17052
G1 X104.311 Y108.209 E.02482
G1 X107.534 Y111.432 E.17055
G1 X107.534 Y112.096 E.02484
M73 P3 R11
G1 X104.311 Y108.872 E.17057
G1 X104.312 Y109.536 E.02482
G1 X107.544 Y112.768 E.17108
G1 X107.568 Y113.019 E.00941
G1 X107.672 Y113.559 E.02061
G1 X104.312 Y110.199 E.17784
G1 X104.312 Y110.862 E.02482
G1 X109.836 Y116.386 E.2923
G1 X109.173 Y116.385 E.02482
G1 X104.313 Y111.526 E.25718
G1 X104.313 Y112.189 E.02482
G1 X108.509 Y116.385 E.22206
G1 X107.846 Y116.385 E.02482
G1 X104.313 Y112.852 E.18695
G1 X104.314 Y113.516 E.02482
G1 X107.183 Y116.385 E.15183
G1 X106.52 Y116.384 E.02482
G1 X104.302 Y114.167 E.11736
G1 X104.227 Y114.754 E.02217
G1 X105.856 Y116.384 E.08625
G1 X105.193 Y116.384 E.02482
G1 X104.081 Y115.272 E.05885
G1 X103.897 Y115.751 E.0192
G1 X104.53 Y116.383 E.03348
G1 X103.867 Y116.383 E.02482
G1 X103.51 Y116.027 E.01887
;WIPE_START
G1 X103.867 Y116.383 E-.15124
G1 X104.53 Y116.383 E-.19897
G1 X103.941 Y115.795 E-.24979
;WIPE_END
G1 Z.4 F42000
G1 X96.783 Y116.248 Z.4
G1 Z.2
G1 E.6 F2400
;WIDTH:0.591415
G1 F6300
G1 X96.148 Y115.613 E.03934
G1 X96.122 Y115.619 E.00116
G1 X96.115 Y116.356 E.03225
G1 X96.351 Y116.592 E.0146
;WIPE_START
G1 X96.115 Y116.356 E-.1003
G1 X96.122 Y115.619 E-.22152
G1 X96.148 Y115.613 E-.00795
G1 X96.783 Y116.248 E-.27023
;WIPE_END
G1 Z.4 F42000
G1 X96.33 Y104.616 Z.4
G1 Z.2
G1 E.6 F2400
G1 F6300
G1 X96.114 Y104.401 E.01334
G1 X96.114 Y103.625 E.03397
G1 X96.56 Y104.071 E.02758
;LAYER_CHANGE
;Z:0.4
;HEIGHT:0.2
;BEFORE_LAYER_CHANGE
;0.4
G92 E0

;WIPE_START
G1 F6300
G1 X96.114 Y103.625 E-.22099
G1 X96.114 Y104.401 E-.27211
G1 X96.33 Y104.616 E-.1069
;WIPE_END
EXCLUDE_OBJECT_END NAME=кабельканал.stp_id_0_copy_0
;_SET_FAN_SPEED_CHANGING_LAYER
SET_VELOCITY_LIMIT ACCEL=12000 ACCEL_TO_DECEL=6000
M140 S80 ; set bed temperature
SET_VELOCITY_LIMIT SQUARE_CORNER_VELOCITY=12
EXCLUDE_OBJECT_START NAME=кабельканал.stp_id_0_copy_0
G1 Z.4 F42000
G1 X124.496 Y115.758 Z.4
G1 E.6 F2400
SET_VELOCITY_LIMIT ACCEL=5000 ACCEL_TO_DECEL=2500 SQUARE_CORNER_VELOCITY=7
;TYPE:Inner wall
;WIDTH:0.449999
G1 F7535
G1 X124.584 Y115.729 E.00299
G1 X124.584 Y117.084 E.04403
G1 X101.721 Y117.084 E.74292
G1 X102.26 Y116.73 E.02096
G1 X102.533 Y116.483 E.01195
G1 X102.945 Y115.994 E.02078
G1 X103.164 Y115.639 E.01356
G1 X103.478 Y114.962 E.02424
G1 X103.538 Y114.695 E.00891
G1 X103.616 Y113.986 E.02317
G1 X103.616 Y106.921 E.22958
G1 X103.606 Y105.819 E.03579
G1 X103.546 Y105.314 E.01655
G1 X103.289 Y104.58 E.02526
G1 X103.02 Y104.073 E.01865
G1 X102.56 Y103.507 E.0237
G1 X102.106 Y103.12 E.0194
G1 X101.765 Y102.916 E.0129
G1 X124.584 Y102.916 E.74149
G1 X124.584 Y104.271 E.04403
G1 X124.021 Y104.084 E.01926
G1 X111.642 Y104.084 E.40225
G1 X111.101 Y104.127 E.01767
G1 X110.544 Y104.271 E.01867
G1 X110.202 Y104.413 E.01203
G1 X109.668 Y104.725 E.02009
G1 X109.382 Y104.946 E.01174
G1 X109.074 Y105.256 E.0142
G1 X108.855 Y105.542 E.01172
G1 X108.439 Y106.318 E.02861
G1 X108.297 Y106.837 E.0175
G1 X108.227 Y107.499 E.02163
G1 X108.227 Y112.572 E.16484
G1 X108.297 Y113.163 E.01932
G1 X108.438 Y113.68 E.01741
G1 X108.647 Y114.136 E.0163
G1 X109.041 Y114.706 E.02253
G1 X109.594 Y115.227 E.02469
G1 X109.899 Y115.427 E.01183
G1 X110.442 Y115.688 E.01959
G1 X110.839 Y115.811 E.01351
G1 X111.642 Y115.916 E.02632
G1 X124.021 Y115.916 E.40225
G1 X124.459 Y115.771 E.01497
SET_VELOCITY_LIMIT ACCEL=12000 ACCEL_TO_DECEL=6000 SQUARE_CORNER_VELOCITY=12
G1 E-.27434 F2400
;WIPE_START
G1 F14739.152
G1 X124.584 Y115.729 E-.0215
G1 X124.584 Y117.084 E-.22063
G1 X124.071 Y117.084 E-.08353
;WIPE_END
G1 Z.6 F42000
G1 X96.734 Y115.098 Z.6
G1 Z.4
G1 E.6 F2400
SET_VELOCITY_LIMIT ACCEL=5000 ACCEL_TO_DECEL=2500 SQUARE_CORNER_VELOCITY=7
G1 F7535
G1 X96.818 Y115.317 E.00761
G1 X97.06 Y115.775 E.01683
G1 X97.357 Y116.205 E.017
G1 X98.051 Y116.86 E.031
G1 X98.423 Y117.084 E.0141
G1 X95.416 Y117.084 E.0977
G1 X95.416 Y102.916 E.46037
G1 X98.401 Y102.916 E.097
G1 X98.063 Y103.11 E.01268
G1 X97.739 Y103.366 E.01342
