; HEADER_BLOCK_START
; generated by OrcaSlicer 2.1.0 on 2025-02-12 at 19:59:38
; total layer number: 90
; filament_density: 1.27
; filament_diameter: 1.75
; max_z_height: 18.00
; HEADER_BLOCK_END

; THUMBNAIL_BLOCK_START

;
; THUMBNAIL_BLOCK_END

; THUMBNAIL_BLOCK_START

;
; THUMBNAIL_BLOCK_END

; external perimeters extrusion width = 0.42mm
; perimeters extrusion width = 0.45mm
; infill extrusion width = 0.45mm
; solid infill extrusion width = 0.42mm
; top infill extrusion width = 0.42mm
; support material extrusion width = 0.42mm
; first layer extrusion width = 0.50mm

; external perimeters extrusion width = 0.42mm
; perimeters extrusion width = 0.45mm
; infill extrusion width = 0.45mm
; solid infill extrusion width = 0.42mm
; top infill extrusion width = 0.42mm
; support material extrusion width = 0.42mm
; first layer extrusion width = 0.50mm

; EXECUTABLE_BLOCK_START
EXCLUDE_OBJECT_DEFINE NAME=кабельканал.stp_id_0_copy_0 CENTER=43.0082,173.672 POLYGON=[[27.0082,169.672],[27.0139,169.444],[27.0313,169.217],[27.0601,168.991],[27.1003,168.766],[27.1518,168.544],[27.2145,168.325],[27.2883,168.109],[27.3729,167.898],[27.4681,167.69],[27.5736,167.488],[27.6893,167.292],[27.8147,167.101],[27.9497,166.918],[28.0938,166.741],[28.2466,166.572],[28.4078,166.411],[28.577,166.258],[28.7537,166.114],[28.9375,165.979],[29.1278,165.853],[29.3243,165.738],[29.5264,165.632],[29.7336,165.537],[29.9453,165.452],[30.161,165.379],[30.3802,165.316],[30.6023,165.264],[30.8267,165.224],[31.0529,165.195],[31.2803,165.178],[31.5082,165.172],[59.0082,165.172],[59.0082,182.172],[31.5082,182.172],[31.2803,182.166],[31.0529,182.149],[30.8267,182.12],[30.6023,182.08],[30.3802,182.029],[30.161,181.966],[29.9453,181.892],[29.7336,181.807],[29.5264,181.712],[29.3243,181.607],[29.1278,181.491],[28.9375,181.366],[28.7537,181.231],[28.577,181.087],[28.4078,180.934],[28.2466,180.773],[28.0938,180.603],[27.9497,180.427],[27.8147,180.243],[27.6893,180.053],[27.5736,179.856],[27.4681,179.654],[27.3729,179.447],[27.2883,179.235],[27.2145,179.019],[27.1518,178.8],[27.1003,178.578],[27.0601,178.354],[27.0313,178.127],[27.0139,177.9],[27.0082,177.672],[27.0082,169.672]]
EXCLUDE_OBJECT_DEFINE NAME=кабельканал_встав.stp_id_1_copy_0 CENTER=103.45,175.182 POLYGON=[[87.4498,171.182],[87.4556,170.954],[87.4729,170.727],[87.5017,170.501],[87.5419,170.276],[87.5934,170.054],[87.6562,169.835],[87.7299,169.619],[87.8145,169.408],[87.9097,169.201],[88.0152,168.998],[88.1309,168.802],[88.2563,168.612],[88.3913,168.428],[88.5354,168.251],[88.6882,168.082],[88.8494,167.921],[89.0186,167.768],[89.1953,167.624],[89.3791,167.489],[89.5694,167.363],[89.7659,167.248],[89.968,167.142],[90.1752,167.047],[90.3869,166.962],[90.6027,166.889],[90.8218,166.826],[91.0439,166.774],[91.2684,166.734],[91.4945,166.705],[91.7219,166.688],[91.9498,166.682],[119.45,166.682],[119.45,183.682],[91.9498,183.682],[91.7219,183.676],[91.4945,183.659],[91.2684,183.63],[91.0439,183.59],[90.8218,183.539],[90.6027,183.476],[90.3869,183.402],[90.1752,183.318],[89.968,183.222],[89.7659,183.117],[89.5694,183.001],[89.3791,182.876],[89.1953,182.741],[89.0186,182.597],[88.8494,182.444],[88.6882,182.283],[88.5354,182.113],[88.3913,181.937],[88.2563,181.753],[88.1309,181.563],[88.0152,181.366],[87.9097,181.164],[87.8145,180.957],[87.7299,180.745],[87.6562,180.529],[87.5934,180.31],[87.5419,180.088],[87.5017,179.864],[87.4729,179.638],[87.4556,179.41],[87.4498,179.182],[87.4498,171.182]]
M73 P0 R18
M106 S0
M106 P2 S0
;TYPE:Custom
M140 S0
M104 S0 
START_PRINT EXTRUDER_TEMP=260 BED_TEMP=80
G90
G21
M83 ; use relative distances for extrusion
; filament start gcode
M106 S0
M106 P2 S0
;LAYER_CHANGE
;Z:0.2
;HEIGHT:0.2
;BEFORE_LAYER_CHANGE
;0.2
G92 E0

G1 E-.6 F2400
;_SET_FAN_SPEED_CHANGING_LAYER
SET_VELOCITY_LIMIT ACCEL=500 ACCEL_TO_DECEL=250
SET_VELOCITY_LIMIT SQUARE_CORNER_VELOCITY=9
EXCLUDE_OBJECT_START NAME=кабельканал.stp_id_0_copy_0
G1 Z.2 F42000
G1 X45.259 Y168.801
G1 Z.2
G1 E.6 F2400
;TYPE:Inner wall
;WIDTH:0.499999
G1 F3600
G1 X45.237 Y169.001 E.00734
G1 X45.237 Y178.344 E.34089
G1 X45.276 Y178.695 E.01289
G1 X45.425 Y179.096 E.01563
G1 X45.733 Y179.502 E.01859
G1 X46.221 Y179.82 E.02126
;WIDTH:0.500222
G1 X46.837 Y179.944 E.02291
G1 X57.237 Y179.944 E.37964
G1 X57.237 Y180.401 E.01669
;WIDTH:0.500223
G1 X46.105 Y180.401 E.40634
;WIDTH:0.499999
G1 X35.805 Y180.401 E.37583
G1 X35.922 Y180.282 E.00608
G1 X36.285 Y179.824 E.02132
G1 X36.634 Y179.204 E.02599
G1 X36.87 Y178.563 E.02492
G1 X36.979 Y177.66 E.03318
G1 X36.979 Y169.547 E.29602
G1 X36.877 Y168.787 E.02798
G1 X36.661 Y168.173 E.02374
G1 X36.468 Y167.797 E.01541
G1 X36.196 Y167.37 E.01846
G1 X35.834 Y166.943 E.02043
G1 X46.105 Y166.943 E.37476
;WIDTH:0.500223
G1 X57.237 Y166.944 E.40634
G1 X57.237 Y167.401 E.01669
G1 X46.614 Y167.401 E.38777
M73 P0 R17
G1 X46.221 Y167.524 E.01502
;WIDTH:0.499999
G1 X45.733 Y167.842 E.02126
G1 X45.425 Y168.248 E.01859
G1 X45.276 Y168.65 E.01563
G1 X45.264 Y168.761 E.00409
;WIPE_START
G1 X45.237 Y169.001 E-.07235
G1 X45.237 Y170.76 E-.52765
;WIPE_END
G1 Z.4 F42000
G1 X34.329 Y166.486 Z.4
G1 Z.2
G1 E.6 F2400
G1 F3600
G1 X57.694 Y166.486 E.85248
G1 X57.694 Y167.858 E.05005
G1 X46.837 Y167.858 E.39614
G1 X46.397 Y167.946 E.01635
G1 X46.049 Y168.173 E.01518
G1 X45.828 Y168.463 E.01328
G1 X45.722 Y168.75 E.01117
G1 X45.694 Y169.001 E.00921
G1 X45.694 Y178.519 E.3473
G1 X45.828 Y178.881 E.01409
G1 X46.049 Y179.171 E.01328
G1 X46.397 Y179.398 E.01518
G1 X46.837 Y179.486 E.01635
G1 X57.694 Y179.486 E.39614
G1 X57.694 Y180.858 E.05005
G1 X34.259 Y180.858 E.85506
G1 X34.765 Y180.624 E.02036
G1 X35.193 Y180.336 E.01881
G1 X35.572 Y179.987 E.01881
G1 X35.895 Y179.585 E.0188
G1 X36.238 Y178.974 E.02559
G1 X36.417 Y178.5 E.01847
G1 X36.522 Y177.66 E.0309
G1 X36.522 Y169.577 E.2949
G1 X36.424 Y168.848 E.02686
G1 X36.269 Y168.41 E.01696
G1 X36.083 Y168.043 E.01502
G1 X35.681 Y167.449 E.02617
G1 X35.257 Y167.038 E.02154
G1 X34.7 Y166.661 E.02453
G1 X34.366 Y166.503 E.01349
;WIPE_START
G1 X36.366 Y166.502 E-.6
;WIPE_END
G1 Z.4 F42000
G1 X29.471 Y168.341 Z.4
G1 Z.2
G1 E.6 F2400
;WIDTH:0.397387
G1 F3600
G1 X29.339 Y168.607 E.00841
;WIDTH:0.432978
G1 X29.296 Y168.874 E.00843
;WIDTH:0.468569
G1 X29.253 Y169.142 E.0092
;WIDTH:0.500223
G1 X29.237 Y169.767 E.02284
G1 X29.237 Y177.6 E.28593
G1 X29.254 Y178.023 E.01547
;WIDTH:0.469271
G1 X29.271 Y178.447 E.01442
;WIDTH:0.438319
G1 X29.355 Y178.717 E.00892
;WIDTH:0.40801
G1 X29.439 Y178.987 E.00824
;WIDTH:0.377701
G1 X29.855 Y179.645 E.0208
;WIDTH:0.35885
G1 X30.205 Y180.136 E.01521
G1 X29.695 Y179.798 E.01544
G1 X29.422 Y179.527 E.0097
;WIDTH:0.377701
G1 X29.152 Y179.156 E.01226
;WIDTH:0.413687
G1 X28.952 Y178.735 E.0138
;WIDTH:0.44837
G1 X28.881 Y178.418 E.01048
;WIDTH:0.483053
G1 X28.811 Y178.102 E.01138
;WIDTH:0.500223
G1 X28.78 Y177.6 E.01837
G1 X28.78 Y169.759 E.28621
G1 X28.828 Y169.12 E.0234
;WIDTH:0.468569
G1 X28.905 Y168.764 E.0124
;WIDTH:0.427713
G1 X29.084 Y168.312 E.01493
;WIDTH:0.386944
G1 X29.374 Y167.871 E.01449
;WIDTH:0.361059
G1 X29.767 Y167.491 E.01388
G1 X30.143 Y167.252 E.01132
G1 X29.891 Y167.592 E.01076
;WIDTH:0.364708
G1 X29.573 Y168.135 E.01616
;WIDTH:0.397387
G1 X29.489 Y168.305 E.00537
G1 X29.731 Y168.796 F42000
;WIDTH:0.499999
G1 F3600
G1 X29.694 Y169.001 E.0076
G1 X29.696 Y178.419 E.34363
G1 X29.799 Y178.821 E.01515
G1 X30.176 Y179.43 E.02615
G1 X30.53 Y179.924 E.02217
G1 X30.9 Y180.282 E.01879
G1 X31.321 Y180.581 E.01881
G1 X31.91 Y180.858 E.02377
G1 X31.538 Y180.858 E.01359
G1 X31.035 Y180.811 E.01843
G1 X30.457 Y180.666 E.02172
G1 X29.853 Y180.388 E.02426
G1 X29.466 Y180.109 E.01741
G1 X29.093 Y179.745 E.01901
G1 X28.788 Y179.318 E.01918
G1 X28.489 Y178.676 E.02581
G1 X28.362 Y178.154 E.01961
G1 X28.322 Y177.626 E.01932
G1 X28.322 Y169.732 E.28801
G1 X28.395 Y169.018 E.02621
G1 X28.543 Y168.525 E.01879
G1 X28.802 Y168.012 E.02093
G1 X29.191 Y167.489 E.02378
G1 X29.585 Y167.143 E.01914
G1 X30.149 Y166.798 E.02415
G1 X30.673 Y166.608 E.02033
G1 X31.231 Y166.511 E.02065
G1 X31.821 Y166.486 E.02157
G1 X31.458 Y166.655 E.01463
G1 X31.031 Y166.928 E.01849
G1 X30.649 Y167.262 E.01849
G1 X30.322 Y167.648 E.01849
G1 X30.036 Y168.112 E.01988
G1 X29.765 Y168.605 E.02051
G1 X29.738 Y168.756 E.00562
G1 X30.18 Y168.859 F42000
G1 F3600
G1 X30.208 Y168.728 E.0049
G1 X30.619 Y168.019 E.02991
G1 X30.959 Y167.598 E.01972
G1 X31.408 Y167.225 E.02129
G1 X31.959 Y166.922 E.02297
;WIDTH:0.54759
G1 X32.122 Y166.847 E.00721
;WIDTH:0.595181
G1 X32.284 Y166.771 E.0079
;WIDTH:0.642772
G1 X32.447 Y166.696 E.00858
G1 X33.193 Y166.652 E.0358
;WIDTH:0.618718
G1 X33.386 Y166.659 E.00886
G1 X33.548 Y166.71 E.0078
;WIDTH:0.579145
G1 X33.709 Y166.761 E.00726
;WIDTH:0.539572
G1 X33.871 Y166.811 E.00673
;WIDTH:0.499999
G1 X34.444 Y167.04 E.0225
G1 X35.001 Y167.416 E.02453
G1 X35.426 Y167.862 E.02245
G1 X35.698 Y168.288 E.01846
G1 X35.971 Y168.909 E.02474
G1 X36.065 Y169.608 E.02574
G1 X36.065 Y177.66 E.29377
G1 X35.964 Y178.437 E.02861
G1 X35.857 Y178.722 E.01108
G1 X35.505 Y179.346 E.02615
G1 X35.151 Y179.766 E.02005
G1 X34.809 Y180.054 E.01629
G1 X34.427 Y180.288 E.01633
;WIDTH:0.537885
G1 X34.185 Y180.393 E.01045
;WIDTH:0.575771
G1 X33.943 Y180.499 E.01125
;WIDTH:0.613656
G1 X33.7 Y180.605 E.01205
;WIDTH:0.626038
G1 X33.25 Y180.671 E.02117
;WIDTH:0.638555
G1 X32.681 Y180.655 E.02708
G1 X32.432 Y180.564 E.01262
;WIDTH:0.59237
G1 X32.183 Y180.473 E.01164
;WIDTH:0.546185
G1 X31.933 Y180.381 E.01066
;WIDTH:0.499999
G1 X31.449 Y180.122 E.02005
G1 X30.964 Y179.713 E.02315
G1 X30.774 Y179.504 E.01031
G1 X30.489 Y179.075 E.01878
G1 X30.373 Y178.826 E.01004
G1 X30.284 Y178.749 E.00427
G1 X30.163 Y178.472 E.01103
G1 X30.151 Y169.001 E.34558
G1 X30.172 Y168.899 E.0038
G1 X30.633 Y168.933 F42000
;TYPE:Outer wall
G1 F3600
G1 X30.662 Y168.853 E.00308
G1 X30.732 Y168.821 E.00282
G1 X30.843 Y168.541 E.01097
G1 X31.033 Y168.222 E.01355
G1 X31.443 Y167.774 E.02215
G1 X31.852 Y167.48 E.0184
G1 X32.188 Y167.322 E.01354
G1 X32.561 Y167.214 E.01415
G1 X33.231 Y167.164 E.02454
G1 X33.787 Y167.26 E.02059
G1 X34.188 Y167.418 E.01572
G1 X34.745 Y167.795 E.02453
G1 X35.04 Y168.107 E.01568
G1 X35.312 Y168.534 E.01846
G1 X35.441 Y168.855 E.0126
G1 X35.518 Y168.97 E.00507
G1 X35.608 Y169.639 E.02462
G1 X35.608 Y177.66 E.29265
G1 X35.512 Y178.375 E.02633
G1 X35.476 Y178.47 E.00369
G1 X35.427 Y178.496 E.002
G1 X35.295 Y178.815 E.0126
G1 X35.095 Y179.135 E.01378
G1 X34.85 Y179.422 E.01378
G1 X34.564 Y179.668 E.01378
G1 X34.244 Y179.869 E.01379
G1 X33.892 Y180.021 E.01396
G1 X33.532 Y180.115 E.01357
G1 X33.157 Y180.155 E.01378
G1 X32.78 Y180.139 E.01378
G1 X32.409 Y180.065 E.01378
G1 X32.008 Y179.912 E.01568
G1 X31.475 Y179.57 E.0231
G1 X31.155 Y179.25 E.01653
G1 X30.869 Y178.822 E.01878
G1 X30.747 Y178.533 E.01144
G1 X30.629 Y178.439 E.0055
G1 X30.608 Y177.6 E.03062
G1 X30.608 Y169.001 E.31376
G1 X30.619 Y168.97 E.00119
;WIPE_START
G1 X30.662 Y168.853 E-.03732
G1 X30.732 Y168.821 E-.02318
G1 X30.843 Y168.541 E-.09019
G1 X31.033 Y168.222 E-.11141
G1 X31.443 Y167.774 E-.18209
G1 X31.852 Y167.48 E-.15129
G1 X31.866 Y167.473 E-.00452
;WIPE_END
G1 Z.4 F42000
G1 X28.677 Y167.417 Z.4
M73 P1 R17
G1 Z.2
G1 E.6 F2400
;TYPE:Inner wall
G1 F3600
G1 X28.863 Y167.17 E.01129
G1 X29.273 Y166.799 E.02019
G1 X29.816 Y166.461 E.02333
G1 X30.146 Y166.307 E.01329
G1 X30.768 Y166.117 E.02372
G1 X31.381 Y166.041 E.02253
G1 X31.926 Y166.029 E.01989
;WIDTH:0.545425
G1 X32.117 Y166.052 E.00772
;WIDTH:0.59085
G1 X32.308 Y166.075 E.00842
;WIDTH:0.636275
G1 X32.499 Y166.097 E.00912
G1 X33.439 Y166.089 E.04449
;WIDTH:0.618718
G1 X33.607 Y166.069 E.0078
;WIDTH:0.579145
G1 X33.776 Y166.049 E.00726
;WIDTH:0.539572
G1 X33.944 Y166.029 E.00673
;WIDTH:0.499999
G1 X58.151 Y166.029 E.88321
G1 X58.151 Y168.315 E.0834
G1 X46.837 Y168.315 E.41282
G1 X46.573 Y168.368 E.00981
G1 X46.364 Y168.504 E.00911
G1 X46.232 Y168.678 E.00797
G1 X46.151 Y169.001 E.01213
G1 X46.151 Y178.344 E.34089
G1 X46.232 Y178.666 E.01213
G1 X46.364 Y178.84 E.00797
G1 X46.573 Y178.977 E.00911
G1 X46.837 Y179.029 E.00981
G1 X58.151 Y179.029 E.41282
G1 X58.151 Y181.315 E.0834
G1 X34.295 Y181.315 E.87043
;WIDTH:0.537885
G1 X34.125 Y181.296 E.00673
;WIDTH:0.575771
G1 X33.956 Y181.277 E.00724
;WIDTH:0.613656
G1 X33.787 Y181.258 E.00776
;WIDTH:0.626038
G1 X33.283 Y181.252 E.02345
;WIDTH:0.629554
G1 X32.783 Y181.25 E.02342
G1 X32.616 Y181.269 E.00788
;WIDTH:0.592736
G1 X32.449 Y181.287 E.00738
;WIDTH:0.555918
G1 X32.282 Y181.306 E.00689
;WIDTH:0.5191
G1 X31.773 Y181.315 E.01933
;WIDTH:0.499999
G1 X31.149 Y181.296 E.02279
G1 X30.649 Y181.206 E.01852
G1 X30.13 Y181.038 E.0199
G1 X29.642 Y180.793 E.01994
G1 X29.195 Y180.478 E.01994
G1 X28.8 Y180.098 E.02002
G1 X28.464 Y179.661 E.0201
G1 X28.189 Y179.159 E.02086
G1 X28.021 Y178.704 E.01771
G1 X27.903 Y178.138 E.0211
G1 X27.865 Y177.6 E.01967
G1 X27.865 Y169.699 E.28827
G1 X27.971 Y168.836 E.03173
G1 X28.128 Y168.334 E.01919
G1 X28.42 Y167.761 E.02346
G1 X28.653 Y167.449 E.0142
;WIPE_START
G1 X28.863 Y167.17 E-.10486
G1 X29.273 Y166.799 E-.16603
G1 X29.816 Y166.461 E-.19182
G1 X30.146 Y166.307 E-.10924
G1 X30.236 Y166.28 E-.02806
;WIPE_END
G1 Z.4 F42000
G1 X46.608 Y169.001 Z.4
G1 Z.2
G1 E.6 F2400
;TYPE:Outer wall
G1 F3600
G1 X46.608 Y178.344 E.34089
G1 X46.679 Y178.509 E.00657
G1 X46.837 Y178.572 E.00619
G1 X58.608 Y178.572 E.42949
G1 X58.608 Y181.772 E.11676
G1 X31.773 Y181.772 E.97911
G1 X31.097 Y181.751 E.0247
G1 X30.481 Y181.641 E.02283
G1 X29.892 Y181.439 E.02271
G1 X29.34 Y181.151 E.02272
G1 X28.838 Y180.783 E.02271
G1 X28.398 Y180.342 E.02271
G1 X28.029 Y179.841 E.02271
G1 X27.784 Y179.371 E.01933
G1 X27.598 Y178.902 E.0184
G1 X27.456 Y178.293 E.02283
G1 X27.408 Y177.661 E.02313
G1 X27.408 Y169.686 E.29096
G1 X27.494 Y168.844 E.03087
G1 X27.664 Y168.248 E.02262
G1 X27.924 Y167.683 E.02271
G1 X28.217 Y167.238 E.01944
G1 X28.535 Y166.85 E.01829
G1 X28.997 Y166.432 E.02273
G1 X29.705 Y165.991 E.03045
G1 X30.281 Y165.761 E.02262
G1 X30.887 Y165.62 E.02271
G1 X31.52 Y165.572 E.02313
G1 X58.608 Y165.572 E.98836
G1 X58.608 Y168.772 E.11676
G1 X46.837 Y168.772 E.42949
G1 X46.679 Y168.835 E.00619
G1 X46.624 Y168.964 E.00511
G1 X45.718 Y167.693 F42000
;TYPE:Bottom surface
;WIDTH:0.511497
G1 F6300
G1 X45.311 Y167.286 E.02154
G1 X44.648 Y167.286 E.02479
G1 X45.262 Y167.901 E.0325
G1 X45.122 Y168.085 E.00865
G1 X45.031 Y168.332 E.00985
G1 X43.985 Y167.286 E.05529
G1 X43.323 Y167.286 E.02479
G1 X44.908 Y168.871 E.08385
G1 X44.894 Y169.52 E.02428
G1 X42.66 Y167.286 E.11818
G1 X41.997 Y167.286 E.02479
G1 X44.894 Y170.183 E.15324
G1 X44.894 Y170.846 E.02479
G1 X41.335 Y167.286 E.18829
G1 X40.672 Y167.286 E.02479
G1 X44.894 Y171.508 E.22334
G1 X44.894 Y172.171 E.02479
G1 X40.009 Y167.286 E.2584
G1 X39.347 Y167.286 E.02479
G1 X44.894 Y172.834 E.29345
G1 X44.894 Y173.496 E.02479
G1 X38.684 Y167.286 E.3285
G1 X38.021 Y167.286 E.02479
G1 X44.894 Y174.159 E.36356
G1 X44.894 Y174.822 E.02479
G1 X37.359 Y167.286 E.39861
G1 X36.696 Y167.286 E.02479
G1 X44.894 Y175.484 E.43366
G1 X44.894 Y176.147 E.02479
G1 X37.073 Y168.326 E.41373
G1 X37.215 Y168.729 E.016
G1 X37.278 Y169.193 E.01751
G1 X44.894 Y176.81 E.40289
G1 X44.894 Y177.472 E.02479
G1 X37.322 Y169.901 E.40053
G1 X37.322 Y170.563 E.02479
G1 X44.894 Y178.135 E.40053
G1 X44.894 Y178.35 E.00804
G1 X44.941 Y178.772 E.01587
G1 X44.984 Y178.888 E.00464
G1 X37.322 Y171.226 E.40529
G1 X37.322 Y171.889 E.02479
G1 X45.491 Y180.058 E.43212
M73 P2 R17
G1 X44.828 Y180.057 E.02479
G1 X37.322 Y172.551 E.39705
G1 X37.322 Y173.214 E.02479
G1 X44.166 Y180.057 E.36199
G1 X43.503 Y180.057 E.02479
G1 X37.322 Y173.877 E.32693
G1 X37.322 Y174.539 E.02479
G1 X42.84 Y180.057 E.29187
G1 X42.177 Y180.057 E.02479
G1 X37.322 Y175.202 E.2568
G1 X37.322 Y175.865 E.02479
G1 X41.514 Y180.057 E.22174
G1 X40.851 Y180.056 E.02479
G1 X37.322 Y176.527 E.18668
G1 X37.322 Y177.19 E.02479
G1 X40.188 Y180.056 E.15162
G1 X39.526 Y180.056 E.02479
G1 X37.31 Y177.84 E.1172
G1 X37.235 Y178.428 E.02214
G1 X38.863 Y180.056 E.08613
G1 X38.2 Y180.056 E.02479
G1 X37.089 Y178.945 E.05877
G1 X36.905 Y179.424 E.01919
G1 X37.537 Y180.055 E.03342
