; HEADER_BLOCK_START
; generated by OrcaSlicer 2.1.0 on 2025-02-22 at 19:44:32
; total layer number: 90
; filament_density: 1.27
; filament_diameter: 1.75
; max_z_height: 18.00
; HEADER_BLOCK_END

; THUMBNAIL_BLOCK_START

;
; THUMBNAIL_BLOCK_END

; THUMBNAIL_BLOCK_START

;
; THUMBNAIL_BLOCK_END

; external perimeters extrusion width = 0.42mm
; perimeters extrusion width = 0.45mm
; infill extrusion width = 0.45mm
; solid infill extrusion width = 0.42mm
; top infill extrusion width = 0.42mm
; support material extrusion width = 0.42mm
; first layer extrusion width = 0.50mm

; EXECUTABLE_BLOCK_START
EXCLUDE_OBJECT_DEFINE NAME=кабельканал_встав.stp_id_0_copy_0 CENTER=110,110 POLYGON=[[94,106],[94.0058,105.772],[94.0231,105.545],[94.0519,105.319],[94.0921,105.094],[94.1437,104.872],[94.2064,104.653],[94.2801,104.437],[94.3647,104.225],[94.4599,104.018],[94.5654,103.816],[94.6811,103.62],[94.8066,103.429],[94.9415,103.246],[95.0856,103.069],[95.2384,102.9],[95.3996,102.738],[95.5688,102.586],[95.7455,102.442],[95.9293,102.307],[96.1197,102.181],[112,92.5],[126,92.5],[126,127.5],[112,127.5],[96.1197,117.819],[95.9293,117.693],[95.7455,117.558],[95.5688,117.414],[95.3996,117.262],[95.2384,117.1],[95.0856,116.931],[94.9415,116.754],[94.8066,116.571],[94.6811,116.38],[94.5654,116.184],[94.4599,115.982],[94.3647,115.775],[94.2801,115.563],[94.2064,115.347],[94.1437,115.128],[94.0921,114.906],[94.0519,114.681],[94.0231,114.455],[94.0058,114.228],[94,114],[94,106]]
M73 P0 R15
M106 S0
M106 P2 S0
;TYPE:Custom
M140 S0
M104 S0 
START_PRINT EXTRUDER_TEMP=250 BED_TEMP=90
M106 P3 S153
G90
G21
M83 ; use relative distances for extrusion
; filament start gcode
M106 S0
M106 P2 S0
;LAYER_CHANGE
;Z:0.2
;HEIGHT:0.2
;BEFORE_LAYER_CHANGE
;0.2
G92 E0

G1 E-.6 F2400
;_SET_FAN_SPEED_CHANGING_LAYER
SET_VELOCITY_LIMIT ACCEL=500 ACCEL_TO_DECEL=250
SET_VELOCITY_LIMIT SQUARE_CORNER_VELOCITY=9
EXCLUDE_OBJECT_START NAME=кабельканал_встав.stp_id_0_copy_0
G1 Z.2 F42000
G1 X112.244 Y104.157
G1 Z.2
G1 E.6 F2400
;TYPE:Inner wall
;WIDTH:0.499999
G1 F3600
G1 X112.229 Y104.329 E.00621
G1 X112.229 Y115.821 E.41496
G1 X112.373 Y116.335 E.01926
G1 X112.614 Y116.713 E.01617
G1 X112.908 Y116.98 E.01434
G1 X113.195 Y117.14 E.01188
G1 X113.428 Y117.22 E.00888
G1 X113.829 Y117.271 E.01459
G1 X124.229 Y117.271 E.37551
G1 X124.229 Y125.695 E.30416
G1 X113.771 Y125.695 E.37758
G1 X113.771 Y121.39 E.15546
G1 X113.686 Y120.874 E.01887
G1 X113.553 Y120.583 E.01157
G1 X113.336 Y120.293 E.01307
G1 X113.027 Y120.038 E.01447
G1 X112.139 Y119.618 E.03547
G1 X110.945 Y119.117 E.04673
G1 X109.229 Y118.488 E.06599
G1 X107.351 Y117.916 E.07091
G1 X105.447 Y117.457 E.07069
G1 X103.878 Y117.166 E.05762
G1 X102.522 Y116.976 E.04944
G1 X102.913 Y116.61 E.01935
G1 X103.346 Y116.038 E.02589
G1 X103.636 Y115.516 E.02156
G1 X103.862 Y114.89 E.02401
G1 X103.971 Y113.849 E.0378
G1 X103.971 Y105.869 E.28815
G1 X103.844 Y104.977 E.03251
G1 X103.629 Y104.473 E.01979
G1 X103.363 Y103.972 E.02048
G1 X103.006 Y103.464 E.02242
G1 X102.544 Y103.021 E.02311
G1 X103.96 Y102.821 E.05162
G1 X105.53 Y102.525 E.05768
G1 X107.394 Y102.071 E.06927
G1 X108.665 Y101.685 E.04796
G1 X109.229 Y101.512 E.02131
G1 X111.016 Y100.855 E.06872
G1 X112.18 Y100.364 E.04564
G1 X112.934 Y100.017 E.02994
G1 X113.336 Y99.707 E.01833
G1 X113.553 Y99.417 E.01307
G1 X113.686 Y99.126 E.01157
G1 X113.771 Y98.61 E.01887
G1 X113.771 Y94.305 E.15546
G1 X124.229 Y94.305 E.37758
G1 X124.229 Y102.729 E.30416
G1 X113.721 Y102.732 E.37941
G1 X113.237 Y102.842 E.01791
G1 X112.962 Y102.984 E.01115
G1 X112.665 Y103.231 E.01397
G1 X112.373 Y103.665 E.01888
G1 X112.254 Y104.048 E.01449
G1 X112.247 Y104.117 E.00252
G1 X112.696 Y104.214 F42000
G1 F3600
G1 X112.686 Y104.329 E.00414
G1 X112.686 Y115.779 E.41342
G1 X112.789 Y116.146 E.01376
G1 X112.961 Y116.415 E.01155
G1 X113.171 Y116.606 E.01024
G1 X113.542 Y116.778 E.01477
G1 X113.829 Y116.814 E.01042
G1 X124.686 Y116.814 E.39201
G1 X124.686 Y126.153 E.33717
M73 P0 R14
G1 X113.314 Y126.153 E.41059
G1 X113.314 Y121.253 E.17689
G1 X113.158 Y120.813 E.01687
G1 X113.003 Y120.606 E.00933
G1 X112.645 Y120.35 E.01592
G1 X111.961 Y120.039 E.0271
G1 X110.788 Y119.546 E.04595
G1 X109.072 Y118.918 E.06599
G1 X107.23 Y118.357 E.0695
G1 X105.363 Y117.907 E.06935
G1 X103.815 Y117.619 E.05687
G1 X102.246 Y117.401 E.05718
G1 X100.919 Y117.286 E.04811
G1 X101.284 Y117.174 E.0138
G1 X101.757 Y116.952 E.01888
G1 X102.185 Y116.664 E.01861
G1 X102.564 Y116.315 E.01861
G1 X102.957 Y115.799 E.0234
G1 X103.23 Y115.302 E.02051
G1 X103.409 Y114.828 E.01828
G1 X103.514 Y113.849 E.03553
G1 X103.514 Y105.902 E.28695
G1 X103.398 Y105.078 E.03006
G1 X103.075 Y104.37 E.02808
G1 X102.803 Y103.944 E.01827
G1 X102.442 Y103.531 E.0198
G1 X102.077 Y103.25 E.01664
G1 X101.467 Y102.871 E.02594
G1 X101.006 Y102.706 E.01767
G1 X102.307 Y102.592 E.04714
G1 X103.876 Y102.371 E.05723
G1 X105.423 Y102.081 E.05681
G1 X107.261 Y101.633 E.06833
G1 X109.072 Y101.082 E.06833
G1 X110.838 Y100.434 E.06794
G1 X111.991 Y99.948 E.04517
G1 X112.645 Y99.65 E.02593
G1 X113.003 Y99.394 E.01592
G1 X113.158 Y99.187 E.00933
G1 X113.253 Y98.979 E.00827
G1 X113.314 Y98.61 E.01348
G1 X113.314 Y93.847 E.17197
G1 X124.686 Y93.847 E.41059
G1 X124.686 Y103.186 E.33717
G1 X113.829 Y103.186 E.39201
G1 X113.406 Y103.267 E.01554
G1 X113.21 Y103.368 E.00797
G1 X112.997 Y103.545 E.00998
G1 X112.789 Y103.854 E.01348
G1 X112.704 Y104.128 E.01035
G1 X112.699 Y104.175 E.00168
;WIPE_START
G1 X112.686 Y104.329 E-.04638
G1 X112.686 Y106.174 E-.55363
;WIPE_END
G1 Z.4 F42000
G1 X96.515 Y115.397 Z.4
G1 Z.2
G1 E.6 F2400
;WIDTH:0.402406
G1 F3600
G1 X96.78 Y115.871 E.01541
;WIDTH:0.356375
G1 X97.201 Y116.467 E.01807
G1 X97.043 Y116.385 E.00439
G1 X96.598 Y116.041 E.01395
;WIDTH:0.362311
G1 X96.258 Y115.65 E.01305
;WIDTH:0.402406
G1 X96 Y115.198 E.0148
;WIDTH:0.448798
G1 X95.856 Y114.727 E.01577
;WIDTH:0.497408
G1 X95.776 Y114.103 E.02259
G1 X95.776 Y105.88 E.29522
G1 X95.836 Y105.486 E.01432
;WIDTH:0.462561
G1 X95.897 Y105.091 E.01322
;WIDTH:0.427714
G1 X96.076 Y104.639 E.01477
;WIDTH:0.386935
G1 X96.372 Y104.198 E.01444
;WIDTH:0.358275
G1 X96.765 Y103.819 E.01361
G1 X97.154 Y103.558 E.01167
G1 X96.884 Y103.92 E.01126
;WIDTH:0.364584
G1 X96.554 Y104.479 E.01649
;WIDTH:0.39738
G1 X96.331 Y104.935 E.0142
;WIDTH:0.423088
G1 X96.293 Y105.132 E.00602
;WIDTH:0.448795
G1 X96.254 Y105.329 E.00643
;WIDTH:0.497408
G1 X96.23 Y105.897 E.02042
G1 X96.23 Y114.423 E.30612
M73 P1 R14
G1 X96.278 Y114.741 E.01152
;WIDTH:0.449907
G1 X96.326 Y115.058 E.01031
;WIDTH:0.402406
G1 X96.496 Y115.362 E.00988
G1 X96.85 Y115.194 F42000
;WIDTH:0.499999
G1 F3600
G1 X97.1 Y115.657 E.019
G1 X97.522 Y116.252 E.02634
G1 X97.892 Y116.61 E.01859
G1 X98.312 Y116.909 E.01861
G1 X98.918 Y117.192 E.02414
G1 X98.025 Y117.132 E.03233
G1 X97.438 Y116.998 E.02173
G1 X96.835 Y116.711 E.02411
G1 X96.362 Y116.346 E.02157
G1 X95.993 Y115.959 E.01931
G1 X95.653 Y115.414 E.02319
G1 X95.535 Y115.155 E.01027
G1 X95.383 Y114.641 E.01937
G1 X95.32 Y114.103 E.01954
G1 X95.32 Y105.841 E.2983
G1 X95.441 Y105.154 E.02521
G1 X95.63 Y104.646 E.01955
G1 X95.956 Y104.094 E.02315
G1 X96.214 Y103.797 E.01422
G1 X96.656 Y103.409 E.02123
G1 X97.086 Y103.15 E.01813
G1 X97.703 Y102.922 E.02375
G1 X98.215 Y102.843 E.01869
G1 X98.818 Y102.812 E.02183
G1 X98.45 Y102.983 E.01467
G1 X98.023 Y103.256 E.0183
G1 X97.641 Y103.59 E.0183
G1 X97.313 Y103.976 E.0183
G1 X97.046 Y104.407 E.0183
G1 X96.757 Y104.933 E.02167
G1 X96.686 Y105.329 E.01452
G1 X96.686 Y114.508 E.33143
G1 X96.722 Y114.956 E.01624
G1 X96.831 Y115.159 E.00831
G1 X97.248 Y114.991 F42000
G1 F3600
G1 X97.165 Y114.842 E.00616
G1 X97.143 Y114.103 E.0267
G1 X97.143 Y105.329 E.31682
G1 X97.199 Y105.056 E.01006
G1 X97.611 Y104.347 E.0296
G1 X97.951 Y103.926 E.01951
G1 X98.216 Y103.682 E.01302
G1 X98.632 Y103.402 E.0181
;WIDTH:0.534433
G1 X98.934 Y103.26 E.01294
;WIDTH:0.568866
G1 X99.235 Y103.119 E.01385
;WIDTH:0.611492
G1 X99.322 Y103.071 E.00443
;WIDTH:0.654118
G1 X99.409 Y103.024 E.00476
G1 X100.184 Y102.969 E.03753
;WIDTH:0.634444
G1 X100.378 Y102.987 E.00908
;WIDTH:0.620057
G1 X100.539 Y103.037 E.00773
;WIDTH:0.580038
G1 X100.701 Y103.088 E.0072
;WIDTH:0.540019
G1 X100.863 Y103.139 E.00666
;WIDTH:0.499999
G1 X101.436 Y103.368 E.02226
G1 X101.993 Y103.744 E.02428
G1 X102.417 Y104.19 E.02221
G1 X102.689 Y104.616 E.01827
G1 X102.952 Y105.178 E.02239
G1 X103.057 Y105.935 E.02758
G1 X103.057 Y113.849 E.28577
G1 X102.956 Y114.765 E.03327
G1 X102.849 Y115.05 E.01097
G1 X102.567 Y115.56 E.02106
G1 X102.215 Y116.02 E.02091
G1 X101.819 Y116.37 E.0191
G1 X101.419 Y116.615 E.01692
G1 X101.003 Y116.79 E.01629
G1 X100.375 Y116.92 E.02315
G1 X99.789 Y116.927 E.02119
G1 X99.249 Y116.824 E.01985
G1 X98.831 Y116.667 E.01611
G1 X98.441 Y116.45 E.01612
G1 X97.969 Y116.055 E.02223
G1 X97.766 Y115.831 E.01088
G1 X97.481 Y115.403 E.01858
G1 X97.268 Y115.026 E.01565
G1 X97.625 Y114.715 F42000
;TYPE:Outer wall
G1 F3600
G1 X97.6 Y114.508 E.00753
G1 X97.6 Y105.329 E.33143
G1 X97.654 Y105.181 E.00567
G1 X97.724 Y105.149 E.00279
G1 X97.886 Y104.782 E.01446
G1 X98.237 Y104.288 E.0219
G1 X98.514 Y104.029 E.01368
G1 X98.844 Y103.808 E.01435
G1 X99.379 Y103.589 E.02089
G1 X99.552 Y103.542 E.00647
G1 X100.223 Y103.492 E.02428
G1 X100.779 Y103.588 E.02037
G1 X101.18 Y103.746 E.01556
G1 X101.737 Y104.123 E.02428
G1 X102.032 Y104.435 E.01552
G1 X102.304 Y104.862 E.01827
G1 X102.432 Y105.183 E.01247
G1 X102.509 Y105.29 E.00476
G1 X102.6 Y105.967 E.02464
G1 X102.6 Y113.849 E.28461
G1 X102.503 Y114.703 E.03101
G1 X102.468 Y114.797 E.00366
G1 X102.419 Y114.823 E.00198
G1 X102.177 Y115.321 E.01998
G1 X101.866 Y115.725 E.01841
G1 X101.556 Y115.996 E.01487
G1 X101.235 Y116.197 E.01365
G1 X100.884 Y116.349 E.01382
G1 X100.324 Y116.466 E.02067
G1 X99.806 Y116.47 E.01869
G1 X99.401 Y116.393 E.01488
G1 X99.046 Y116.264 E.01363
G1 X98.715 Y116.084 E.01363
G1 X98.295 Y115.734 E.01974
G1 X98.146 Y115.578 E.00778
G1 X97.861 Y115.15 E.01858
G1 X97.739 Y114.861 E.01132
G1 X97.635 Y114.792 E.00451
G1 X97.63 Y114.755 E.00137
;WIPE_START
G1 X97.6 Y114.508 E-.0746
G1 X97.6 Y112.757 E-.5254
;WIPE_END
G1 Z.4 F42000
G1 X113.163 Y104.238 Z.4
G1 Z.2
G1 E.6 F2400
;TYPE:Inner wall
G1 F3600
G1 X113.143 Y104.329 E.00335
G1 X113.143 Y115.769 E.41308
G1 X113.308 Y116.118 E.01392
G1 X113.557 Y116.301 E.01116
G1 X113.829 Y116.357 E.01001
G1 X125.143 Y116.357 E.40852
G1 X125.143 Y126.61 E.37018
G1 X112.857 Y126.61 E.44359
G1 X112.857 Y121.483 E.18509
G1 X112.82 Y121.169 E.01144
G1 X112.671 Y120.92 E.0105
G1 X112.455 Y120.766 E.00955
G1 X111.784 Y120.46 E.02663
G1 X110.631 Y119.976 E.04517
G1 X108.915 Y119.347 E.06599
G1 X107.11 Y118.798 E.0681
G1 X105.279 Y118.356 E.068
G1 X103.767 Y118.074 E.05556
G1 X102.207 Y117.856 E.05687
G1 X100.35 Y117.697 E.06729
G1 X98.143 Y117.623 E.07973
G1 X97.596 Y117.511 E.02014
G1 X97.072 Y117.35 E.01981
G1 X96.588 Y117.097 E.01973
G1 X95.986 Y116.632 E.02746
G1 X95.627 Y116.235 E.01934
G1 X95.265 Y115.655 E.02465
G1 X95.088 Y115.273 E.01521
G1 X94.934 Y114.733 E.02029
G1 X94.863 Y114.175 E.02029
G1 X94.863 Y105.825 E.30152
G1 X94.934 Y105.267 E.02029
G1 X95.086 Y104.735 E.01997
G1 X95.317 Y104.233 E.01996
G1 X95.621 Y103.771 E.01996
G1 X95.992 Y103.361 E.01996
G1 X96.42 Y103.012 E.01997
G1 X96.889 Y102.736 E.01966
G1 X97.588 Y102.477 E.02689
G1 X98.337 Y102.362 E.02738
G1 X98.911 Y102.354 E.02071
;WIDTH:0.548807
G1 X99.1 Y102.373 E.0076
;WIDTH:0.597614
G1 X99.29 Y102.391 E.00834
;WIDTH:0.646421
G1 X99.479 Y102.41 E.00907
G1 X100.409 Y102.359 E.0444
;WIDTH:0.620057
G1 X100.575 Y102.325 E.00773
;WIDTH:0.580038
G1 X100.741 Y102.29 E.0072
;WIDTH:0.540019
G1 X100.907 Y102.256 E.00666
;WIDTH:0.499999
G1 X102.243 Y102.14 E.04841
G1 X103.792 Y101.922 E.05648
G1 X105.315 Y101.636 E.05594
G1 X107.129 Y101.196 E.06739
G1 X108.915 Y100.653 E.06739
G1 X110.661 Y100.013 E.06716
G1 X111.802 Y99.532 E.0447
G1 X112.455 Y99.234 E.02593
G1 X112.671 Y99.08 E.00955
G1 X112.82 Y98.831 E.0105
G1 X112.857 Y98.61 E.00809
G1 X112.857 Y93.39 E.18847
G1 X125.143 Y93.39 E.44359
G1 X125.143 Y103.643 E.37018
G1 X113.829 Y103.643 E.40852
G1 X113.575 Y103.692 E.00932
G1 X113.33 Y103.858 E.0107
G1 X113.205 Y104.044 E.00809
G1 X113.171 Y104.199 E.00571
G1 X113.6 Y104.329 F42000
;TYPE:Outer wall
G1 F3600
G1 X113.6 Y115.671 E.40955
G1 X113.662 Y115.828 E.00609
G1 X113.829 Y115.9 E.00654
G1 X125.6 Y115.9 E.42502
G1 X125.6 Y127.067 E.40318
G1 X112.4 Y127.067 E.4766
G1 X112.4 Y121.329 E.20715
G1 X112.266 Y121.182 E.0072
G1 X111.607 Y120.882 E.02616
G1 X110.473 Y120.405 E.04439
G1 X108.757 Y119.776 E.06599
G1 X106.99 Y119.24 E.06669
G1 X105.195 Y118.805 E.06666
G1 X103.693 Y118.525 E.05518
G1 X102.168 Y118.311 E.05562
G1 X100.335 Y118.154 E.06642
G1 X98.089 Y118.078 E.08113
G1 X97.504 Y117.958 E.02154
G1 X96.886 Y117.768 E.02335
G1 X96.34 Y117.484 E.02223
G1 X95.674 Y116.969 E.0304
G1 X95.26 Y116.511 E.02228
G1 X94.878 Y115.897 E.02612
G1 X94.657 Y115.427 E.01876
G1 X94.485 Y114.825 E.02259
G1 X94.406 Y114.204 E.02259
G1 X94.406 Y105.796 E.30361
M73 P2 R14
G1 X94.485 Y105.175 E.02259
G1 X94.656 Y104.576 E.02248
G1 X94.916 Y104.011 E.02248
G1 X95.258 Y103.491 E.02247
G1 X95.676 Y103.029 E.02248
G1 X96.158 Y102.635 E.02248
G1 X96.692 Y102.321 E.02238
G1 X97.473 Y102.032 E.03004
G1 X98.299 Y101.905 E.03019
G1 X100.347 Y101.846 E.07396
G1 X102.18 Y101.687 E.06642
G1 X103.708 Y101.473 E.05573
G1 X105.207 Y101.192 E.05507
G1 X106.996 Y100.759 E.06646
G1 X108.757 Y100.224 E.06646
G1 X110.484 Y99.591 E.06638
G1 X111.612 Y99.116 E.04423
G1 X112.338 Y98.767 E.02906
G1 X112.4 Y98.61 E.00609
G1 X112.4 Y92.933 E.20497
G1 X125.6 Y92.933 E.4766
G1 X125.6 Y104.1 E.40318
G1 X113.829 Y104.1 E.42502
G1 X113.662 Y104.172 E.00654
G1 X113.615 Y104.291 E.00465
;WIPE_START
G1 X113.612 Y106.291 E-.6
;WIPE_END
G1 Z.4 F42000
G1 X100.42 Y117.309 Z.4
G1 Z.2
G1 E.6 F2400
;TYPE:Inner wall
;WIDTH:0.368698
G1 F3600
G1 X99.775 Y117.302 E.0166
;WIDTH:0.369643
G1 X99.523 Y117.277 E.00652
;WIDTH:0.402838
G1 X99.272 Y117.252 E.00718
;WIPE_START
G1 X99.523 Y117.277 E-.13173
G1 X99.775 Y117.302 E-.13173
G1 X100.42 Y117.309 E-.33653
;WIPE_END
G1 Z.4 F42000
G1 X103.274 Y116.388 Z.4
G1 Z.2
G1 E.6 F2400
;TYPE:Bottom surface
;WIDTH:0.505073
G1 F6300
G1 X103.679 Y116.793 E.02092
G1 X104.465 Y116.925 E.02907
G1 X103.683 Y116.144 E.04033
G1 X103.914 Y115.721 E.01758
G1 X105.268 Y117.075 E.0699
G1 X106.113 Y117.266 E.03162
G1 X104.107 Y115.26 E.10357
G1 X104.172 Y115.1 E.00633
G1 X104.227 Y114.727 E.01377
G1 X106.976 Y117.475 E.14192
G1 X107.49 Y117.6 E.01934
G1 X107.869 Y117.715 E.01443
G1 X104.303 Y114.149 E.18408
G1 X104.314 Y113.507 E.02347
G1 X108.807 Y117.999 E.23195
G1 X109.246 Y118.132 E.01674
G1 X109.793 Y118.332 E.02128
G1 X104.314 Y112.853 E.28287
G1 X104.314 Y112.199 E.02386
G1 X110.822 Y118.707 E.33599
G1 X111.925 Y119.157 E.04351
G1 X104.314 Y111.546 E.39297
G1 X104.314 Y110.892 E.02386
G1 X118.774 Y125.353 E.74656
G1 X119.428 Y125.353 E.02386
G1 X104.314 Y110.239 E.78031
G1 X104.314 Y109.585 E.02386
G1 X120.287 Y125.558 E.82467
G1 X118.326 Y125.558 F42000
G1 F6300
G1 X114.111 Y121.343 E.21765
G1 X114.114 Y121.999 E.02398
G1 X117.467 Y125.353 E.17312
G1 X116.814 Y125.353 E.02386
G1 X114.114 Y122.653 E.13937
G1 X114.114 Y123.307 E.02386
G1 X116.16 Y125.353 E.10563
G1 X115.506 Y125.353 E.02386
G1 X114.114 Y123.96 E.07189
G1 X114.114 Y124.614 E.02386
G1 X114.853 Y125.353 E.03814
G1 X114.199 Y125.353 E.02386
G1 X113.908 Y125.062 E.01502
;WIPE_START
G1 X114.199 Y125.353 E-.12342
G1 X114.853 Y125.353 E-.19607
G1 X114.192 Y124.691 E-.2805
;WIPE_END
G1 Z.4 F42000
G1 X124.092 Y118.252 Z.4
G1 Z.2
G1 E.6 F2400
G1 F6300
G1 X123.454 Y117.614 E.03294
G1 X122.8 Y117.614 E.02387
G1 X123.886 Y118.7 E.05608
G1 X123.886 Y119.353 E.02386
G1 X122.146 Y117.613 E.08983
G1 X121.492 Y117.613 E.02387
G1 X123.886 Y120.007 E.12359
G1 X123.886 Y120.66 E.02386
G1 X120.838 Y117.613 E.15735
G1 X120.184 Y117.613 E.02387
G1 X123.886 Y121.314 E.19111
G1 X123.886 Y121.968 E.02386
G1 X119.531 Y117.612 E.22486
G1 X118.877 Y117.612 E.02387
G1 X123.886 Y122.621 E.25862
G1 X123.886 Y123.275 E.02386
