; HEADER_BLOCK_START
; generated by OrcaSlicer 2.1.0 on 2025-02-13 at 19:54:24
; total layer number: 90
; filament_density: 1.27
; filament_diameter: 1.75
; max_z_height: 18.00
; HEADER_BLOCK_END

; THUMBNAIL_BLOCK_START

;
; THUMBNAIL_BLOCK_END

; THUMBNAIL_BLOCK_START

;
; THUMBNAIL_BLOCK_END

; external perimeters extrusion width = 0.42mm
; perimeters extrusion width = 0.45mm
; infill extrusion width = 0.45mm
; solid infill extrusion width = 0.42mm
; top infill extrusion width = 0.42mm
; support material extrusion width = 0.42mm
; first layer extrusion width = 0.50mm

; EXECUTABLE_BLOCK_START
EXCLUDE_OBJECT_DEFINE NAME=кабельканал_встав.stp_id_0_copy_0 CENTER=108.155,180.203 POLYGON=[[92.1546,176.203],[92.1604,175.975],[92.1777,175.748],[92.2065,175.522],[92.2467,175.297],[92.2983,175.075],[92.361,174.856],[92.4347,174.64],[92.5193,174.428],[92.6145,174.221],[92.72,174.019],[92.8357,173.823],[92.9612,173.632],[93.0961,173.448],[93.2402,173.272],[93.393,173.103],[93.5542,172.941],[93.7234,172.789],[93.9001,172.644],[94.0839,172.51],[94.2743,172.384],[94.4707,172.268],[94.6728,172.163],[94.88,172.068],[95.0917,171.983],[95.3075,171.909],[95.5267,171.847],[95.7488,171.795],[110.155,168.703],[124.155,168.703],[124.155,191.703],[110.155,191.703],[95.7488,188.611],[95.5267,188.559],[95.3075,188.497],[95.0917,188.423],[94.88,188.338],[94.6728,188.243],[94.4707,188.138],[94.2743,188.022],[94.0839,187.896],[93.9001,187.761],[93.7234,187.617],[93.5542,187.465],[93.393,187.303],[93.2402,187.134],[93.0961,186.957],[92.9612,186.774],[92.8357,186.583],[92.72,186.387],[92.6145,186.185],[92.5193,185.978],[92.4347,185.766],[92.361,185.55],[92.2983,185.331],[92.2467,185.109],[92.2065,184.884],[92.1777,184.658],[92.1604,184.431],[92.1546,184.203],[92.1546,176.203]]
M73 P0 R14
M106 S0
M106 P2 S0
;TYPE:Custom
M140 S0
M104 S0 
START_PRINT EXTRUDER_TEMP=250 BED_TEMP=80
G90
G21
M83 ; use relative distances for extrusion
; filament start gcode
M106 S0
M106 P2 S0
;LAYER_CHANGE
;Z:0.2
;HEIGHT:0.2
;BEFORE_LAYER_CHANGE
;0.2
G92 E0

G1 E-.6 F2400
;_SET_FAN_SPEED_CHANGING_LAYER
SET_VELOCITY_LIMIT ACCEL=500 ACCEL_TO_DECEL=250
SET_VELOCITY_LIMIT SQUARE_CORNER_VELOCITY=9
EXCLUDE_OBJECT_START NAME=кабельканал_встав.stp_id_0_copy_0
G1 Z.2 F42000
G1 X110.399 Y174.359
G1 Z.2
G1 E.6 F2400
;TYPE:Inner wall
;WIDTH:0.499999
G1 F3600
G1 X110.383 Y174.531 E.00634
G1 X110.383 Y186.024 E.41933
G1 X110.528 Y186.538 E.01947
G1 X110.829 Y186.983 E.0196
G1 X111.343 Y187.34 E.02284
G1 X111.983 Y187.474 E.02386
G1 X122.383 Y187.474 E.37946
G1 X122.383 Y189.932 E.08967
G1 X110.522 Y189.932 E.43276
G1 X109.142 Y189.336 E.05484
G1 X107.384 Y188.691 E.06833
G1 X105.505 Y188.119 E.07166
G1 X103.602 Y187.66 E.07143
G1 X102.033 Y187.369 E.05823
G1 X100.677 Y187.179 E.04996
G1 X101.068 Y186.813 E.01956
G1 X101.501 Y186.241 E.02616
G1 X101.79 Y185.719 E.02179
G1 X102.016 Y185.093 E.02427
G1 X102.126 Y184.052 E.03819
G1 X102.126 Y176.072 E.29118
G1 X101.999 Y175.18 E.03285
G1 X101.783 Y174.676 E.02
G1 X101.517 Y174.175 E.0207
G1 X101.161 Y173.667 E.02265
G1 X100.699 Y173.224 E.02336
G1 X102.115 Y173.023 E.05217
G1 X103.685 Y172.728 E.05829
G1 X105.549 Y172.274 E.07
G1 X107.384 Y171.715 E.07
G1 X109.184 Y171.052 E.06998
G1 X110.522 Y170.474 E.05319
G1 X122.383 Y170.474 E.43276
G1 X122.383 Y172.932 E.08967
G1 X111.787 Y172.932 E.38664
G1 X111.343 Y173.065 E.01691
G1 X111.105 Y173.195 E.00989
G1 X110.829 Y173.423 E.01306
G1 X110.528 Y173.868 E.0196
G1 X110.408 Y174.251 E.01464
G1 X110.402 Y174.319 E.00248
G1 X110.851 Y174.416 F42000
G1 F3600
G1 X110.84 Y174.531 E.00422
G1 X110.84 Y185.982 E.41777
G1 X110.943 Y186.348 E.0139
G1 X111.116 Y186.618 E.01167
G1 X111.526 Y186.922 E.01862
G1 X111.983 Y187.017 E.01705
G1 X122.84 Y187.017 E.39614
G1 X122.84 Y190.389 E.12302
G1 X110.428 Y190.389 E.45289
G1 X108.973 Y189.76 E.05782
G1 X107.227 Y189.121 E.06786
G1 X105.385 Y188.56 E.07024
G1 X103.518 Y188.11 E.07008
G1 X101.969 Y187.822 E.05747
G1 X100.401 Y187.604 E.05778
G1 X99.073 Y187.489 E.04862
G1 X99.439 Y187.377 E.01395
G1 X99.912 Y187.155 E.01908
G1 X100.339 Y186.867 E.01881
G1 X100.719 Y186.518 E.01881
G1 X101.111 Y186.002 E.02364
G1 X101.385 Y185.504 E.02072
G1 X101.564 Y185.031 E.01847
G1 X101.669 Y184.052 E.03591
G1 X101.669 Y176.105 E.28997
G1 X101.553 Y175.281 E.03038
G1 X101.229 Y174.573 E.02837
G1 X100.957 Y174.147 E.01846
G1 X100.597 Y173.734 E.02001
G1 X100.232 Y173.452 E.01682
G1 X99.621 Y173.074 E.02621
G1 X99.16 Y172.909 E.01786
G1 X100.461 Y172.795 E.04764
G1 X102.031 Y172.574 E.05784
G1 X103.577 Y172.284 E.05741
G1 X105.416 Y171.836 E.06905
G1 X107.227 Y171.285 E.06905
G1 X109.003 Y170.633 E.06904
G1 X110.428 Y170.017 E.05664
G1 X122.84 Y170.017 E.45289
G1 X122.84 Y173.389 E.12302
G1 X111.983 Y173.389 E.39614
G1 X111.526 Y173.484 E.01705
G1 X111.159 Y173.74 E.01632
G1 X110.943 Y174.057 E.014
G1 X110.858 Y174.331 E.01046
G1 X110.854 Y174.376 E.00165
;WIPE_START
G1 X110.84 Y174.531 E-.04673
G1 X110.84 Y176.376 E-.55327
;WIPE_END
G1 Z.4 F42000
G1 X94.67 Y185.607 Z.4
G1 Z.2
G1 E.6 F2400
;WIDTH:0.395981
G1 F3600
G1 X94.934 Y186.074 E.01511
;WIDTH:0.356375
G1 X95.355 Y186.67 E.01826
G1 X95.198 Y186.588 E.00444
G1 X94.752 Y186.244 E.01409
;WIDTH:0.362311
G1 X94.413 Y185.853 E.01319
;WIDTH:0.395981
G1 X94.159 Y185.407 E.01446
;WIDTH:0.43907
G1 X94.057 Y185.022 E.01259
;WIDTH:0.482159
G1 X93.955 Y184.637 E.01396
;WIDTH:0.500223
G1 X93.926 Y184.131 E.01852
G1 X93.926 Y176.289 E.28626
G1 X93.982 Y175.614 E.02473
;WIDTH:0.468569
G1 X94.056 Y175.338 E.00971
;WIDTH:0.436912
G1 X94.129 Y175.062 E.00899
;WIDTH:0.405254
G1 X94.382 Y174.584 E.01563
;WIDTH:0.370046
G1 X94.85 Y174.07 E.01815
;WIDTH:0.362162
G1 X95.301 Y173.768 E.01385
G1 X94.993 Y174.196 E.01345
;WIDTH:0.370046
G1 X94.653 Y174.766 E.01733
;WIDTH:0.405254
G1 X94.472 Y175.175 E.01293
;WIDTH:0.436912
G1 X94.436 Y175.424 E.00791
;WIDTH:0.468569
G1 X94.399 Y175.672 E.00854
;WIDTH:0.500222
G1 X94.383 Y176.298 E.02284
G1 X94.383 Y184.131 E.28593
G1 X94.402 Y184.794 E.0242
;WIDTH:0.463163
G1 X94.448 Y185.046 E.00859
;WIDTH:0.429572
G1 X94.494 Y185.298 E.00791
;WIDTH:0.395981
G1 X94.65 Y185.573 E.00891
G1 X95.003 Y185.404 F42000
;WIDTH:0.499999
G1 F3600
G1 X95.255 Y185.86 E.01901
G1 X95.676 Y186.455 E.02661
G1 X96.047 Y186.813 E.01879
G1 X96.467 Y187.111 E.01881
G1 X97.073 Y187.394 E.02439
G1 X96.179 Y187.335 E.03267
G1 X95.592 Y187.201 E.02196
G1 X94.99 Y186.914 E.02437
G1 X94.517 Y186.548 E.0218
G1 X94.148 Y186.162 E.01951
G1 X93.8 Y185.603 E.024
G1 X93.611 Y185.095 E.01979
G1 X93.51 Y184.7 E.01488
G1 X93.469 Y184.157 E.01986
G1 X93.469 Y176.263 E.28801
G1 X93.535 Y175.606 E.02409
G1 X93.596 Y175.357 E.00937
G1 X93.79 Y174.814 E.02103
G1 X94.05 Y174.372 E.01872
G1 X94.388 Y173.982 E.01882
G1 X94.825 Y173.598 E.02123
G1 X95.281 Y173.332 E.01926
G1 X95.809 Y173.144 E.02043
G1 X96.323 Y173.036 E.01918
G1 X96.974 Y173.015 E.02376
G1 X96.604 Y173.186 E.01487
M73 P1 R14
G1 X96.177 Y173.459 E.01849
G1 X95.796 Y173.793 E.01849
G1 X95.468 Y174.179 E.01849
G1 X95.201 Y174.61 E.0185
G1 X94.913 Y175.131 E.02171
G1 X94.84 Y175.531 E.01486
G1 X94.84 Y184.607 E.33112
G1 X94.884 Y185.187 E.02122
G1 X94.984 Y185.369 E.00757
G1 X95.4 Y185.196 F42000
G1 F3600
G1 X95.324 Y185.062 E.00563
G1 X95.298 Y184.131 E.03398
G1 X95.298 Y175.531 E.31376
G1 X95.341 Y175.291 E.00892
G1 X95.723 Y174.624 E.02805
G1 X96.036 Y174.203 E.01912
G1 X96.433 Y173.838 E.01972
G1 X96.801 Y173.598 E.01602
;WIDTH:0.539401
G1 X97.036 Y173.486 E.01032
;WIDTH:0.578802
G1 X97.271 Y173.373 E.01114
;WIDTH:0.618203
G1 X97.506 Y173.26 E.01196
;WIDTH:0.64874
G1 X97.667 Y173.214 E.00813
G1 X98.339 Y173.171 E.03252
;WIDTH:0.634981
G1 X98.532 Y173.19 E.00919
;WIDTH:0.620045
G1 X98.694 Y173.24 E.00782
;WIDTH:0.58003
G1 X98.856 Y173.291 E.00727
;WIDTH:0.540015
G1 X99.018 Y173.342 E.00673
;WIDTH:0.499999
G1 X99.59 Y173.571 E.0225
G1 X100.147 Y173.947 E.02453
G1 X100.572 Y174.392 E.02245
G1 X100.844 Y174.819 E.01846
G1 X101.107 Y175.381 E.02263
G1 X101.212 Y176.138 E.02787
G1 X101.212 Y184.052 E.28877
G1 X101.111 Y184.968 E.03362
G1 X101.004 Y185.252 E.01108
G1 X100.722 Y185.763 E.02129
G1 X100.37 Y186.223 E.02113
G1 X99.973 Y186.573 E.0193
G1 X99.574 Y186.818 E.01709
G1 X99.158 Y186.993 E.01646
G1 X98.53 Y187.123 E.02339
G1 X97.943 Y187.13 E.02141
G1 X97.403 Y187.027 E.02006
G1 X96.985 Y186.87 E.01628
G1 X96.683 Y186.708 E.01252
G1 X96.265 Y186.401 E.01894
G1 X95.921 Y186.034 E.01833
G1 X95.635 Y185.606 E.01878
G1 X95.42 Y185.231 E.01579
G1 X95.777 Y184.922 F42000
;TYPE:Outer wall
G1 F3600
G1 X95.755 Y184.794 E.00475
G1 X95.755 Y175.531 E.33794
G1 X95.808 Y175.384 E.00573
G1 X95.879 Y175.352 E.00282
G1 X96.117 Y174.855 E.0201
G1 X96.469 Y174.416 E.02053
G1 X96.929 Y174.055 E.02134
G1 X97.334 Y173.853 E.01653
G1 X97.707 Y173.744 E.01415
G1 X98.378 Y173.695 E.02454
G1 X98.933 Y173.791 E.02059
G1 X99.334 Y173.949 E.01572
G1 X99.891 Y174.326 E.02453
G1 X100.187 Y174.638 E.01568
G1 X100.459 Y175.065 E.01846
G1 X100.587 Y175.385 E.0126
G1 X100.663 Y175.493 E.00481
G1 X100.755 Y176.17 E.0249
G1 X100.755 Y184.052 E.28761
G1 X100.658 Y184.906 E.03133
G1 X100.622 Y185 E.00369
G1 X100.574 Y185.026 E.002
G1 X100.332 Y185.524 E.02019
G1 X100.02 Y185.928 E.01861
G1 X99.71 Y186.199 E.01503
G1 X99.39 Y186.4 E.01379
G1 X99.039 Y186.551 E.01396
G1 X98.478 Y186.669 E.02089
G1 X97.961 Y186.673 E.01889
G1 X97.556 Y186.596 E.01504
G1 X97.201 Y186.467 E.01377
G1 X96.898 Y186.305 E.01252
G1 X96.449 Y185.937 E.02119
G1 X96.301 Y185.781 E.00786
G1 X96.015 Y185.353 E.01878
G1 X95.894 Y185.064 E.01144
G1 X95.789 Y184.995 E.00456
G1 X95.783 Y184.961 E.00125
;WIPE_START
G1 X95.755 Y184.794 E-.05107
G1 X95.755 Y182.964 E-.54893
;WIPE_END
G1 Z.4 F42000
G1 X111.317 Y174.44 Z.4
G1 Z.2
G1 E.6 F2400
;TYPE:Inner wall
G1 F3600
G1 X111.298 Y174.531 E.0034
G1 X111.298 Y185.972 E.41743
G1 X111.463 Y186.321 E.01407
G1 X111.709 Y186.503 E.01117
G1 X111.983 Y186.56 E.01023
G1 X123.298 Y186.56 E.41282
G1 X123.298 Y190.846 E.15637
G1 X110.333 Y190.846 E.47301
G1 X108.804 Y190.185 E.0608
G1 X107.069 Y189.55 E.06739
G1 X105.265 Y189.001 E.06882
G1 X103.434 Y188.559 E.06872
G1 X101.921 Y188.277 E.05614
G1 X100.361 Y188.059 E.05747
G1 X98.505 Y187.9 E.068
G1 X96.298 Y187.826 E.08057
G1 X95.751 Y187.714 E.02036
G1 X95.227 Y187.553 E.02002
G1 X94.742 Y187.3 E.01993
G1 X94.14 Y186.835 E.02775
G1 X93.781 Y186.438 E.01954
G1 X93.387 Y185.806 E.02718
G1 X93.155 Y185.178 E.02443
G1 X93.051 Y184.692 E.01812
G1 X93.012 Y184.131 E.02053
G1 X93.012 Y176.23 E.28827
G1 X93.118 Y175.367 E.03174
G1 X93.27 Y174.868 E.01903
G1 X93.497 Y174.411 E.01861
G1 X93.886 Y173.838 E.02528
G1 X94.242 Y173.481 E.01841
G1 X94.617 Y173.19 E.01731
G1 X95.1 Y172.912 E.02033
G1 X95.683 Y172.705 E.02256
G1 X96.281 Y172.581 E.02228
G1 X97.057 Y172.555 E.02834
;WIDTH:0.54958
G1 X97.249 Y172.573 E.00783
;WIDTH:0.59916
G1 X97.442 Y172.591 E.00859
;WIDTH:0.64874
G1 X97.635 Y172.61 E.00936
G1 X98.563 Y172.562 E.04496
;WIDTH:0.620045
G1 X98.73 Y172.528 E.00782
;WIDTH:0.58003
G1 X98.896 Y172.493 E.00727
;WIDTH:0.540015
G1 X99.062 Y172.459 E.00673
;WIDTH:0.499999
G1 X100.398 Y172.343 E.04892
G1 X101.947 Y172.125 E.05708
G1 X103.47 Y171.839 E.05653
G1 X105.283 Y171.399 E.0681
G1 X107.069 Y170.856 E.0681
G1 X108.821 Y170.213 E.0681
G1 X110.333 Y169.56 E.06009
G1 X123.298 Y169.56 E.47301
G1 X123.298 Y173.846 E.15637
G1 X111.983 Y173.846 E.41282
G1 X111.709 Y173.903 E.01023
G1 X111.489 Y174.057 E.00979
G1 X111.359 Y174.247 E.0084
G1 X111.326 Y174.401 E.00576
G1 X111.755 Y174.531 F42000
;TYPE:Outer wall
G1 F3600
G1 X111.755 Y185.874 E.41386
G1 X111.81 Y186.023 E.00579
G1 X111.983 Y186.103 E.00697
G1 X123.755 Y186.103 E.42949
G1 X123.755 Y191.303 E.18973
G1 X110.239 Y191.303 E.49314
G1 X108.634 Y190.61 E.06377
G1 X106.912 Y189.979 E.06692
G1 X105.145 Y189.442 E.06739
G1 X103.35 Y189.008 E.06736
G1 X101.848 Y188.728 E.05576
G1 X100.322 Y188.514 E.0562
G1 X98.489 Y188.357 E.06712
G1 X96.244 Y188.281 E.08199
G1 X95.659 Y188.161 E.02177
G1 X95.041 Y187.971 E.0236
G1 X94.495 Y187.687 E.02247
G1 X93.829 Y187.172 E.03072
G1 X93.415 Y186.714 E.02252
G1 X92.975 Y186.008 E.03036
G1 X92.726 Y185.336 E.02613
G1 X92.603 Y184.827 E.01913
G1 X92.555 Y184.192 E.02325
G1 X92.555 Y176.217 E.29096
G1 X92.64 Y175.375 E.03087
G1 X92.785 Y174.869 E.01921
G1 X92.973 Y174.4 E.01842
G1 X93.245 Y173.939 E.01955
G1 X93.542 Y173.535 E.0183
G1 X93.981 Y173.095 E.02268
G1 X94.454 Y172.755 E.02125
G1 X94.919 Y172.493 E.01949
G1 X95.557 Y172.265 E.02468
G1 X96.238 Y172.125 E.02538
G1 X98.501 Y172.049 E.08263
G1 X100.334 Y171.89 E.06712
G1 X101.863 Y171.676 E.05632
G1 X103.362 Y171.395 E.05565
G1 X105.151 Y170.962 E.06716
G1 X106.912 Y170.427 E.06716
G1 X108.64 Y169.793 E.06716
G1 X110.239 Y169.103 E.06354
G1 X123.755 Y169.103 E.49314
G1 X123.755 Y174.303 E.18973
G1 X111.983 Y174.303 E.42949
G1 X111.818 Y174.373 E.00654
G1 X111.77 Y174.494 E.00477
;WIPE_START
G1 X111.767 Y176.494 E-.6
;WIPE_END
M73 P2 R14
G1 Z.4 F42000
G1 X98.574 Y187.512 Z.4
G1 Z.2
G1 E.6 F2400
;TYPE:Inner wall
;WIDTH:0.368698
G1 F3600
G1 X97.929 Y187.505 E.01678
;WIDTH:0.369643
G1 X97.678 Y187.48 E.00659
;WIDTH:0.402838
G1 X97.426 Y187.455 E.00726
;WIPE_START
G1 X97.678 Y187.48 E-.13173
G1 X97.929 Y187.505 E-.13173
G1 X98.574 Y187.512 E-.33653
;WIPE_END
G1 Z.4 F42000
G1 X102.073 Y187.238 Z.4
G1 Z.2
G1 E.6 F2400
;TYPE:Bottom surface
;WIDTH:0.504044
G1 F6300
G1 X101.575 Y186.74 E.02594
G1 X101.837 Y186.349 E.0173
G1 X102.615 Y187.127 E.0405
G1 X103.417 Y187.277 E.03002
G1 X102.067 Y185.928 E.07024
G1 X102.26 Y185.468 E.01834
G1 X104.259 Y187.467 E.10407
G1 X105.12 Y187.676 E.0326
G1 X102.38 Y184.937 E.14259
G1 X102.457 Y184.361 E.02137
G1 X106.011 Y187.915 E.18497
G1 X106.949 Y188.201 E.0361
G1 X102.469 Y183.721 E.23322
G1 X102.469 Y183.068 E.024
G1 X107.925 Y188.524 E.28402
G1 X108.954 Y188.902 E.04035
G1 X102.469 Y182.416 E.3376
G1 X102.469 Y181.764 E.024
G1 X110.068 Y189.363 E.39557
G1 X110.593 Y189.589 E.02104
G1 X110.946 Y189.589 E.01298
G1 X102.469 Y181.112 E.44127
G1 X102.469 Y180.46 E.024
G1 X111.598 Y189.589 E.47522
G1 X112.25 Y189.589 E.024
G1 X102.469 Y179.808 E.50916
G1 X102.469 Y179.156 E.024
G1 X113.108 Y189.795 E.55382
;WIPE_START
G1 X111.693 Y188.38 E-.6
;WIPE_END
G1 Z.4 F42000
G1 X121.358 Y187.611 Z.4
G1 Z.2
G1 E.6 F2400
G1 F6300
G1 X122.041 Y188.294 E.03551
G1 X122.041 Y188.946 E.024
G1 X120.912 Y187.817 E.05875
G1 X120.26 Y187.817 E.024
G1 X122.032 Y189.589 E.09224
G1 X121.38 Y189.589 E.024
G1 X119.608 Y187.817 E.09224
G1 X118.956 Y187.817 E.024
G1 X120.727 Y189.589 E.09224
G1 X120.075 Y189.589 E.024
G1 X118.303 Y187.817 E.09224
G1 X117.651 Y187.817 E.024
G1 X119.423 Y189.589 E.09224
G1 X118.771 Y189.589 E.024
G1 X116.999 Y187.817 E.09224
G1 X116.347 Y187.817 E.024
G1 X118.119 Y189.589 E.09224
G1 X117.467 Y189.589 E.024
G1 X115.695 Y187.817 E.09224
G1 X115.043 Y187.817 E.024
G1 X116.815 Y189.589 E.09224
G1 X116.163 Y189.589 E.024
G1 X114.391 Y187.817 E.09224
G1 X113.739 Y187.817 E.024
G1 X115.51 Y189.589 E.09224
G1 X114.858 Y189.589 E.024
G1 X113.086 Y187.817 E.09224
G1 X112.434 Y187.817 E.024
G1 X114.206 Y189.589 E.09224
G1 X113.554 Y189.589 E.024
G1 X111.732 Y187.767 E.09484
G1 X111.205 Y187.657 E.01981
G1 X110.589 Y187.227 E.02767
G1 X110.504 Y187.134 E.00463
G1 X110.215 Y186.682 E.01976
G1 X110.07 Y186.217 E.0179
G1 X110.06 Y186.094 E.00454
G1 X102.469 Y178.504 E.39515
G1 X102.469 Y177.851 E.024
G1 X110.041 Y185.423 E.39416
G1 X110.041 Y184.771 E.024
G1 X102.469 Y177.199 E.39416
G1 X102.469 Y176.547 E.024
G1 X110.041 Y184.119 E.39416
G1 X110.041 Y183.467 E.024
G1 X102.443 Y175.87 E.39548
G1 X102.334 Y175.108 E.02832
G1 X110.041 Y182.815 E.40118
M73 P3 R14
G1 X110.041 Y182.163 E.024
G1 X101.697 Y173.819 E.43431
G1 X101.426 Y173.467 E.01635
G1 X101.926 Y173.396 E.01859
G1 X110.041 Y181.511 E.42239
G1 X110.041 Y180.858 E.024
G1 X102.485 Y173.303 E.3933
G1 X103.035 Y173.2 E.02057
G1 X110.041 Y180.206 E.3647
G1 X110.041 Y179.554 E.024
G1 X103.584 Y173.098 E.3361
G1 X104.113 Y172.974 E.01998
G1 X110.041 Y178.902 E.30858
G1 X110.041 Y178.25 E.024
G1 X104.638 Y172.847 E.28125
G1 X105.163 Y172.72 E.01988
