; HEADER_BLOCK_START
; generated by OrcaSlicer 2.1.0 on 2025-02-12 at 19:07:07
; total layer number: 90
; filament_density: 1.27
; filament_diameter: 1.75
; max_z_height: 18.00
; HEADER_BLOCK_END

; THUMBNAIL_BLOCK_START

;
; THUMBNAIL_BLOCK_END

; THUMBNAIL_BLOCK_START

;
; THUMBNAIL_BLOCK_END

; external perimeters extrusion width = 0.42mm
; perimeters extrusion width = 0.45mm
; infill extrusion width = 0.45mm
; solid infill extrusion width = 0.42mm
; top infill extrusion width = 0.42mm
; support material extrusion width = 0.42mm
; first layer extrusion width = 0.50mm

; EXECUTABLE_BLOCK_START
EXCLUDE_OBJECT_DEFINE NAME=кабельканал_2.stp_id_0_copy_0 CENTER=110,110 POLYGON=[[94,106],[94.0058,105.772],[94.0231,105.545],[94.0519,105.319],[94.0921,105.094],[94.1437,104.872],[94.2064,104.653],[94.2801,104.437],[94.3647,104.225],[94.4599,104.018],[94.5654,103.816],[94.6811,103.62],[94.8066,103.429],[94.9415,103.246],[95.0856,103.069],[95.2384,102.9],[95.3996,102.738],[95.5688,102.586],[95.7455,102.442],[95.9293,102.307],[96.1197,102.181],[96.3161,102.065],[96.5182,101.96],[96.7254,101.865],[96.9371,101.78],[97.1529,101.706],[97.3721,101.644],[97.5942,101.592],[97.8186,101.552],[98.0447,101.523],[98.2721,101.506],[98.5,101.5],[126,101.5],[126,118.5],[98.5,118.5],[98.2721,118.494],[98.0447,118.477],[97.8186,118.448],[97.5942,118.408],[97.3721,118.356],[97.1529,118.294],[96.9371,118.22],[96.7254,118.135],[96.5182,118.04],[96.3161,117.935],[96.1197,117.819],[95.9293,117.693],[95.7455,117.558],[95.5688,117.414],[95.3996,117.262],[95.2384,117.1],[95.0856,116.931],[94.9415,116.754],[94.8066,116.571],[94.6811,116.38],[94.5654,116.184],[94.4599,115.982],[94.3647,115.775],[94.2801,115.563],[94.2064,115.347],[94.1437,115.128],[94.0921,114.906],[94.0519,114.681],[94.0231,114.455],[94.0058,114.228],[94,114],[94,106]]
M73 P0 R12
M106 S0
M106 P2 S0
;TYPE:Custom
M140 S0
M104 S0 
START_PRINT EXTRUDER_TEMP=260 BED_TEMP=80
G90
G21
M83 ; use relative distances for extrusion
; filament start gcode
M106 S0
M106 P2 S0
;LAYER_CHANGE
;Z:0.2
;HEIGHT:0.2
;BEFORE_LAYER_CHANGE
;0.2
G92 E0

G1 E-.6 F2400
;_SET_FAN_SPEED_CHANGING_LAYER
SET_VELOCITY_LIMIT ACCEL=500 ACCEL_TO_DECEL=250
SET_VELOCITY_LIMIT SQUARE_CORNER_VELOCITY=9
EXCLUDE_OBJECT_START NAME=кабельканал_2.stp_id_0_copy_0
G1 Z.2 F42000
G1 X112.251 Y114.871
G1 Z.2
G1 E.6 F2400
;TYPE:Inner wall
;WIDTH:0.499999
G1 F3600
G1 X112.268 Y115.023 E.00555
G1 X112.417 Y115.424 E.01563
G1 X112.725 Y115.83 E.01859
G1 X113.213 Y116.148 E.02126
;WIDTH:0.500222
G1 X113.829 Y116.271 E.02291
M73 P0 R11
G1 X124.229 Y116.271 E.37964
G1 X124.229 Y116.729 E.01669
;WIDTH:0.500223
G1 X113.097 Y116.729 E.40634
;WIDTH:0.499999
G1 X102.797 Y116.729 E.37583
G1 X102.913 Y116.61 E.00608
G1 X103.276 Y116.152 E.02132
G1 X103.626 Y115.531 E.02599
G1 X103.862 Y114.89 E.02492
G1 X103.971 Y113.988 E.03318
G1 X103.971 Y105.875 E.29602
G1 X103.869 Y105.115 E.02798
G1 X103.652 Y104.501 E.02374
G1 X103.46 Y104.125 E.01541
G1 X103.188 Y103.698 E.01846
G1 X102.826 Y103.271 E.02043
G1 X113.097 Y103.271 E.37476
;WIDTH:0.500223
G1 X124.229 Y103.271 E.40634
G1 X124.229 Y103.729 E.01669
G1 X113.606 Y103.729 E.38777
G1 X113.213 Y103.852 E.01502
;WIDTH:0.499999
G1 X112.725 Y104.17 E.02126
G1 X112.417 Y104.576 E.01859
G1 X112.268 Y104.977 E.01563
G1 X112.229 Y105.329 E.01289
G1 X112.229 Y114.671 E.34089
G1 X112.247 Y114.832 E.00588
;WIPE_START
G1 X112.268 Y115.023 E-.05764
G1 X112.417 Y115.424 E-.12854
G1 X112.725 Y115.83 E-.15284
G1 X113.213 Y116.148 E-.17478
G1 X113.495 Y116.205 E-.08619
;WIPE_END
G1 Z.4 F42000
G1 X101.321 Y102.814 Z.4
G1 Z.2
G1 E.6 F2400
G1 F3600
G1 X124.686 Y102.814 E.85248
G1 X124.686 Y104.186 E.05005
G1 X113.829 Y104.186 E.39614
G1 X113.389 Y104.274 E.01635
G1 X113.04 Y104.501 E.01518
G1 X112.82 Y104.791 E.01328
G1 X112.714 Y105.078 E.01117
G1 X112.686 Y105.329 E.00921
G1 X112.686 Y114.847 E.3473
G1 X112.82 Y115.209 E.01409
G1 X113.04 Y115.499 E.01328
G1 X113.389 Y115.726 E.01518
G1 X113.829 Y115.814 E.01635
G1 X124.686 Y115.814 E.39614
G1 X124.686 Y117.186 E.05005
G1 X101.251 Y117.186 E.85506
G1 X101.757 Y116.952 E.02036
G1 X102.185 Y116.664 E.01881
G1 X102.564 Y116.315 E.01881
G1 X102.887 Y115.913 E.0188
G1 X103.23 Y115.302 E.02559
G1 X103.409 Y114.828 E.01847
G1 X103.514 Y113.988 E.0309
G1 X103.514 Y105.905 E.2949
G1 X103.416 Y105.176 E.02686
G1 X103.261 Y104.737 E.01696
G1 X103.075 Y104.37 E.01502
G1 X102.673 Y103.776 E.02617
G1 X102.249 Y103.366 E.02154
G1 X101.692 Y102.989 E.02453
G1 X101.357 Y102.831 E.01349
;WIPE_START
G1 X103.357 Y102.83 E-.6
;WIPE_END
G1 Z.4 F42000
G1 X96.463 Y104.668 Z.4
G1 Z.2
G1 E.6 F2400
;WIDTH:0.397387
G1 F3600
G1 X96.331 Y104.935 E.00841
;WIDTH:0.432978
G1 X96.288 Y105.202 E.00843
;WIDTH:0.468569
G1 X96.244 Y105.47 E.0092
;WIDTH:0.500223
G1 X96.229 Y106.095 E.02284
G1 X96.229 Y113.928 E.28593
G1 X96.246 Y114.351 E.01547
;WIDTH:0.469271
G1 X96.263 Y114.775 E.01442
;WIDTH:0.438319
G1 X96.347 Y115.045 E.00892
;WIDTH:0.40801
G1 X96.431 Y115.315 E.00824
;WIDTH:0.377701
G1 X96.846 Y115.973 E.0208
;WIDTH:0.35885
G1 X97.197 Y116.463 E.01521
G1 X96.686 Y116.126 E.01544
M73 P1 R11
G1 X96.414 Y115.855 E.0097
;WIDTH:0.377701
G1 X96.144 Y115.484 E.01226
;WIDTH:0.413687
G1 X95.944 Y115.062 E.0138
;WIDTH:0.44837
G1 X95.873 Y114.746 E.01048
;WIDTH:0.483053
G1 X95.803 Y114.43 E.01138
;WIDTH:0.500223
G1 X95.771 Y113.928 E.01837
G1 X95.771 Y106.087 E.28621
G1 X95.82 Y105.448 E.0234
;WIDTH:0.468569
G1 X95.897 Y105.091 E.0124
;WIDTH:0.427713
G1 X96.076 Y104.64 E.01493
;WIDTH:0.386944
G1 X96.366 Y104.199 E.01449
;WIDTH:0.361059
G1 X96.759 Y103.819 E.01388
G1 X97.135 Y103.58 E.01132
G1 X96.883 Y103.92 E.01076
;WIDTH:0.364708
G1 X96.565 Y104.463 E.01616
;WIDTH:0.397387
G1 X96.48 Y104.633 E.00537
G1 X96.722 Y105.124 F42000
;WIDTH:0.499999
G1 F3600
G1 X96.686 Y105.329 E.0076
G1 X96.688 Y114.747 E.34363
G1 X96.79 Y115.149 E.01515
G1 X97.168 Y115.758 E.02615
G1 X97.522 Y116.252 E.02217
G1 X97.892 Y116.61 E.01879
G1 X98.312 Y116.909 E.01881
G1 X98.902 Y117.186 E.02377
G1 X98.529 Y117.186 E.01359
G1 X98.026 Y117.139 E.01843
G1 X97.449 Y116.994 E.02172
G1 X96.845 Y116.716 E.02426
G1 X96.458 Y116.437 E.01741
G1 X96.085 Y116.073 E.01901
G1 X95.779 Y115.645 E.01918
G1 X95.481 Y115.004 E.02581
G1 X95.354 Y114.482 E.01961
G1 X95.314 Y113.954 E.01932
G1 X95.314 Y106.06 E.28801
G1 X95.387 Y105.346 E.02621
G1 X95.535 Y104.852 E.01879
G1 X95.793 Y104.34 E.02093
G1 X96.182 Y103.817 E.02378
G1 X96.577 Y103.471 E.01914
G1 X97.141 Y103.126 E.02415
G1 X97.665 Y102.936 E.02033
G1 X98.223 Y102.839 E.02065
G1 X98.813 Y102.814 E.02157
G1 X98.45 Y102.983 E.01463
G1 X98.023 Y103.256 E.01849
G1 X97.641 Y103.59 E.01849
G1 X97.313 Y103.976 E.01849
G1 X97.028 Y104.44 E.01988
G1 X96.757 Y104.933 E.02051
G1 X96.73 Y105.084 E.00562
G1 X97.172 Y105.187 F42000
G1 F3600
G1 X97.199 Y105.056 E.0049
G1 X97.611 Y104.347 E.02991
G1 X97.951 Y103.926 E.01972
G1 X98.399 Y103.553 E.02129
G1 X98.951 Y103.25 E.02297
;WIDTH:0.54759
G1 X99.114 Y103.174 E.00721
;WIDTH:0.595181
G1 X99.276 Y103.099 E.0079
;WIDTH:0.642772
G1 X99.439 Y103.024 E.00858
G1 X100.185 Y102.98 E.0358
;WIDTH:0.618718
G1 X100.377 Y102.987 E.00886
G1 X100.539 Y103.038 E.0078
;WIDTH:0.579145
G1 X100.701 Y103.088 E.00726
;WIDTH:0.539572
G1 X100.863 Y103.139 E.00673
;WIDTH:0.499999
G1 X101.436 Y103.368 E.0225
G1 X101.993 Y103.744 E.02453
G1 X102.417 Y104.19 E.02245
G1 X102.689 Y104.616 E.01846
G1 X102.963 Y105.237 E.02474
G1 X103.057 Y105.936 E.02574
G1 X103.057 Y113.988 E.29377
G1 X102.956 Y114.765 E.02861
G1 X102.849 Y115.05 E.01108
G1 X102.497 Y115.674 E.02615
G1 X102.142 Y116.094 E.02005
G1 X101.801 Y116.382 E.01629
G1 X101.419 Y116.615 E.01633
;WIDTH:0.537885
G1 X101.177 Y116.721 E.01045
;WIDTH:0.575771
G1 X100.935 Y116.827 E.01125
;WIDTH:0.613656
G1 X100.692 Y116.933 E.01205
;WIDTH:0.626038
G1 X100.242 Y116.999 E.02117
;WIDTH:0.638555
G1 X99.673 Y116.983 E.02708
G1 X99.424 Y116.892 E.01262
;WIDTH:0.59237
G1 X99.174 Y116.801 E.01164
;WIDTH:0.546185
G1 X98.925 Y116.709 E.01066
;WIDTH:0.499999
G1 X98.441 Y116.45 E.02005
G1 X97.955 Y116.041 E.02315
G1 X97.766 Y115.831 E.01031
G1 X97.481 Y115.403 E.01878
G1 X97.364 Y115.154 E.01004
G1 X97.276 Y115.077 E.00427
G1 X97.155 Y114.8 E.01103
G1 X97.143 Y105.329 E.34558
G1 X97.164 Y105.226 E.0038
G1 X97.625 Y105.26 F42000
;TYPE:Outer wall
G1 F3600
G1 X97.654 Y105.181 E.00308
G1 X97.724 Y105.149 E.00282
G1 X97.835 Y104.869 E.01097
G1 X98.025 Y104.55 E.01355
G1 X98.435 Y104.102 E.02215
G1 X98.844 Y103.808 E.0184
G1 X99.18 Y103.65 E.01354
G1 X99.552 Y103.542 E.01415
G1 X100.223 Y103.492 E.02454
G1 X100.779 Y103.588 E.02059
G1 X101.18 Y103.746 E.01572
G1 X101.737 Y104.123 E.02453
G1 X102.032 Y104.435 E.01568
G1 X102.304 Y104.862 E.01846
G1 X102.432 Y105.183 E.0126
G1 X102.51 Y105.298 E.00507
G1 X102.6 Y105.967 E.02462
G1 X102.6 Y113.988 E.29265
G1 X102.503 Y114.703 E.02633
G1 X102.468 Y114.797 E.00369
G1 X102.419 Y114.823 E.002
G1 X102.287 Y115.142 E.0126
G1 X102.087 Y115.463 E.01378
G1 X101.842 Y115.75 E.01378
G1 X101.556 Y115.996 E.01378
G1 X101.235 Y116.197 E.01379
G1 X100.884 Y116.349 E.01396
G1 X100.524 Y116.443 E.01357
G1 X100.149 Y116.483 E.01378
G1 X99.772 Y116.466 E.01378
G1 X99.401 Y116.393 E.01378
G1 X99 Y116.24 E.01568
G1 X98.467 Y115.898 E.0231
G1 X98.146 Y115.578 E.01653
G1 X97.861 Y115.15 E.01878
G1 X97.739 Y114.861 E.01144
G1 X97.621 Y114.767 E.0055
G1 X97.6 Y113.928 E.03062
G1 X97.6 Y105.329 E.31376
G1 X97.611 Y105.298 E.00119
;WIPE_START
G1 X97.654 Y105.181 E-.03732
G1 X97.724 Y105.149 E-.02318
G1 X97.835 Y104.869 E-.09019
G1 X98.025 Y104.55 E-.11141
G1 X98.435 Y104.102 E-.18209
G1 X98.844 Y103.808 E-.15129
G1 X98.857 Y103.801 E-.00452
;WIPE_END
G1 Z.4 F42000
G1 X95.669 Y103.745 Z.4
G1 Z.2
G1 E.6 F2400
;TYPE:Inner wall
G1 F3600
G1 X95.855 Y103.498 E.01129
G1 X96.265 Y103.127 E.02019
G1 X96.808 Y102.788 E.02333
G1 X97.138 Y102.635 E.01329
G1 X97.76 Y102.445 E.02372
G1 X98.373 Y102.369 E.02253
G1 X98.918 Y102.357 E.01989
;WIDTH:0.545425
G1 X99.109 Y102.38 E.00772
;WIDTH:0.59085
G1 X99.3 Y102.403 E.00842
;WIDTH:0.636275
G1 X99.491 Y102.425 E.00912
G1 X100.431 Y102.416 E.04449
;WIDTH:0.618718
G1 X100.599 Y102.397 E.0078
;WIDTH:0.579145
G1 X100.768 Y102.377 E.00726
;WIDTH:0.539572
G1 X100.936 Y102.357 E.00673
;WIDTH:0.499999
G1 X125.143 Y102.357 E.88321
G1 X125.143 Y104.643 E.0834
G1 X113.829 Y104.643 E.41282
G1 X113.565 Y104.696 E.00981
G1 X113.356 Y104.832 E.00911
G1 X113.224 Y105.006 E.00797
G1 X113.143 Y105.329 E.01213
G1 X113.143 Y114.671 E.34089
G1 X113.224 Y114.994 E.01213
G1 X113.356 Y115.168 E.00797
G1 X113.565 Y115.304 E.00911
G1 X113.829 Y115.357 E.00981
G1 X125.143 Y115.357 E.41282
G1 X125.143 Y117.643 E.0834
G1 X101.286 Y117.643 E.87043
;WIDTH:0.537885
G1 X101.117 Y117.624 E.00673
;WIDTH:0.575771
G1 X100.948 Y117.605 E.00724
;WIDTH:0.613656
G1 X100.779 Y117.586 E.00776
;WIDTH:0.626038
G1 X100.275 Y117.58 E.02345
;WIDTH:0.629554
G1 X99.775 Y117.578 E.02342
G1 X99.608 Y117.597 E.00788
;WIDTH:0.592736
G1 X99.441 Y117.615 E.00738
;WIDTH:0.555918
G1 X99.273 Y117.633 E.00689
;WIDTH:0.5191
G1 X98.765 Y117.643 E.01933
;WIDTH:0.499999
G1 X98.14 Y117.624 E.02279
G1 X97.641 Y117.534 E.01852
G1 X97.122 Y117.366 E.0199
G1 X96.634 Y117.121 E.01994
G1 X96.187 Y116.806 E.01994
G1 X95.792 Y116.426 E.02002
G1 X95.456 Y115.988 E.0201
G1 X95.181 Y115.487 E.02086
G1 X95.013 Y115.032 E.01771
G1 X94.895 Y114.466 E.0211
G1 X94.857 Y113.928 E.01967
G1 X94.857 Y106.027 E.28827
G1 X94.963 Y105.164 E.03173
G1 X95.12 Y104.662 E.01919
G1 X95.412 Y104.089 E.02346
G1 X95.645 Y103.777 E.0142
;WIPE_START
G1 X95.855 Y103.498 E-.10486
G1 X96.265 Y103.127 E-.16603
G1 X96.808 Y102.788 E-.19182
G1 X97.138 Y102.635 E-.10924
G1 X97.227 Y102.608 E-.02806
;WIPE_END
G1 Z.4 F42000
G1 X113.6 Y114.671 Z.4
G1 Z.2
M73 P2 R11
G1 E.6 F2400
;TYPE:Outer wall
G1 F3600
G1 X113.671 Y114.837 E.00657
G1 X113.829 Y114.9 E.00619
G1 X125.6 Y114.9 E.42949
G1 X125.6 Y118.1 E.11676
G1 X98.765 Y118.1 E.97911
G1 X98.088 Y118.079 E.0247
G1 X97.473 Y117.968 E.02283
G1 X96.883 Y117.767 E.02271
G1 X96.332 Y117.479 E.02272
G1 X95.83 Y117.11 E.02271
G1 X95.39 Y116.67 E.02271
G1 X95.021 Y116.168 E.02271
G1 X94.776 Y115.699 E.01933
G1 X94.589 Y115.23 E.0184
G1 X94.448 Y114.621 E.02283
G1 X94.4 Y113.989 E.02313
G1 X94.4 Y106.014 E.29096
G1 X94.485 Y105.172 E.03087
G1 X94.656 Y104.576 E.02262
G1 X94.916 Y104.011 E.02271
G1 X95.209 Y103.566 E.01944
G1 X95.527 Y103.178 E.01829
G1 X95.989 Y102.76 E.02273
G1 X96.697 Y102.319 E.03045
G1 X97.273 Y102.089 E.02262
G1 X97.879 Y101.948 E.02271
G1 X98.511 Y101.9 E.02313
G1 X125.6 Y101.9 E.98836
G1 X125.6 Y105.1 E.11676
G1 X113.829 Y105.1 E.42949
G1 X113.671 Y105.163 E.00619
G1 X113.6 Y105.329 E.00657
G1 X113.6 Y114.631 E.33943
;WIPE_START
G1 X113.671 Y114.837 E-.06522
G1 X113.829 Y114.9 E-.05093
G1 X115.441 Y114.9 E-.48386
;WIPE_END
G1 Z.4 F42000
G1 X103.51 Y116.027 Z.4
G1 Z.2
G1 E.6 F2400
;TYPE:Bottom surface
;WIDTH:0.511497
G1 F6300
G1 X103.866 Y116.383 E.01884
G1 X104.529 Y116.383 E.02479
G1 X103.897 Y115.751 E.03342
G1 X104.081 Y115.272 E.01919
G1 X105.192 Y116.383 E.05877
G1 X105.855 Y116.384 E.02479
G1 X104.226 Y114.755 E.08613
G1 X104.302 Y114.168 E.02214
G1 X106.517 Y116.384 E.1172
G1 X107.18 Y116.384 E.02479
G1 X104.314 Y113.518 E.15162
G1 X104.314 Y112.855 E.02479
G1 X107.843 Y116.384 E.18668
G1 X108.506 Y116.384 E.02479
G1 X104.314 Y112.192 E.22174
G1 X104.314 Y111.53 E.02479
G1 X109.169 Y116.385 E.2568
G1 X109.832 Y116.385 E.02479
G1 X104.314 Y110.867 E.29187
G1 X104.314 Y110.204 E.02479
G1 X110.495 Y116.385 E.32693
G1 X111.157 Y116.385 E.02479
G1 X104.314 Y109.542 E.36199
G1 X104.314 Y108.879 E.02479
G1 X111.82 Y116.385 E.39705
G1 X112.483 Y116.385 E.02479
G1 X104.314 Y108.216 E.43212
G1 X104.314 Y107.554 E.02479
G1 X111.976 Y115.216 E.40529
G1 X111.933 Y115.099 E.00464
G1 X111.886 Y114.678 E.01587
G1 X111.886 Y114.463 E.00804
G1 X104.314 Y106.891 E.40053
G1 X104.314 Y106.228 E.02479
G1 X111.886 Y113.8 E.40053
G1 X111.886 Y113.138 E.02479
G1 X104.269 Y105.521 E.40289
M73 P3 R11
G1 X104.207 Y105.057 E.01751
G1 X104.065 Y104.654 E.016
G1 X111.886 Y112.475 E.41373
G1 X111.886 Y111.812 E.02479
G1 X103.688 Y103.614 E.43366
G1 X104.35 Y103.614 E.02479
G1 X111.886 Y111.15 E.39861
G1 X111.886 Y110.487 E.02479
G1 X105.013 Y103.614 E.36356
G1 X105.676 Y103.614 E.02479
G1 X111.886 Y109.824 E.3285
G1 X111.886 Y109.162 E.02479
G1 X106.338 Y103.614 E.29345
G1 X107.001 Y103.614 E.02479
G1 X111.886 Y108.499 E.2584
G1 X111.886 Y107.836 E.02479
G1 X107.664 Y103.614 E.22334
G1 X108.326 Y103.614 E.02479
G1 X111.886 Y107.174 E.18829
G1 X111.886 Y106.511 E.02479
G1 X108.989 Y103.614 E.15324
G1 X109.652 Y103.614 E.02479
G1 X111.886 Y105.848 E.11818
G1 X111.9 Y105.199 E.02428
G1 X110.314 Y103.614 E.08385
G1 X110.977 Y103.614 E.02479
G1 X112.022 Y104.659 E.05529
G1 X112.114 Y104.412 E.00985
G1 X112.254 Y104.228 E.00865
G1 X111.64 Y103.614 E.0325
G1 X112.302 Y103.614 E.02479
G1 X112.71 Y104.021 E.02154
;LAYER_CHANGE
;Z:0.4
;HEIGHT:0.2
;BEFORE_LAYER_CHANGE
;0.4
G92 E0

;WIPE_START
G1 F6300
G1 X112.302 Y103.614 E-.17273
G1 X111.64 Y103.614 E-.1988
G1 X112.178 Y104.153 E-.22847
;WIPE_END
EXCLUDE_OBJECT_END NAME=кабельканал_2.stp_id_0_copy_0
;_SET_FAN_SPEED_CHANGING_LAYER
SET_VELOCITY_LIMIT ACCEL=12000 ACCEL_TO_DECEL=6000
M140 S80 ; set bed temperature
SET_VELOCITY_LIMIT SQUARE_CORNER_VELOCITY=12
EXCLUDE_OBJECT_START NAME=кабельканал_2.stp_id_0_copy_0
G1 Z.4 F42000
G1 X101.765 Y102.916 Z.4
G1 E.6 F2400
SET_VELOCITY_LIMIT ACCEL=5000 ACCEL_TO_DECEL=2500 SQUARE_CORNER_VELOCITY=7
;TYPE:Inner wall
;WIDTH:0.449999
G1 F7557
G1 X124.584 Y102.916 E.74149
G1 X124.584 Y104.084 E.03794
G1 X113.809 Y104.084 E.35011
G1 X113.442 Y104.191 E.01243
G1 X113.017 Y104.469 E.01651
G1 X112.748 Y104.822 E.01443
G1 X112.618 Y105.172 E.01214
G1 X112.584 Y105.479 E.01001
G1 X112.584 Y114.521 E.29385
G1 X112.618 Y114.828 E.01001
G1 X112.748 Y115.178 E.01214
G1 X113.017 Y115.531 E.01443
G1 X113.442 Y115.809 E.01651
G1 X113.979 Y115.916 E.01778
G1 X124.584 Y115.916 E.34461
G1 X124.584 Y117.084 E.03794
G1 X101.721 Y117.084 E.74292
G1 X102.26 Y116.73 E.02096
