; HEADER_BLOCK_START
; generated by OrcaSlicer 2.1.0 on 2024-11-13 at 19:04:24
; total layer number: 200
; filament_density: 1.27
; filament_diameter: 1.75
; max_z_height: 40.00
; HEADER_BLOCK_END

; THUMBNAIL_BLOCK_START

;
; THUMBNAIL_BLOCK_END

; THUMBNAIL_BLOCK_START

;
; THUMBNAIL_BLOCK_END

; external perimeters extrusion width = 0.42mm
; perimeters extrusion width = 0.45mm
; infill extrusion width = 0.45mm
; solid infill extrusion width = 0.42mm
; top infill extrusion width = 0.42mm
; support material extrusion width = 0.42mm
; first layer extrusion width = 0.50mm

; EXECUTABLE_BLOCK_START
EXCLUDE_OBJECT_DEFINE NAME=клешня_сос.stp_id_0_copy_0 CENTER=110,110 POLYGON=[[22.3353,120],[112.665,90],[197.665,90],[197.665,120],[122.335,130],[22.3353,130],[22.3353,120]]
M73 P0 R48
M106 S0
M106 P2 S0
;TYPE:Custom
M140 S0
M104 S0 
START_PRINT EXTRUDER_TEMP=250 BED_TEMP=80
G90
G21
M83 ; use relative distances for extrusion
; filament start gcode
M106 S0
M106 P2 S0
;LAYER_CHANGE
;Z:0.2
;HEIGHT:0.2
;BEFORE_LAYER_CHANGE
;0.2
G92 E0

G1 E-.6 F2400
;_SET_FAN_SPEED_CHANGING_LAYER
SET_VELOCITY_LIMIT ACCEL=500 ACCEL_TO_DECEL=250
SET_VELOCITY_LIMIT SQUARE_CORNER_VELOCITY=9
EXCLUDE_OBJECT_START NAME=клешня_сос.stp_id_0_copy_0
G1 Z.2 F42000
G1 X19.453 Y106.732
G1 Z.2
G1 E.6 F2400
;TYPE:Brim
;WIDTH:0.5
G1 F3600
G1 X20.587 Y106.539 E.04196
G1 X21.993 Y106.435 E.05146
G1 X25.914 Y106.343 E.14309
G1 X28.335 Y106.241 E.08842
G1 X30.816 Y106.094 E.09066
G1 X34.474 Y105.797 E.13393
G1 X38.13 Y105.404 E.13416
G1 X40.563 Y105.088 E.08952
G1 X44.196 Y104.536 E.13407
G1 X46.612 Y104.115 E.08948
G1 X49.024 Y103.651 E.08959
G1 X51.42 Y103.147 E.08934
G1 X53.808 Y102.601 E.08939
G1 X56.191 Y102.012 E.08958
G1 X58.557 Y101.384 E.0893
G1 X60.902 Y100.717 E.08896
G1 X63.266 Y100 E.09011
G1 X65.602 Y99.246 E.08955
G1 X69.059 Y98.047 E.13351
G1 X71.358 Y97.194 E.08946
G1 X73.644 Y96.3 E.08958
G1 X75.907 Y95.368 E.08929
G1 X78.161 Y94.395 E.08958
G1 X80.424 Y93.37 E.09064
G1 X83.705 Y91.797 E.13276
G1 X85.893 Y90.689 E.08947
G1 X88.063 Y89.542 E.08958
G1 X90.239 Y88.342 E.09065
G1 X93.387 Y86.517 E.13276
G1 X95.484 Y85.239 E.08961
G1 X97.555 Y83.928 E.08944
G1 X99.63 Y82.561 E.09065
G1 X102.625 Y80.495 E.13275
G1 X104.658 Y79.027 E.0915
G1 X105.621 Y78.386 E.0422
G1 X106.63 Y77.832 E.042
G1 X107.683 Y77.366 E.042
G1 X108.772 Y76.992 E.042
G1 X109.888 Y76.712 E.042
G1 X111.023 Y76.529 E.04194
G1 X112.609 Y76.435 E.05799
G1 X197.657 Y76.416 E3.10304
G1 X198.812 Y76.465 E.04218
G1 X199.954 Y76.612 E.042
G1 X201.079 Y76.856 E.042
G1 X202.179 Y77.195 E.042
G1 X203.247 Y77.626 E.04202
G1 X204.192 Y78.102 E.03863
G1 X205.26 Y78.749 E.04555
G1 X206.188 Y79.43 E.04199
G1 X207.054 Y80.188 E.042
G1 X207.852 Y81.017 E.042
G1 X208.577 Y81.912 E.042
G1 X209.223 Y82.865 E.042
G1 X209.786 Y83.869 E.042
G1 X210.26 Y84.918 E.042
G1 X210.643 Y86.003 E.042
G1 X210.933 Y87.118 E.042
G1 X211.126 Y88.25 E.04192
G1 X211.233 Y89.947 E.06204
G1 X211.248 Y119.988 E1.09608
G1 X211.2 Y121.143 E.04218
G1 X211.053 Y122.285 E.042
G1 X210.81 Y123.41 E.042
G1 X210.471 Y124.511 E.042
G1 X210.04 Y125.578 E.042
G1 X209.516 Y126.612 E.04228
G1 X208.916 Y127.595 E.04203
G1 X208.235 Y128.523 E.042
G1 X207.477 Y129.389 E.042
G1 X206.647 Y130.188 E.042
G1 X205.753 Y130.913 E.042
G1 X204.8 Y131.559 E.042
G1 X203.796 Y132.121 E.042
G1 X202.747 Y132.595 E.042
G1 X201.661 Y132.979 E.042
G1 X200.547 Y133.268 E.042
G1 X199.414 Y133.461 E.04194
G1 X197.83 Y133.568 E.05791
G1 X191.894 Y133.635 E.21661
G1 X186.62 Y133.789 E.19249
G1 X181.35 Y134.045 E.19251
G1 X176.086 Y134.404 E.19252
G1 X172.576 Y134.7 E.12852
G1 X169.075 Y135.042 E.12833
G1 X163.838 Y135.638 E.19234
G1 X160.349 Y136.093 E.12837
G1 X156.908 Y136.587 E.12682
G1 X153.388 Y137.138 E.13001
G1 X148.193 Y138.039 E.19235
G1 X144.737 Y138.696 E.12837
G1 X139.571 Y139.766 E.19249
G1 X136.133 Y140.536 E.12855
G1 X131.009 Y141.771 E.1923
G1 X125.865 Y143.117 E.194
G1 X124.736 Y143.369 E.04221
G1 X123.596 Y143.524 E.04199
G1 X122.356 Y143.58 E.04525
G1 X22.341 Y143.584 E3.64918
G1 X21.186 Y143.535 E.04218
G1 X20.044 Y143.387 E.042
G1 X18.919 Y143.144 E.042
G1 X17.819 Y142.805 E.042
G1 X16.751 Y142.373 E.042
G1 X15.724 Y141.852 E.04205
G1 X14.74 Y141.252 E.04203
G1 X13.812 Y140.57 E.042
G1 X12.946 Y139.812 E.042
G1 X12.148 Y138.983 E.042
G1 X11.423 Y138.088 E.042
G1 X10.777 Y137.135 E.042
G1 X10.214 Y136.131 E.042
G1 X9.74 Y135.082 E.042
G1 X9.357 Y133.997 E.042
G1 X9.067 Y132.882 E.042
G1 X8.874 Y131.75 E.04192
G1 X8.767 Y130.067 E.06154
G1 X8.752 Y120.025 E.36636
G1 X8.799 Y118.87 E.04218
G1 X8.944 Y117.728 E.042
G1 X9.187 Y116.603 E.042
G1 X9.524 Y115.502 E.042
G1 X9.954 Y114.434 E.04201
G1 X10.437 Y113.472 E.03927
G1 X11.084 Y112.405 E.04554
G1 X11.765 Y111.477 E.04199
G1 X12.523 Y110.611 E.042
G1 X13.353 Y109.812 E.042
G1 X14.247 Y109.087 E.042
G1 X15.2 Y108.441 E.042
G1 X16.204 Y107.879 E.042
G1 X17.253 Y107.405 E.042
G1 X18.339 Y107.021 E.042
G1 X19.414 Y106.742 E.04054
G1 X19.529 Y107.184 F42000
G1 F3600
G1 X19.543 Y107.181 E.00053
G1 X20.636 Y106.994 E.04044
G1 X22.019 Y106.891 E.05061
G1 X25.924 Y106.8 E.1425
G1 X28.363 Y106.698 E.0891
G1 X30.854 Y106.55 E.09103
G1 X34.509 Y106.253 E.13381
G1 X38.178 Y105.858 E.13461
G1 X40.621 Y105.542 E.08989
G1 X44.263 Y104.988 E.13443
G1 X46.689 Y104.566 E.08985
G1 X49.109 Y104.101 E.08988
G1 X51.523 Y103.593 E.09
G1 X53.919 Y103.044 E.08968
G1 X56.31 Y102.453 E.08987
G1 X58.683 Y101.823 E.08959
G1 X61.036 Y101.154 E.08925
G1 X63.397 Y100.437 E.09003
G1 X65.753 Y99.678 E.0903
G1 X69.207 Y98.48 E.13341
G1 X71.516 Y97.623 E.08984
G1 X73.81 Y96.726 E.08987
G1 X76.09 Y95.787 E.08996
G1 X78.351 Y94.811 E.08987
G1 X80.623 Y93.781 E.09101
G1 X83.901 Y92.209 E.13265
G1 X86.098 Y91.097 E.08984
G1 X88.285 Y89.941 E.09025
G1 X90.47 Y88.737 E.09102
G1 X93.615 Y86.913 E.13265
G1 X95.73 Y85.625 E.09036
G1 X97.808 Y84.309 E.08973
G1 X99.891 Y82.937 E.09102
G1 X102.884 Y80.872 E.13264
G1 X104.916 Y79.404 E.09151
G1 X105.863 Y78.774 E.04147
G1 X106.838 Y78.24 E.04058
G1 X107.845 Y77.795 E.04015
G1 X108.896 Y77.433 E.04058
G1 X109.975 Y77.162 E.04058
G1 X111.066 Y76.985 E.04034
G1 X112.627 Y76.892 E.05705
G1 X197.65 Y76.873 E3.10216
G1 X198.767 Y76.921 E.04079
G1 X199.87 Y77.062 E.04058
G1 X200.957 Y77.297 E.04058
G1 X202.031 Y77.628 E.041
G1 X203.053 Y78.041 E.0402
G1 X203.966 Y78.5 E.03729
G1 X205.001 Y79.126 E.04412
G1 X205.897 Y79.783 E.04054
G1 X206.734 Y80.515 E.04058
G1 X207.506 Y81.316 E.04058
G1 X208.206 Y82.18 E.04058
G1 X208.831 Y83.1 E.04058
G1 X209.374 Y84.07 E.04058
G1 X209.833 Y85.083 E.04058
G1 X210.204 Y86.132 E.04058
G1 X210.484 Y87.208 E.04058
G1 X210.672 Y88.31 E.0408
G1 X210.776 Y89.966 E.06053
G1 X210.791 Y119.976 E1.09494
G1 X210.744 Y121.099 E.04101
G1 X210.601 Y122.213 E.041
G1 X210.366 Y123.3 E.04058
G1 X210.042 Y124.352 E.04015
G1 X209.621 Y125.394 E.041
G1 X209.114 Y126.394 E.0409
G1 X208.533 Y127.345 E.04067
G1 X207.874 Y128.241 E.04058
G1 X207.149 Y129.069 E.04015
G1 X206.34 Y129.849 E.041
G1 X205.476 Y130.548 E.04058
G1 X204.565 Y131.166 E.04015
G1 X203.595 Y131.71 E.04058
G1 X202.581 Y132.169 E.04058
G1 X201.522 Y132.543 E.041
G1 X200.457 Y132.819 E.04015
G1 X199.367 Y133.006 E.04034
G1 X197.816 Y133.111 E.05671
G1 X191.89 Y133.178 E.21624
G1 X186.608 Y133.332 E.19279
G1 X181.329 Y133.589 E.19284
G1 X176.056 Y133.948 E.19285
G1 X172.531 Y134.246 E.12908
G1 X169.023 Y134.588 E.12861
G1 X163.787 Y135.184 E.19226
G1 X160.29 Y135.64 E.12865
G1 X156.837 Y136.135 E.12731
G1 X153.309 Y136.688 E.13029
G1 X148.116 Y137.589 E.19227
G1 X144.653 Y138.247 E.12864
G1 X139.479 Y139.318 E.19276
G1 X136.025 Y140.092 E.12917
G1 X130.903 Y141.326 E.19221
G1 X125.76 Y142.672 E.19398
G1 X124.661 Y142.918 E.04107
G1 X123.548 Y143.068 E.04097
G1 X122.343 Y143.123 E.04403
G1 X22.353 Y143.127 E3.64822
G1 X21.23 Y143.079 E.04101
G1 X20.127 Y142.937 E.04058
G1 X19.04 Y142.702 E.04058
G1 X17.966 Y142.371 E.041
G1 X16.936 Y141.954 E.04058
G1 X15.942 Y141.449 E.04067
G1 X14.99 Y140.868 E.04068
G1 X14.094 Y140.209 E.04058
G1 X13.258 Y139.477 E.04058
G1 X12.494 Y138.684 E.04015
G1 X11.794 Y137.82 E.04058
G1 X11.169 Y136.9 E.04058
G1 X10.626 Y135.93 E.04058
G1 X10.167 Y134.917 E.04058
G1 X9.793 Y133.857 E.041
G1 X9.516 Y132.792 E.04015
G1 X9.33 Y131.704 E.04028
G1 X9.224 Y130.047 E.06056
G1 X9.209 Y120.032 E.36544
G1 X9.256 Y118.903 E.04122
G1 X9.395 Y117.811 E.04015
G1 X9.628 Y116.724 E.04058
G1 X9.957 Y115.649 E.041
G1 X10.369 Y114.628 E.04019
G1 X10.835 Y113.698 E.03792
G1 X11.461 Y112.664 E.04412
G1 X12.119 Y111.768 E.04054
G1 X12.851 Y110.931 E.04058
G1 X13.651 Y110.159 E.04058
G1 X14.524 Y109.452 E.041
G1 X15.445 Y108.828 E.04058
G1 X16.416 Y108.285 E.04058
G1 X17.429 Y107.827 E.04058
G1 X18.478 Y107.457 E.04058
G1 X19.49 Y107.194 E.03816
G1 X19.605 Y107.637 F42000
G1 F3600
G1 X19.645 Y107.627 E.0015
G1 X20.685 Y107.449 E.03849
G1 X22.045 Y107.348 E.04976
G1 X25.933 Y107.257 E.1419
G1 X28.392 Y107.154 E.08979
G1 X30.893 Y107.005 E.09141
G1 X34.545 Y106.709 E.13369
G1 X38.225 Y106.313 E.13505
G1 X40.678 Y105.995 E.09025
G1 X44.331 Y105.441 E.13479
G1 X46.767 Y105.016 E.09022
G1 X49.194 Y104.55 E.09017
G1 X51.626 Y104.038 E.09067
G1 X54.029 Y103.488 E.08997
G1 X56.428 Y102.895 E.09016
G1 X58.809 Y102.262 E.08988
G1 X61.17 Y101.591 E.08954
G1 X63.539 Y100.872 E.09032
G1 X65.904 Y100.109 E.09068
G1 X69.356 Y98.912 E.1333
G1 X71.673 Y98.052 E.09021
G1 X73.975 Y97.152 E.09017
G1 X76.262 Y96.211 E.09025
G1 X78.541 Y95.226 E.09055
G1 X80.822 Y94.193 E.09138
G1 X84.098 Y92.622 E.13255
G1 X86.304 Y91.505 E.09021
G1 X88.507 Y90.341 E.09092
G1 X90.7 Y89.132 E.09139
G1 X93.843 Y87.309 E.13254
G1 X95.976 Y86.01 E.09111
G1 X98.06 Y84.69 E.09003
G1 X100.152 Y83.312 E.09139
G1 X103.142 Y81.25 E.13253
G1 X105.175 Y79.781 E.0915
G1 X106.105 Y79.163 E.04075
G1 X107.036 Y78.653 E.03873
G1 X108.006 Y78.223 E.03873
G1 X109.021 Y77.873 E.03915
G1 X110.062 Y77.611 E.03915
G1 X111.109 Y77.441 E.03874
G1 X112.645 Y77.35 E.05611
G1 X197.643 Y77.331 E3.10127
G1 X198.734 Y77.377 E.03983
G1 X199.798 Y77.514 E.03916
G1 X200.847 Y77.741 E.03915
G1 X201.883 Y78.061 E.03957
G1 X202.859 Y78.455 E.03839
G1 X203.74 Y78.897 E.03596
G1 X204.741 Y79.503 E.0427
G1 X205.606 Y80.137 E.0391
G1 X206.414 Y80.843 E.03915
G1 X207.167 Y81.624 E.03958
G1 X207.842 Y82.457 E.03915
G1 X208.444 Y83.346 E.03915
G1 X208.968 Y84.282 E.03915
G1 X209.411 Y85.26 E.03915
G1 X209.768 Y86.271 E.03915
G1 X210.038 Y87.31 E.03915
G1 X210.217 Y88.37 E.03925
G1 X210.319 Y89.985 E.05902
G1 X210.334 Y119.963 E1.0938
G1 X210.288 Y121.066 E.04026
G1 X210.149 Y122.141 E.03957
G1 X209.924 Y123.179 E.03872
G1 X209.613 Y124.193 E.03873
G1 X209.202 Y125.21 E.04
G1 X208.712 Y126.175 E.0395
G1 X208.149 Y127.095 E.03932
G1 X207.521 Y127.95 E.03873
G1 X206.822 Y128.749 E.03873
G1 X206.032 Y129.509 E.04
G1 X205.198 Y130.184 E.03915
G1 X204.319 Y130.78 E.03873
G1 X203.383 Y131.304 E.03916
G1 X202.416 Y131.742 E.03872
G1 X201.382 Y132.107 E.04
G1 X200.366 Y132.371 E.0383
G1 X199.32 Y132.55 E.03874
G1 X197.802 Y132.654 E.0555
G1 X191.886 Y132.721 E.21586
G1 X186.596 Y132.875 E.19308
G1 X181.309 Y133.132 E.19316
G1 X176.026 Y133.492 E.19318
G1 X172.493 Y133.79 E.12936
G1 X168.97 Y134.134 E.12917
G1 X163.736 Y134.73 E.19218
G1 X160.232 Y135.186 E.12893
G1 X156.765 Y135.684 E.1278
G1 X153.229 Y136.238 E.13057
G1 X148.039 Y137.138 E.19219
G1 X144.568 Y137.798 E.12891
G1 X139.388 Y138.87 E.19303
G1 X135.916 Y139.648 E.12979
G1 X130.797 Y140.881 E.19212
G1 X125.654 Y142.227 E.19396
G1 X124.586 Y142.466 E.03993
G1 X123.501 Y142.613 E.03995
G1 X122.329 Y142.666 E.0428
G1 X22.366 Y142.67 E3.64727
G1 X21.275 Y142.623 E.03984
G1 X20.211 Y142.487 E.03915
G1 X19.162 Y142.261 E.03915
G1 X18.114 Y141.938 E.04
G1 X17.12 Y141.535 E.03915
G1 X16.16 Y141.047 E.03928
G1 X15.241 Y140.485 E.03932
G1 X14.376 Y139.849 E.03915
G1 X13.569 Y139.141 E.03915
G1 X12.834 Y138.376 E.03873
G1 X12.158 Y137.543 E.03916
G1 X11.562 Y136.664 E.03872
G1 X11.037 Y135.729 E.03915
G1 X10.594 Y134.751 E.03915
G1 X10.229 Y133.718 E.04
G1 X9.965 Y132.702 E.0383
G1 X9.786 Y131.658 E.03865
G1 X9.681 Y130.028 E.05958
G1 X9.666 Y120.038 E.36451
G1 X9.712 Y118.935 E.04025
G1 X9.847 Y117.882 E.03873
G1 X10.07 Y116.845 E.03872
G1 X10.391 Y115.797 E.04
G1 X10.784 Y114.821 E.03837
G1 X11.233 Y113.925 E.03658
G1 X11.839 Y112.923 E.04269
G1 X12.472 Y112.059 E.0391
G1 X13.186 Y111.242 E.03958
G1 X13.959 Y110.498 E.03915
G1 X14.802 Y109.816 E.03957
G1 X15.691 Y109.214 E.03915
G1 X16.627 Y108.691 E.03915
G1 X17.605 Y108.25 E.03915
G1 X18.618 Y107.893 E.03915
G1 X19.566 Y107.647 E.03577
G1 X19.681 Y108.09 F42000
G1 F3600
G1 X19.735 Y108.076 E.00205
G1 X20.734 Y107.905 E.03696
G1 X22.071 Y107.804 E.04891
G1 X25.942 Y107.714 E.1413
G1 X28.42 Y107.61 E.09047
G1 X30.931 Y107.461 E.09178
G1 X34.58 Y107.164 E.13357
G1 X38.272 Y106.768 E.1355
G1 X40.735 Y106.449 E.09062
G1 X44.398 Y105.893 E.13516
G1 X46.844 Y105.467 E.0906
G1 X49.279 Y104.999 E.09047
G1 X51.719 Y104.485 E.09096
G1 X54.14 Y103.931 E.09064
G1 X56.537 Y103.339 E.09008
G1 X58.935 Y102.701 E.09055
G1 X61.304 Y102.028 E.08983
G1 X63.68 Y101.307 E.09061
G1 X66.055 Y100.54 E.09105
G1 X69.504 Y99.344 E.13319
G1 X71.831 Y98.481 E.09058
G1 X74.14 Y97.578 E.09046
G1 X76.445 Y96.63 E.09091
G1 X78.73 Y95.642 E.09084
G1 X81.021 Y94.604 E.09175
G1 X84.294 Y93.035 E.13244
G1 X86.509 Y91.914 E.09058
G1 X88.729 Y90.741 E.0916
G1 X90.931 Y89.526 E.09176
G1 X94.071 Y87.705 E.13243
G1 X96.221 Y86.396 E.09186
G1 X98.312 Y85.071 E.09032
G1 X100.413 Y83.688 E.09176
G1 X103.4 Y81.627 E.13242
G1 X105.433 Y80.158 E.0915
G1 X106.347 Y79.552 E.04002
G1 X107.244 Y79.06 E.03731
G1 X108.168 Y78.651 E.03689
G1 X109.146 Y78.314 E.03773
G1 X110.148 Y78.061 E.03773
G1 X111.153 Y77.897 E.03713
G1 X112.662 Y77.807 E.05517
G1 X197.636 Y77.788 E3.10037
G1 X198.689 Y77.833 E.03844
G1 X199.726 Y77.966 E.03816
G1 X200.737 Y78.186 E.03772
G1 X201.736 Y78.494 E.03815
G1 X202.665 Y78.87 E.03659
G1 X203.514 Y79.295 E.03463
G1 X204.482 Y79.881 E.04128
G1 X205.315 Y80.49 E.03766
G1 X206.094 Y81.17 E.03772
G1 X206.82 Y81.923 E.03814
G1 X207.471 Y82.725 E.03772
G1 X208.052 Y83.581 E.03772
G1 X208.557 Y84.483 E.03773
G1 X208.984 Y85.425 E.03772
G1 X209.332 Y86.411 E.03815
G1 X209.591 Y87.411 E.03772
G1 X209.763 Y88.43 E.0377
G1 X209.862 Y90.004 E.05752
G1 X209.877 Y119.951 E1.09266
M73 P1 R48
G1 X209.832 Y121.021 E.03908
G1 X209.697 Y122.069 E.03857
G1 X209.48 Y123.069 E.0373
G1 X209.183 Y124.035 E.03688
G1 X208.783 Y125.026 E.039
G1 X208.31 Y125.957 E.03811
G1 X207.766 Y126.844 E.03797
G1 X207.167 Y127.659 E.03689
G1 X206.495 Y128.429 E.0373
G1 X205.725 Y129.17 E.03899
G1 X204.93 Y129.813 E.03729
G1 X204.084 Y130.387 E.03731
G1 X203.182 Y130.893 E.03774
G1 X202.251 Y131.315 E.03729
G1 X201.243 Y131.671 E.039
G1 X200.264 Y131.924 E.03688
G1 X199.272 Y132.094 E.03673
G1 X197.788 Y132.197 E.05429
G1 X191.882 Y132.264 E.21549
G1 X186.584 Y132.418 E.19338
G1 X181.288 Y132.675 E.19348
G1 X175.996 Y133.036 E.19352
G1 X172.448 Y133.335 E.12992
G1 X168.917 Y133.68 E.12945
G1 X163.686 Y134.275 E.1921
G1 X160.174 Y134.733 E.12921
G1 X156.693 Y135.232 E.12829
G1 X153.15 Y135.788 E.13086
G1 X147.962 Y136.687 E.19211
G1 X144.484 Y137.349 E.12918
G1 X139.296 Y138.422 E.1933
G1 X135.808 Y139.203 E.13042
G1 X130.691 Y140.437 E.19204
G1 X125.549 Y141.783 E.19395
G1 X124.511 Y142.015 E.03879
G1 X123.454 Y142.157 E.03893
G1 X122.316 Y142.209 E.04157
G1 X22.379 Y142.213 E3.64631
G1 X21.32 Y142.168 E.03867
G1 X20.294 Y142.037 E.03773
G1 X19.284 Y141.82 E.03771
G1 X18.262 Y141.505 E.03899
G1 X17.304 Y141.116 E.03772
G1 X16.379 Y140.645 E.0379
G1 X15.491 Y140.102 E.03797
G1 X14.659 Y139.488 E.03773
G1 X13.89 Y138.814 E.03731
G1 X13.18 Y138.078 E.03731
G1 X12.529 Y137.274 E.03774
G1 X11.954 Y136.429 E.03731
G1 X11.448 Y135.527 E.03773
G1 X11.021 Y134.586 E.03771
G1 X10.665 Y133.578 E.039
G1 X10.411 Y132.6 E.03688
G1 X10.242 Y131.611 E.03659
G1 X10.138 Y130.009 E.0586
G1 X10.123 Y120.044 E.36357
G1 X10.169 Y118.968 E.03929
G1 X10.299 Y117.954 E.03732
G1 X10.511 Y116.966 E.03688
G1 X10.824 Y115.944 E.039
G1 X11.199 Y115.014 E.03656
