; HEADER_BLOCK_START
; generated by OrcaSlicer 2.1.0 on 2024-12-18 at 18:11:17
; total layer number: 195
; filament_density: 1.27
; filament_diameter: 1.75
; max_z_height: 39.20
; HEADER_BLOCK_END

; THUMBNAIL_BLOCK_START

;
; THUMBNAIL_BLOCK_END

; THUMBNAIL_BLOCK_START

;
; THUMBNAIL_BLOCK_END

; external perimeters extrusion width = 0.42mm
; perimeters extrusion width = 0.45mm
; infill extrusion width = 0.45mm
; solid infill extrusion width = 0.42mm
; top infill extrusion width = 0.42mm
; support material extrusion width = 0.42mm
; first layer extrusion width = 0.50mm

; EXECUTABLE_BLOCK_START
EXCLUDE_OBJECT_DEFINE NAME=клешня_2.stp_id_0_copy_0 CENTER=111.018,116.088 POLYGON=[[85.0253,106.088],[85.9335,102.552],[94.1373,87.5521],[96.3298,86.0876],[137.011,86.0876],[137.011,146.088],[96.3298,146.088],[94.1373,144.623],[85.9335,129.623],[85.0253,126.088],[85.0253,106.088]]
M73 P0 R38
M106 S0
M106 P2 S0
;TYPE:Custom
M140 S0
M104 S0 
START_PRINT EXTRUDER_TEMP=250 BED_TEMP=80
G90
G21
M83 ; use relative distances for extrusion
; filament start gcode
M106 S0
M106 P2 S0
;LAYER_CHANGE
;Z:0.2
;HEIGHT:0.2
;BEFORE_LAYER_CHANGE
;0.2
G92 E0

G1 E-.6 F2400
;_SET_FAN_SPEED_CHANGING_LAYER
SET_VELOCITY_LIMIT ACCEL=500 ACCEL_TO_DECEL=250
SET_VELOCITY_LIMIT SQUARE_CORNER_VELOCITY=9
EXCLUDE_OBJECT_START NAME=клешня_2.stp_id_0_copy_0
G1 Z.2 F42000
G1 X93.669 Y137.329
G1 Z.2
G1 E.6 F2400
;TYPE:Brim
;WIDTH:0.5
G1 F3600
G1 X94.217 Y136.995 E.02341
G1 X94.808 Y136.745 E.02341
G1 X95.426 Y136.586 E.02325
G1 X96.425 Y136.521 E.03654
G1 X97.061 Y136.585 E.02334
G1 X97.326 Y136.645 E.0099
G1 X120.636 Y136.645 E.85047
G1 X121.284 Y136.693 E.02372
G1 X121.906 Y136.834 E.02325
G1 X122.833 Y137.237 E.03689
G1 X123.368 Y137.587 E.02333
G1 X123.847 Y138.014 E.02341
G1 X124.258 Y138.506 E.02341
G1 X124.591 Y139.052 E.02332
G1 X124.902 Y139.838 E.03084
G1 X125.048 Y140.517 E.02536
G1 X125.086 Y141.095 E.02113
G1 X125.086 Y146.079 E.18185
G1 X125.038 Y146.728 E.02372
G1 X124.898 Y147.349 E.02325
G1 X124.495 Y148.276 E.03689
G1 X124.145 Y148.811 E.02333
G1 X123.718 Y149.291 E.02341
G1 X123.225 Y149.702 E.02341
G1 X122.68 Y150.035 E.02332
G1 X121.894 Y150.346 E.03084
G1 X121.214 Y150.492 E.02536
G1 X120.637 Y150.53 E.02113
G1 X96.464 Y150.53 E.88197
G1 X95.887 Y150.492 E.02108
G1 X95.35 Y150.39 E.01994
G1 X94.536 Y150.131 E.03119
G1 X93.966 Y149.839 E.02334
G1 X93.448 Y149.468 E.02327
G1 X92.792 Y148.788 E.03445
G1 X92.365 Y148.16 E.02773
G1 X92.093 Y147.58 E.02337
G1 X91.911 Y146.968 E.02327
G1 X91.809 Y146.023 E.03471
G1 X91.809 Y140.952 E.18502
G1 X91.857 Y140.303 E.02372
G1 X91.997 Y139.682 E.02325
G1 X92.4 Y138.754 E.03689
G1 X92.75 Y138.219 E.02333
G1 X93.177 Y137.74 E.02341
G1 X93.639 Y137.355 E.02196
G1 X93.928 Y137.708 F42000
G1 F3600
G1 X94.418 Y137.408 E.02094
G1 X94.965 Y137.177 E.02168
G1 X95.511 Y137.039 E.02054
G1 X96.428 Y136.981 E.03353
G1 X96.979 Y137.037 E.02022
G1 X97.339 Y137.102 E.01333
G1 X120.614 Y137.102 E.84921
G1 X121.206 Y137.146 E.02168
G1 X121.775 Y137.275 E.02127
G1 X122.625 Y137.647 E.03385
G1 X123.097 Y137.958 E.02062
G1 X123.51 Y138.326 E.0202
G1 X123.879 Y138.765 E.02094
G1 X124.174 Y139.246 E.02059
G1 X124.466 Y139.982 E.02886
G1 X124.592 Y140.571 E.02199
G1 X124.629 Y141.115 E.01989
G1 X124.629 Y146.057 E.18033
G1 X124.586 Y146.65 E.02168
G1 X124.457 Y147.218 E.02127
G1 X124.085 Y148.068 E.03385
G1 X123.774 Y148.54 E.02062
G1 X123.391 Y148.968 E.02094
G1 X122.95 Y149.335 E.02094
G1 X122.464 Y149.628 E.02071
G1 X121.772 Y149.903 E.02719
G1 X121.141 Y150.038 E.02354
G1 X120.617 Y150.073 E.01916
G1 X96.483 Y150.073 E.88054
G1 X95.954 Y150.038 E.01936
G1 X95.471 Y149.947 E.01793
G1 X94.721 Y149.71 E.02869
G1 X94.214 Y149.452 E.02076
G1 X93.758 Y149.128 E.02043
G1 X93.156 Y148.507 E.03153
G1 X92.759 Y147.923 E.02579
G1 X92.526 Y147.426 E.02003
G1 X92.365 Y146.89 E.02043
G1 X92.266 Y145.99 E.03301
G1 X92.266 Y140.974 E.18305
G1 X92.309 Y140.381 E.02168
G1 X92.438 Y139.812 E.02127
G1 X92.81 Y138.963 E.03385
G1 X93.121 Y138.49 E.02062
G1 X93.489 Y138.077 E.0202
G1 X93.898 Y137.734 E.01948
G1 X94.189 Y138.086 F42000
G1 F3600
G1 X94.637 Y137.812 E.01918
G1 X95.121 Y137.609 E.01915
G1 X95.594 Y137.492 E.0178
G1 X96.431 Y137.441 E.03056
G1 X96.91 Y137.489 E.01757
G1 X97.35 Y137.56 E.01626
G1 X120.592 Y137.56 E.84802
G1 X121.128 Y137.599 E.01962
G1 X121.643 Y137.717 E.01927
G1 X122.416 Y138.057 E.0308
G1 X122.809 Y138.316 E.0172
G1 X123.174 Y138.638 E.01777
G1 X123.501 Y139.025 E.01848
G1 X123.758 Y139.441 E.01784
G1 X124.029 Y140.126 E.02687
G1 X124.136 Y140.625 E.01863
G1 X124.172 Y141.135 E.01865
G1 X124.172 Y146.035 E.17879
G1 X124.133 Y146.572 E.01962
G1 X124.015 Y147.087 E.01927
G1 X123.675 Y147.859 E.0308
G1 X123.404 Y148.268 E.01791
G1 X123.066 Y148.644 E.01846
G1 X122.675 Y148.966 E.01846
G1 X122.25 Y149.222 E.01811
G1 X121.649 Y149.46 E.02358
G1 X121.067 Y149.585 E.02171
G1 X120.597 Y149.616 E.01718
G1 X96.503 Y149.616 E.87913
G1 X96.02 Y149.585 E.01766
G1 X95.591 Y149.505 E.01591
G1 X94.906 Y149.289 E.02621
G1 X94.46 Y149.065 E.01818
G1 X94.067 Y148.787 E.01757
G1 X93.52 Y148.226 E.02858
G1 X93.152 Y147.686 E.02384
G1 X92.951 Y147.253 E.01744
G1 X92.818 Y146.81 E.01686
G1 X92.723 Y145.958 E.03129
G1 X92.723 Y140.995 E.18106
G1 X92.762 Y140.459 E.01962
G1 X92.88 Y139.944 E.01927
G1 X93.22 Y139.172 E.0308
G1 X93.479 Y138.778 E.0172
G1 X93.802 Y138.413 E.01777
G1 X94.158 Y138.112 E.01702
G1 X94.449 Y138.465 F42000
G1 F3600
G1 X94.837 Y138.225 E.01663
G1 X95.275 Y138.041 E.01734
G1 X95.676 Y137.944 E.01506
G1 X96.432 Y137.9 E.02764
G1 X97.36 Y138.017 E.03409
G1 X120.57 Y138.017 E.84687
G1 X121.05 Y138.051 E.01754
G1 X121.511 Y138.158 E.01725
G1 X122.206 Y138.466 E.02775
G1 X122.538 Y138.686 E.01454
G1 X122.839 Y138.952 E.01464
G1 X123.123 Y139.287 E.01602
G1 X123.341 Y139.637 E.01506
G1 X123.592 Y140.27 E.02485
G1 X123.683 Y140.699 E.016
G1 X123.715 Y141.156 E.0167
G1 X123.715 Y146.014 E.17724
G1 X123.681 Y146.493 E.01754
G1 X123.574 Y146.954 E.01725
G1 X123.266 Y147.649 E.02773
G1 X123.035 Y147.995 E.01519
G1 X122.741 Y148.32 E.01599
G1 X122.402 Y148.597 E.01597
G1 X122.036 Y148.815 E.01552
G1 X121.526 Y149.017 E.02002
G1 X120.994 Y149.132 E.01987
G1 X120.578 Y149.159 E.0152
G1 X96.522 Y149.159 E.87773
G1 X96.085 Y149.131 E.01598
G1 X95.71 Y149.062 E.0139
G1 X95.089 Y148.867 E.02375
G1 X94.706 Y148.677 E.01562
G1 X94.375 Y148.445 E.01472
G1 X93.884 Y147.944 E.0256
G1 X93.547 Y147.45 E.02184
G1 X93.384 Y147.098 E.01412
G1 X93.271 Y146.73 E.01405
G1 X93.18 Y145.925 E.02957
G1 X93.18 Y141.017 E.17907
G1 X93.214 Y140.537 E.01754
G1 X93.321 Y140.077 E.01725
G1 X93.629 Y139.381 E.02775
G1 X93.849 Y139.049 E.01454
G1 X94.115 Y138.748 E.01464
G1 X94.419 Y138.491 E.01453
G1 X94.711 Y138.842 F42000
G1 F3600
G1 X95.056 Y138.629 E.01482
G1 X95.429 Y138.475 E.0147
G1 X95.756 Y138.398 E.01227
G1 X96.43 Y138.361 E.02461
G1 X97.294 Y138.469 E.03179
G1 X120.549 Y138.474 E.84847
G1 X120.971 Y138.504 E.01544
G1 X121.352 Y138.59 E.01427
G1 X121.995 Y138.874 E.02564
G1 X122.266 Y139.056 E.0119
G1 X122.504 Y139.266 E.01159
G1 X122.746 Y139.549 E.01359
G1 X122.925 Y139.833 E.01225
G1 X123.156 Y140.414 E.0228
G1 X123.23 Y140.772 E.01335
G1 X123.258 Y141.177 E.01478
G1 X123.258 Y145.992 E.17571
G1 X123.228 Y146.414 E.01544
G1 X123.142 Y146.796 E.01427
G1 X122.869 Y147.417 E.02475
G1 X122.679 Y147.705 E.01258
G1 X122.432 Y147.98 E.01351
G1 X122.147 Y148.215 E.01347
G1 X121.824 Y148.407 E.0137
G1 X121.403 Y148.574 E.01652
G1 X120.94 Y148.676 E.01729
G1 X120.568 Y148.701 E.01362
G1 X96.541 Y148.702 E.87666
G1 X96.149 Y148.677 E.01433
G1 X95.828 Y148.619 E.01188
G1 X95.27 Y148.445 E.02131
G1 X94.949 Y148.287 E.01306
G1 X94.682 Y148.102 E.01185
G1 X94.247 Y147.662 E.02259
G1 X93.941 Y147.213 E.01983
G1 X93.809 Y146.926 E.01153
G1 X93.719 Y146.624 E.01147
G1 X93.637 Y145.891 E.02692
G1 X93.637 Y141.038 E.17706
G1 X93.667 Y140.616 E.01544
G1 X93.762 Y140.21 E.01522
G1 X94.038 Y139.592 E.02469
G1 X94.219 Y139.321 E.0119
G1 X94.429 Y139.083 E.01159
G1 X94.68 Y138.868 E.01205
G1 X94.991 Y139.217 F42000
G1 F3600
G1 X95.01 Y139.2 E.00093
G1 X95.304 Y139.022 E.01257
G1 X95.645 Y138.89 E.01332
G1 X96.049 Y138.822 E.01497
G1 X96.477 Y138.823 E.01561
G1 X97.007 Y138.931 E.01971
G1 X120.604 Y138.931 E.86097
G1 X121.231 Y139.029 E.02316
G1 X121.466 Y139.113 E.00909
G1 X121.768 Y139.276 E.01254
G1 X122.132 Y139.564 E.01694
G1 X122.275 Y139.71 E.00744
G1 X122.55 Y140.12 E.01802
G1 X122.656 Y140.357 E.00947
G1 X122.753 Y140.691 E.01271
G1 X122.776 Y140.892 E.00737
G1 X122.801 Y146.042 E.1879
G1 X122.702 Y146.675 E.02338
G1 X122.618 Y146.909 E.00908
G1 X122.455 Y147.212 E.01254
G1 X122.169 Y147.574 E.01685
G1 X121.952 Y147.774 E.01076
G1 X121.605 Y147.997 E.01506
G1 X121.282 Y148.133 E.01276
G1 X120.998 Y148.203 E.01067
G1 X120.609 Y148.244 E.0143
G1 X96.401 Y148.234 E.88323
G1 X96.127 Y148.212 E.01005
G1 X95.775 Y148.138 E.01309
G1 X95.229 Y147.914 E.02154
G1 X95.026 Y147.779 E.0089
G1 X94.775 Y147.567 E.012
G1 X94.499 Y147.24 E.0156
G1 X94.297 Y146.884 E.01496
G1 X94.192 Y146.598 E.01111
G1 X94.125 Y146.297 E.01125
G1 X94.094 Y146 E.01088
G1 X94.094 Y140.99 E.1828
G1 X94.185 Y140.4 E.0218
G1 X94.241 Y140.21 E.00722
G1 X94.458 Y139.785 E.01743
G1 X94.7 Y139.476 E.01431
G1 X94.961 Y139.244 E.01275
G1 X95.247 Y139.591 F42000
G1 F3600
G1 X95.478 Y139.444 E.00999
G1 X95.719 Y139.341 E.00957
G1 X96.047 Y139.279 E.0122
G1 X96.398 Y139.273 E.0128
G1 X96.648 Y139.312 E.00921
G1 X96.927 Y139.388 E.01057
G1 X120.615 Y139.388 E.86427
G1 X121.076 Y139.459 E.01702
G1 X121.259 Y139.521 E.00705
G1 X121.475 Y139.627 E.0088
G1 X121.855 Y139.928 E.01768
G1 X121.946 Y140.026 E.00486
G1 X122.133 Y140.306 E.01229
G1 X122.218 Y140.487 E.0073
G1 X122.299 Y140.748 E.00996
G1 X122.319 Y140.887 E.00512
G1 X122.344 Y146.055 E.18858
G1 X122.272 Y146.52 E.01715
G1 X122.211 Y146.702 E.00704
G1 X122.104 Y146.919 E.0088
G1 X121.804 Y147.299 E.01768
G1 X121.706 Y147.389 E.00486
G1 X121.427 Y147.576 E.01224
G1 X121.171 Y147.69 E.01021
G1 X120.953 Y147.748 E.00823
G1 X120.616 Y147.787 E.01239
G1 X96.396 Y147.777 E.8837
G1 X96.161 Y147.756 E.00861
G1 X95.864 Y147.69 E.0111
G1 X95.485 Y147.535 E.01493
G1 X95.326 Y147.433 E.00689
G1 X95.059 Y147.209 E.01271
G1 X94.897 Y147.015 E.00923
G1 X94.726 Y146.729 E.01217
G1 X94.638 Y146.499 E.00897
G1 X94.579 Y146.25 E.00934
G1 X94.551 Y146.008 E.00891
G1 X94.551 Y140.98 E.18345
G1 X94.637 Y140.468 E.01892
G1 X94.678 Y140.343 E.00482
G1 X94.818 Y140.066 E.01134
G1 X95.004 Y139.817 E.01132
G1 X95.217 Y139.618 E.01063
G1 X95.481 Y139.984 F42000
G1 F3600
G1 X95.732 Y139.824 E.01086
G1 X95.889 Y139.765 E.00614
G1 X96.054 Y139.736 E.00611
G1 X96.334 Y139.726 E.01022
G1 X96.51 Y139.747 E.00645
G1 X96.841 Y139.845 E.01261
G1 X120.625 Y139.845 E.86778
G1 X120.919 Y139.889 E.01084
G1 X121.122 Y139.957 E.00781
G1 X121.27 Y140.036 E.00613
G1 X121.569 Y140.284 E.01416
G1 X121.715 Y140.491 E.00924
G1 X121.808 Y140.69 E.00802
G1 X121.862 Y140.879 E.00719
G1 X121.887 Y146.068 E.18931
G1 X121.843 Y146.363 E.01087
G1 X121.775 Y146.565 E.00781
G1 X121.696 Y146.714 E.00613
G1 X121.448 Y147.012 E.01416
G1 X121.241 Y147.158 E.00924
G1 X121.044 Y147.251 E.00794
G1 X120.902 Y147.294 E.0054
G1 X120.624 Y147.33 E.01024
G1 X96.39 Y147.32 E.88421
G1 X96.201 Y147.3 E.00693
G1 X95.96 Y147.243 E.00902
G1 X95.73 Y147.149 E.00907
G1 X95.616 Y147.08 E.00487
G1 X95.406 Y146.912 E.00983
G1 X95.289 Y146.78 E.00643
G1 X95.151 Y146.56 E.00948
G1 X95.085 Y146.403 E.00621
G1 X95.022 Y146.137 E.00997
G1 X95.008 Y146.016 E.00445
G1 X95.008 Y140.968 E.18415
G1 X95.087 Y140.545 E.01572
G1 X95.186 Y140.337 E.00841
G1 X95.324 Y140.143 E.00867
G1 X95.453 Y140.012 E.0067
G1 X95.757 Y140.35 F42000
G1 F3600
G1 X95.792 Y140.318 E.00173
G1 X95.97 Y140.214 E.0075
G1 X96.084 Y140.191 E.00424
G1 X96.267 Y140.178 E.00673
G1 X96.466 Y140.203 E.0073
G1 X96.735 Y140.302 E.01047
G1 X120.635 Y140.302 E.87203
G1 X120.762 Y140.318 E.00465
G1 X120.987 Y140.394 E.00866
G1 X121.205 Y140.56 E.01002
G1 X121.296 Y140.674 E.0053
G1 X121.399 Y140.894 E.00887
G1 X121.417 Y140.981 E.00324
G1 X121.43 Y146.079 E.18601
G1 X121.414 Y146.205 E.00464
G1 X121.338 Y146.43 E.00866
G1 X121.171 Y146.649 E.01002
G1 X121.058 Y146.739 E.0053
G1 X120.841 Y146.841 E.00874
G1 X120.633 Y146.873 E.00766
G1 X96.383 Y146.863 E.8848
G1 X96.253 Y146.846 E.0048
G1 X96.066 Y146.799 E.00702
G1 X95.909 Y146.729 E.00629
G1 X95.682 Y146.548 E.01057
G1 X95.533 Y146.308 E.01031
G1 X95.465 Y146.024 E.01067
G1 X95.465 Y140.956 E.18491
G1 X95.508 Y140.722 E.00866
G1 X95.552 Y140.611 E.00437
G1 X95.703 Y140.398 E.00952
G1 X95.727 Y140.376 E.00118
G1 X96.033 Y140.716 F42000
G1 F3600
G1 X96.108 Y140.648 E.00371
G1 X96.314 Y140.633 E.00753
G1 X96.44 Y140.674 E.00482
G1 X96.56 Y140.759 E.00538
G1 X120.644 Y140.759 E.87872
G1 X120.755 Y140.788 E.00417
G1 X120.839 Y140.835 E.00353
G1 X120.948 Y140.971 E.00638
G1 X120.973 Y141.088 E.00433
G1 X120.973 Y146.088 E.18243
G1 X120.944 Y146.198 E.00417
G1 X120.897 Y146.283 E.00353
G1 X120.76 Y146.392 E.00638
G1 X120.644 Y146.416 E.00433
G1 X96.375 Y146.406 E.8855
G1 X96.169 Y146.353 E.00774
G1 X96.045 Y146.272 E.0054
G1 X95.97 Y146.175 E.00447
G1 X95.922 Y146.035 E.0054
G1 X95.922 Y140.943 E.18578
G1 X95.951 Y140.832 E.00417
G1 X95.998 Y140.748 E.00353
G1 X96.003 Y140.743 E.00027
;WIPE_START
G1 X96.108 Y140.648 E-.04249
G1 X96.314 Y140.633 E-.06193
G1 X96.44 Y140.674 E-.03964
G1 X96.56 Y140.759 E-.0442
G1 X97.933 Y140.759 E-.41175
;WIPE_END
G1 Z.4 F42000
G1 X96.036 Y95.662 Z.4
G1 Z.2
G1 E.6 F2400
G1 F3600
G1 X95.399 Y95.589 E.02341
G1 X94.779 Y95.423 E.02341
G1 X94.191 Y95.167 E.02341
G1 X93.646 Y94.827 E.02341
G1 X93.161 Y94.412 E.0233
G1 X92.594 Y93.723 E.03256
G1 X92.22 Y93.075 E.02733
G1 X91.991 Y92.476 E.02337
G1 X91.853 Y91.849 E.02343
G1 X91.809 Y91.224 E.02286
G1 X91.809 Y86.149 E.18517
G1 X91.857 Y85.5 E.02372
G1 X91.998 Y84.874 E.02341
G1 X92.228 Y84.28 E.02327
G1 X92.723 Y83.476 E.03445
G1 X93.226 Y82.905 E.02773
G1 X93.72 Y82.498 E.02337
G1 X94.267 Y82.169 E.02327
G1 X95.158 Y81.835 E.03472
G1 X95.887 Y81.683 E.0272
G1 X96.464 Y81.645 E.02108
G1 X120.636 Y81.645 E.88193
G1 X121.284 Y81.693 E.02372
G1 X121.907 Y81.834 E.02329
G1 X122.75 Y82.191 E.03341
G1 X123.368 Y82.588 E.02681
G1 X123.847 Y83.014 E.02338
G1 X124.258 Y83.506 E.02341
G1 X124.591 Y84.052 E.02332
G1 X124.902 Y84.838 E.03084
G1 X125.048 Y85.517 E.02536
G1 X125.086 Y86.095 E.02113
G1 X125.086 Y91.079 E.18185
G1 X125.038 Y91.728 E.02372
G1 X124.898 Y92.35 E.02329
G1 X124.541 Y93.193 E.03341
G1 X124.144 Y93.812 E.02681
G1 X123.718 Y94.291 E.02338
G1 X123.225 Y94.702 E.02341
G1 X122.68 Y95.034 E.02329
G1 X121.842 Y95.361 E.03282
G1 X121.215 Y95.492 E.02338
G1 X120.637 Y95.53 E.02115
G1 X97.263 Y95.53 E.85282
G1 X96.676 Y95.641 E.02177
G1 X96.076 Y95.661 E.0219
G1 X96.061 Y95.203 F42000
G1 F3600
G1 X96.045 Y95.203 E.0006
G1 X95.475 Y95.136 E.02094
G1 X94.921 Y94.986 E.02094
G1 X94.395 Y94.756 E.02094
G1 X93.91 Y94.45 E.02094
G1 X93.48 Y94.082 E.02065
G1 X92.978 Y93.471 E.02885
G1 X92.639 Y92.887 E.02463
G1 X92.434 Y92.354 E.02083
G1 X92.309 Y91.793 E.02098
G1 X92.266 Y91.203 E.02159
G1 X92.266 Y86.171 E.1836
G1 X92.309 Y85.578 E.02168
G1 X92.434 Y85.018 E.02094
G1 X92.646 Y84.473 E.02133
G1 X93.086 Y83.758 E.03062
G1 X93.553 Y83.228 E.02579
G1 X93.977 Y82.879 E.02003
G1 X94.456 Y82.589 E.02043
G1 X95.275 Y82.279 E.03196
G1 X95.94 Y82.139 E.02478
G1 X96.483 Y82.102 E.01987
G1 X120.624 Y82.103 E.88079
G1 X121.226 Y82.149 E.02205
G1 X121.777 Y82.276 E.02063
G1 X122.525 Y82.592 E.02963
G1 X123.1 Y82.96 E.02489
G1 X123.524 Y83.34 E.0208
G1 X123.879 Y83.765 E.0202
G1 X124.174 Y84.246 E.02059
G1 X124.459 Y84.96 E.02804
G1 X124.595 Y85.591 E.02354
G1 X124.629 Y86.115 E.01916
G1 X124.629 Y91.057 E.18033
M73 P0 R37
G1 X124.586 Y91.65 E.02168
G1 X124.464 Y92.198 E.02047
G1 X124.129 Y92.989 E.03136
G1 X123.785 Y93.526 E.02326
G1 X123.406 Y93.954 E.02084
G1 X122.966 Y94.323 E.02094
G1 X122.487 Y94.617 E.02051
G1 X121.722 Y94.917 E.02999
G1 X121.162 Y95.036 E.02088
G1 X120.617 Y95.073 E.01994
G1 X97.274 Y95.073 E.85168
G1 X96.634 Y95.184 E.02371
