; HEADER_BLOCK_START
; generated by OrcaSlicer 2.1.0 on 2025-01-08 at 21:15:46
; total layer number: 25
; filament_density: 1.27
; filament_diameter: 1.75
; max_z_height: 5.00
; HEADER_BLOCK_END

; THUMBNAIL_BLOCK_START

;
; THUMBNAIL_BLOCK_END

; THUMBNAIL_BLOCK_START

;
; THUMBNAIL_BLOCK_END

; external perimeters extrusion width = 0.42mm
; perimeters extrusion width = 0.45mm
; infill extrusion width = 0.45mm
; solid infill extrusion width = 0.42mm
; top infill extrusion width = 0.42mm
; support material extrusion width = 0.42mm
; first layer extrusion width = 0.50mm

; external perimeters extrusion width = 0.42mm
; perimeters extrusion width = 0.45mm
; infill extrusion width = 0.45mm
; solid infill extrusion width = 0.42mm
; top infill extrusion width = 0.42mm
; support material extrusion width = 0.42mm
; first layer extrusion width = 0.50mm

; EXECUTABLE_BLOCK_START
EXCLUDE_OBJECT_DEFINE NAME=писюн_2_MIR4_MIR.stp_id_0_copy_0 CENTER=117.634,126.788 POLYGON=[[92.5439,150.925],[94.1503,128.065],[95.767,123.462],[119.955,104.704],[120.261,104.477],[120.574,104.26],[120.893,104.052],[121.219,103.855],[121.55,103.667],[121.887,103.49],[122.229,103.323],[122.577,103.166],[122.928,103.021],[123.285,102.886],[123.645,102.762],[124.009,102.65],[124.376,102.549],[124.746,102.459],[125.118,102.38],[125.493,102.313],[125.87,102.258],[126.248,102.214],[126.628,102.182],[127.008,102.161],[127.389,102.152],[127.769,102.155],[128.15,102.17],[128.53,102.196],[128.909,102.234],[129.286,102.284],[129.662,102.345],[130.036,102.418],[130.407,102.502],[130.776,102.597],[131.141,102.704],[131.504,102.822],[131.862,102.951],[132.216,103.091],[132.566,103.242],[132.91,103.404],[133.25,103.576],[133.584,103.758],[133.913,103.951],[134.235,104.154],[134.551,104.366],[134.861,104.588],[142.009,109.918],[142.115,110.265],[142.212,110.615],[142.301,110.966],[142.721,114.197],[142.725,114.56],[142.72,114.922],[142.706,115.285],[142.199,118.503],[142.1,118.852],[141.994,119.199],[141.878,119.543],[140.485,122.488],[140.292,122.795],[140.092,123.098],[139.884,123.395],[137.717,125.828],[137.446,126.069],[137.168,126.302],[136.886,126.53],[99.6569,151.424],[92.5439,150.925]]
EXCLUDE_OBJECT_DEFINE NAME=писюн_MIR2_MIR.stp_id_1_copy_0 CENTER=140.289,156.832 POLYGON=[[113.269,177.586],[113.95,170.488],[143.772,138.744],[146.234,136.61],[146.535,136.407],[146.84,136.211],[147.15,136.022],[150.113,134.668],[150.459,134.558],[150.807,134.456],[151.157,134.362],[154.382,133.898],[154.745,133.89],[155.107,133.89],[155.47,133.898],[158.695,134.362],[159.045,134.456],[159.393,134.558],[159.739,134.668],[164.968,141.884],[165.186,142.196],[165.394,142.515],[165.593,142.84],[165.781,143.17],[165.959,143.507],[166.126,143.848],[166.283,144.195],[166.43,144.546],[166.565,144.902],[166.689,145.261],[166.803,145.625],[166.905,145.991],[166.995,146.361],[167.075,146.733],[167.143,147.107],[167.199,147.484],[167.244,147.862],[167.277,148.241],[167.298,148.621],[167.308,149.001],[167.306,149.382],[167.292,149.762],[167.267,150.142],[167.23,150.52],[167.182,150.898],[167.121,151.273],[167.05,151.647],[166.967,152.018],[166.872,152.387],[166.766,152.753],[166.649,153.115],[166.521,153.473],[166.382,153.827],[166.233,154.177],[166.072,154.522],[165.901,154.862],[165.72,155.197],[165.528,155.525],[165.327,155.848],[165.115,156.165],[164.894,156.474],[164.664,156.777],[164.424,157.073],[164.176,157.361],[163.918,157.641],[163.652,157.913],[163.378,158.177],[140.887,178.939],[136.081,179.774],[113.269,177.586]]
M73 P0 R21
M106 S0
M106 P2 S0
;TYPE:Custom
M140 S0
M104 S0 
START_PRINT EXTRUDER_TEMP=250 BED_TEMP=80
G90
G21
M83 ; use relative distances for extrusion
; filament start gcode
M106 S0
M106 P2 S0
;LAYER_CHANGE
;Z:0.2
;HEIGHT:0.2
;BEFORE_LAYER_CHANGE
;0.2
G92 E0

G1 E-.6 F2400
;_SET_FAN_SPEED_CHANGING_LAYER
SET_VELOCITY_LIMIT ACCEL=500 ACCEL_TO_DECEL=250
SET_VELOCITY_LIMIT SQUARE_CORNER_VELOCITY=9
EXCLUDE_OBJECT_START NAME=писюн_2_MIR4_MIR.stp_id_0_copy_0
G1 Z.2 F42000
G1 X136.723 Y120.351
G1 Z.2
G1 E.6 F2400
;TYPE:Inner wall
;WIDTH:0.421293
G1 F3600
G1 X136.782 Y120.689 E.01036
G1 X136.586 Y120.712 E.00595
;WIDTH:0.426759
G1 X136.17 Y120.883 E.01381
;WIDTH:0.463379
G1 X135.975 Y121.021 E.008
;WIDTH:0.499999
G1 X135.78 Y121.159 E.0087
G1 X135.023 Y122.01 E.04158
G1 X134.776 Y122.379 E.01619
G1 X134.641 Y122.799 E.01609
G1 X134.634 Y123.015 E.00789
G1 X134.42 Y122.985 E.00789
G1 X133.984 Y123.047 E.01609
G1 X133.578 Y123.228 E.01619
G1 X132.611 Y123.831 E.04158
G1 X132.301 Y124.083 E.01458
G1 X132.049 Y124.43 E.01567
G1 X131.955 Y124.686 E.00992
G1 X131.704 Y124.582 E.00992
G1 X131.277 Y124.534 E.01567
G1 X130.882 Y124.592 E.01458
G1 X129.861 Y124.877 E.03868
G1 X129.424 Y125.048 E.01714
G1 X129.027 Y125.367 E.01854
G1 X128.914 Y125.533 E.00733
G1 X128.762 Y125.401 E.00733
G1 X128.526 Y125.274 E.00979
G1 X128.104 Y125.156 E.01597
G1 X127.47 Y125.136 E.02315
G1 X126.53 Y125.146 E.03431
;WIDTH:0.491917
G1 X126.344 Y125.23 E.00733
;WIDTH:0.454236
G1 X126.157 Y125.314 E.00671
;WIDTH:0.416555
G1 X125.971 Y125.398 E.0061
;WIDTH:0.389089
G1 X125.745 Y125.572 E.00788
G1 X125.651 Y125.41 E.00516
G1 X125.459 Y125.216 E.00755
G1 X125.819 Y125.099 E.01045
;WIDTH:0.416555
G1 X126.018 Y125.02 E.00639
;WIDTH:0.454236
G1 X126.217 Y124.941 E.00703
;WIDTH:0.491917
G1 X126.416 Y124.861 E.00768
;WIDTH:0.499999
G1 X126.638 Y124.705 E.00992
G1 X127.088 Y124.314 E.02174
G1 X127.377 Y123.962 E.01665
G1 X127.703 Y123.404 E.02357
G1 X127.897 Y122.858 E.02113
G1 X128.001 Y122.214 E.0238
G1 X127.988 Y121.658 E.02028
G1 X127.873 Y121.121 E.02003
G1 X127.698 Y120.606 E.01986
G1 X127.413 Y120.103 E.02111
G1 X127.045 Y119.655 E.02114
G1 X126.606 Y119.278 E.02113
;WIDTH:0.542819
G1 X126.508 Y119.189 E.00528
;WIDTH:0.585639
G1 X126.41 Y119.1 E.00573
;WIDTH:0.628458
G1 X126.312 Y119.011 E.00618
;WIDTH:0.671631
G1 X126.232 Y118.947 E.00517
;WIDTH:0.714803
G1 X126.151 Y118.882 E.00552
;WIDTH:0.718599
G1 X125.602 Y118.669 E.03177
G1 X125.523 Y118.676 E.00426
;WIDTH:0.674879
G1 X125.445 Y118.682 E.00399
;WIDTH:0.631159
G1 X125.366 Y118.689 E.00371
;WIDTH:0.587439
G1 X125.287 Y118.695 E.00344
;WIDTH:0.543719
G1 X125.208 Y118.702 E.00316
;WIDTH:0.499999
G1 X124.71 Y118.643 E.01831
G1 X124.133 Y118.68 E.02111
G1 X123.57 Y118.815 E.02113
G1 X123.074 Y119.024 E.01961
G1 X122.598 Y119.333 E.02071
G1 X122.334 Y119.552 E.0125
G1 X121.987 Y119.927 E.01866
G1 X121.692 Y120.369 E.01939
G1 X121.465 Y120.866 E.01991
G1 X121.31 Y121.464 E.02256
G1 X121.273 Y122.101 E.02327
G1 X121.349 Y122.742 E.02356
G1 X121.523 Y123.295 E.02113
G1 X121.331 Y123.178 E.00819
G1 X120.831 Y122.8 E.02287
G1 X120.44 Y122.464 E.01882
G1 X119.98 Y122.112 E.0211
G1 X119.528 Y121.944 E.01762
G1 X119.162 Y121.911 E.01341
G1 X118.725 Y121.983 E.01618
G1 X101.412 Y127.404 E.66192
G1 X101.146 Y127.514 E.01047
G1 X100.913 Y127.664 E.01012
G1 X100.563 Y128.036 E.01863
G1 X100.38 Y128.401 E.01489
G1 X99.35 Y131.334 E.11344
G1 X99.263 Y131.752 E.01557
G1 X98.014 Y149.533 E.65036
G1 X94.435 Y149.282 E.13091
G1 X95.9 Y128.427 E.7628
G1 X97.264 Y124.544 E.15014
G1 X116.921 Y109.389 E.90562
;WIDTH:0.495716
G1 X117.458 Y108.945 E.02518
;WIDTH:0.44706
G1 X117.939 Y108.572 E.01963
;WIDTH:0.47169
G1 X118.28 Y108.327 E.01437
;WIDTH:0.499999
G1 X118.621 Y108.082 E.01532
G1 X119.985 Y107.024 E.06299
G1 X120.778 Y106.314 E.03882
G1 X121.563 Y105.731 E.03569
G1 X122.41 Y105.217 E.03616
G1 X122.981 Y104.927 E.02335
G1 X123.569 Y104.673 E.02335
G1 X124.518 Y104.348 E.03662
G1 X125.126 Y104.19 E.0229
G1 X126.113 Y104.013 E.03661
G1 X126.738 Y103.951 E.02291
G1 X127.734 Y103.927 E.03635
G1 X128.381 Y103.962 E.02362
G1 X128.9 Y104.022 E.01906
G1 X128.784 Y104.072 E.00461
G1 X128.242 Y104.418 E.02346
G1 X127.82 Y104.817 E.02119
G1 X127.472 Y105.282 E.0212
G1 X127.21 Y105.799 E.02113
G1 X127.006 Y106.513 E.02712
G1 X126.972 Y107.111 E.02183
G1 X126.993 Y107.491 E.01389
G1 X127.117 Y108.058 E.02119
G1 X127.306 Y108.541 E.01891
G1 X127.614 Y109.04 E.02138
G1 X128.039 Y109.525 E.02355
G1 X128.512 Y109.893 E.02184
;WIDTH:0.541237
G1 X128.601 Y109.964 E.00456
;WIDTH:0.582475
G1 X128.691 Y110.035 E.00493
;WIDTH:0.623712
G1 X128.781 Y110.106 E.00531
;WIDTH:0.66495
G1 X128.871 Y110.177 E.00569
;WIDTH:0.706187
G1 X128.961 Y110.247 E.00607
;WIDTH:0.713435
G1 X129.284 Y110.369 E.01844
G1 X129.37 Y110.366 E.00462
;WIDTH:0.667647
G1 X129.456 Y110.363 E.0043
;WIDTH:0.621859
G1 X129.676 Y110.382 E.01018
;WIDTH:0.581239
G1 X129.895 Y110.401 E.00947
;WIDTH:0.540619
G1 X130.115 Y110.42 E.00875
;WIDTH:0.499999
G1 X130.693 Y110.408 E.02111
G1 X131.262 Y110.297 E.02113
G1 X131.863 Y110.055 E.02363
G1 X132.337 Y109.768 E.02022
G1 X132.778 Y109.378 E.0215
G1 X133.116 Y108.957 E.0197
G1 X133.438 Y108.372 E.02435
G1 X133.633 Y107.708 E.02525
G1 X133.691 Y107.301 E.01499
G1 X133.689 Y106.771 E.01936
G1 X133.59 Y106.2 E.02113
G1 X133.44 Y105.76 E.01699
G1 X134.326 Y106.425 E.04043
G1 X134.803 Y106.852 E.02335
G1 X135.253 Y107.307 E.02336
G1 X135.896 Y108.068 E.03635
G1 X136.268 Y108.582 E.02317
G1 X136.791 Y109.439 E.0366
G1 X137.081 Y110.007 E.0233
G1 X137.514 Y110.971 E.03854
G1 X137.834 Y111.349 E.01806
G1 X138.16 Y111.556 E.01412
G1 X137.989 Y111.903 E.01412
G1 X137.93 Y112.146 E.00912
G1 X137.924 Y112.603 E.01668
G1 X138.134 Y114.017 E.05217
G1 X138.298 Y114.372 E.01424
G1 X138.563 Y114.685 E.01497
G1 X138.29 Y114.991 E.01497
G1 X138.143 Y115.269 E.01146
G1 X137.994 Y115.916 E.02423
G1 X137.763 Y115.522 E.01666
G1 X137.401 Y115.077 E.02093
G1 X136.93 Y114.65 E.02318
G1 X136.437 Y114.356 E.02096
G1 X135.825 Y114.131 E.0238
G1 X135.156 Y114.017 E.02476
G1 X134.585 Y114.033 E.02084
G1 X134.065 Y114.133 E.01931
G1 X133.583 Y114.322 E.0189
G1 X133.113 Y114.567 E.01932
G1 X132.646 Y114.936 E.02173
G1 X132.233 Y115.413 E.02301
;WIDTH:0.54229
G1 X132.15 Y115.51 E.00511
;WIDTH:0.58458
G1 X132.066 Y115.607 E.00554
;WIDTH:0.626871
G1 X131.983 Y115.705 E.00597
;WIDTH:0.669161
G1 X131.9 Y115.802 E.0064
;WIDTH:0.711451
G1 X131.816 Y115.899 E.00683
;WIDTH:0.715595
G1 X131.64 Y116.356 E.02632
G1 X131.644 Y116.431 E.00402
;WIDTH:0.668493
G1 X131.649 Y116.506 E.00374
;WIDTH:0.621391
G1 X131.654 Y116.58 E.00345
;WIDTH:0.574289
G1 X131.658 Y116.655 E.00317
;WIDTH:0.527186
G1 X131.61 Y117.021 E.01429
;WIDTH:0.499999
G1 X131.596 Y117.541 E.01896
G1 X131.668 Y118.088 E.02012
G1 X131.808 Y118.542 E.01735
G1 X132.105 Y119.169 E.02532
G1 X132.453 Y119.632 E.02111
G1 X132.82 Y119.986 E.0186
G1 X133.315 Y120.317 E.02173
G1 X133.905 Y120.581 E.02359
G1 X134.468 Y120.715 E.02113
G1 X135.046 Y120.75 E.02113
G1 X135.622 Y120.686 E.02113
G1 X135.952 Y120.555 E.01296
;WIDTH:0.45678
G1 X136.282 Y120.424 E.01173
;WIDTH:0.421293
G1 X136.715 Y120.21 E.01459
G1 X136.709 Y120.267 E.00176
G1 X136.717 Y120.312 E.00136
G1 X137.142 Y120.337 F42000
;WIDTH:0.499999
G1 F3600
G1 X137.228 Y120.737 E.01493
G1 X137.502 Y121.114 E.017
G1 X137.711 Y121.304 E.0103
G1 X137.454 Y121.185 E.0103
G1 X137 Y121.08 E.017
G1 X136.69 Y121.116 E.01139
G1 X136.386 Y121.244 E.01203
G1 X136.122 Y121.463 E.01254
G1 X135.246 Y122.472 E.04875
G1 X135.092 Y122.878 E.01583
G1 X135.081 Y123.197 E.01167
G1 X135.242 Y123.67 E.01821
G1 X135.389 Y123.911 E.0103
G1 X135.177 Y123.725 E.0103
G1 X134.738 Y123.486 E.01821
G1 X134.421 Y123.442 E.01167
G1 X134.11 Y123.487 E.01149
G1 X133.82 Y123.616 E.01157
G1 X132.688 Y124.344 E.04911
G1 X132.451 Y124.647 E.01403
G1 X132.339 Y124.953 E.01188
G1 X132.354 Y125.485 E.01943
G1 X132.428 Y125.758 E.01031
G1 X132.276 Y125.52 E.01031
G1 X131.893 Y125.149 E.01943
G1 X131.592 Y125.025 E.01188
G1 X131.405 Y124.994 E.00692
G1 X131.005 Y125.032 E.01467
G1 X129.984 Y125.317 E.03868
G1 X129.649 Y125.446 E.01307
G1 X129.366 Y125.673 E.01324
G1 X129.19 Y125.931 E.0114
G1 X129.072 Y126.397 E.01755
G1 X129.062 Y126.683 E.01041
G1 X128.987 Y126.424 E.00981
G1 X128.749 Y125.989 E.01811
G1 X128.513 Y125.784 E.0114
G1 X128.344 Y125.693 E.00699
G1 X128.043 Y125.609 E.01141
G1 X126.592 Y125.594 E.05293
G1 X126.172 Y125.74 E.01625
G1 X125.88 Y125.985 E.0139
G1 X125.661 Y126.379 E.01644
G1 X125.575 Y126.648 E.01032
G1 X125.576 Y126.366 E.0103
G1 X125.489 Y125.924 E.01645
G1 X125.254 Y125.566 E.01563
G1 X124.86 Y125.301 E.01731
G1 X124.646 Y125.252 E.00802
;WIDTH:0.467004
G1 X124.432 Y125.202 E.00744
;WIDTH:0.434008
G1 X124.147 Y125.134 E.00915
;WIDTH:0.395174
G1 X123.862 Y125.066 E.00824
;WIDTH:0.356339
G1 X123.315 Y124.867 E.01456
;WIDTH:0.397161
G1 X122.709 Y124.575 E.01902
;WIDTH:0.431441
G1 X122.531 Y124.465 E.00648
;WIDTH:0.46572
G1 X122.354 Y124.355 E.00705
;WIDTH:0.499999
G1 X121.61 Y123.915 E.03152
G1 X121.066 Y123.551 E.02391
G1 X120.544 Y123.155 E.02387
G1 X119.947 Y122.643 E.02873
G1 X119.656 Y122.461 E.01249
G1 X119.257 Y122.369 E.01497
G1 X118.861 Y122.42 E.01455
G1 X101.548 Y127.84 E.66192
G1 X101.192 Y128.026 E.01465
G1 X100.942 Y128.292 E.0133
G1 X100.811 Y128.552 E.01064
G1 X99.781 Y131.486 E.11344
G1 X99.719 Y131.784 E.01112
G1 X98.438 Y150.021 E.66704
G1 X93.947 Y149.706 E.16426
G1 X95.449 Y128.333 E.78172
G1 X96.878 Y124.265 E.15733
G1 X119.187 Y107.068 E1.02773
G1 X119.68 Y106.684 E.02282
G1 X120.488 Y105.96 E.0396
G1 X121.308 Y105.351 E.03724
G1 X122.188 Y104.817 E.03757
G1 X122.787 Y104.513 E.02451
G1 X123.404 Y104.247 E.02451
G1 X124.386 Y103.91 E.0379
G1 X125.028 Y103.743 E.02418
G1 X126.05 Y103.56 E.03789
G1 X126.71 Y103.494 E.02419
G1 X127.741 Y103.47 E.03763
G1 X128.419 Y103.506 E.02478
G1 X129.086 Y103.583 E.0245
G1 X130.364 Y103.833 E.04749
;WIDTH:0.461065
G1 X130.566 Y103.869 E.00686
;WIDTH:0.422131
G1 X130.768 Y103.904 E.00622
;WIDTH:0.383196
G1 X131.354 Y104.094 E.01673
;WIDTH:0.363493
G1 X131.906 Y104.318 E.01523
;WIDTH:0.408214
G1 X132.072 Y104.419 E.00568
;WIDTH:0.452935
G1 X132.239 Y104.52 E.00638
;WIDTH:0.497656
G1 X132.405 Y104.622 E.00707
;WIDTH:0.499999
G1 X132.929 Y104.898 E.0216
G1 X133.801 Y105.446 E.03757
G1 X134.618 Y106.072 E.03757
G1 X135.119 Y106.52 E.02451
G1 X135.591 Y106.999 E.02451
G1 X136.257 Y107.786 E.03763
G1 X136.649 Y108.329 E.02445
G1 X137.249 Y109.331 E.04259
G1 X137.905 Y110.733 E.05648
G1 X138.133 Y111.003 E.0129
G1 X138.414 Y111.182 E.01213
G1 X139.017 Y111.273 E.02227
G1 X139.297 Y111.239 E.01031
G1 X139.04 Y111.356 E.01031
G1 X138.571 Y111.746 E.02227
G1 X138.423 Y112.044 E.01213
G1 X138.382 Y112.218 E.00652
G1 X138.377 Y112.544 E.01191
G1 X138.509 Y113.562 E.03745
G1 X138.615 Y113.995 E.01626
G1 X138.902 Y114.384 E.01764
G1 X139.469 Y114.654 E.02292
G1 X139.747 Y114.701 E.01031
G1 X139.468 Y114.74 E.0103
G1 X138.893 Y114.994 E.02292
G1 X138.626 Y115.318 E.01532
G1 X138.497 Y115.694 E.0145
G1 X138.398 Y116.318 E.02307
;WIDTH:0.51692
G1 X138.311 Y116.818 E.0192
G1 X138.312 Y117.104 E.01082
;WIDTH:0.541458
G1 X138.357 Y117.294 E.00778
;WIDTH:0.586711
G1 X138.402 Y117.485 E.00849
;WIDTH:0.631964
G1 X138.447 Y117.675 E.0092
G1 X138.628 Y117.886 E.01307
G1 X138.858 Y118.042 E.01305
G1 X138.58 Y118.042 E.01305
G1 X138.312 Y118.114 E.01307
G1 X138.252 Y118.173 E.00393
;WIDTH:0.587587
G1 X138.193 Y118.232 E.00363
;WIDTH:0.543209
G1 X138.134 Y118.291 E.00334
;WIDTH:0.498832
G1 X138.074 Y118.35 E.00304
;WIDTH:0.454454
G1 X137.932 Y118.565 E.00848
;WIDTH:0.405065
G1 X137.789 Y118.78 E.00746
;WIDTH:0.382672
G1 X137.555 Y119.243 E.01406
;WIDTH:0.421781
G1 X137.445 Y119.43 E.00658
;WIDTH:0.46089
G1 X137.335 Y119.618 E.00726
;WIDTH:0.499999
G1 X137.224 Y119.805 E.00794
G1 X137.127 Y120.268 E.01724
G1 X137.133 Y120.298 E.00114
;WIPE_START
G1 X137.228 Y120.737 E-.13475
G1 X137.502 Y121.114 E-.13976
G1 X137.711 Y121.304 E-.08473
G1 X137.454 Y121.185 E-.08473
G1 X137 Y121.08 E-.13976
G1 X136.947 Y121.087 E-.01627
;WIPE_END
G1 Z.4 F42000
G1 X132.271 Y116.302 Z.4
G1 Z.2
G1 E.6 F2400
G1 F3600
G1 X132.37 Y116.058 E.00961
G1 X132.688 Y115.559 E.0216
G1 X133.06 Y115.173 E.01955
G1 X133.527 Y114.847 E.02077
G1 X134.012 Y114.633 E.01936
G1 X134.55 Y114.5 E.0202
G1 X135.132 Y114.474 E.02125
G1 X135.738 Y114.58 E.02245
G1 X136.256 Y114.775 E.0202
G1 X136.776 Y115.103 E.02243
G1 X137.189 Y115.513 E.02125
G1 X137.445 Y115.886 E.0165
G1 X137.691 Y116.37 E.0198
;WIDTH:0.518824
