; HEADER_BLOCK_START
; generated by OrcaSlicer 2.1.0 on 2024-11-12 at 19:55:51
; total layer number: 200
; filament_density: 1.27
; filament_diameter: 1.75
; max_z_height: 40.00
; HEADER_BLOCK_END

; THUMBNAIL_BLOCK_START

;
; THUMBNAIL_BLOCK_END

; THUMBNAIL_BLOCK_START

;
; THUMBNAIL_BLOCK_END

; external perimeters extrusion width = 0.42mm
; perimeters extrusion width = 0.45mm
; infill extrusion width = 0.45mm
; solid infill extrusion width = 0.42mm
; top infill extrusion width = 0.42mm
; support material extrusion width = 0.42mm
; first layer extrusion width = 0.50mm

; EXECUTABLE_BLOCK_START
EXCLUDE_OBJECT_DEFINE NAME=клешня_2.stp_id_0_copy_0 CENTER=109.644,118.164 POLYGON=[[79.7113,140.14],[102.672,84.7069],[130.389,96.1874],[133.095,98.8934],[133.743,100.785],[139.576,117.814],[139.576,121.641],[131.923,140.118],[129.217,142.824],[113.051,150.741],[111.254,151.62],[107.428,151.62],[79.7113,140.14]]
M73 P0 R45
M106 S0
M106 P2 S0
;TYPE:Custom
M140 S0
M104 S0 
START_PRINT EXTRUDER_TEMP=250 BED_TEMP=80
G90
G21
M83 ; use relative distances for extrusion
; filament start gcode
M106 S0
M106 P2 S0
;LAYER_CHANGE
;Z:0.2
;HEIGHT:0.2
;BEFORE_LAYER_CHANGE
;0.2
G92 E0

G1 E-.6 F2400
;_SET_FAN_SPEED_CHANGING_LAYER
SET_VELOCITY_LIMIT ACCEL=500 ACCEL_TO_DECEL=250
SET_VELOCITY_LIMIT SQUARE_CORNER_VELOCITY=9
EXCLUDE_OBJECT_START NAME=клешня_2.stp_id_0_copy_0
G1 Z.2 F42000
G1 X97.641 Y80.97
G1 Z.2
G1 E.6 F2400
;TYPE:Brim
;WIDTH:0.5
G1 F3600
G1 X98.141 Y80.383 E.02812
G1 X98.736 Y79.842 E.02935
G1 X99.443 Y79.34 E.03164
G1 X100.125 Y78.981 E.0281
G1 X100.846 Y78.71 E.02813
G1 X101.596 Y78.53 E.02813
G1 X102.36 Y78.445 E.02805
G1 X103.352 Y78.478 E.03621
G1 X104.162 Y78.618 E.03001
G1 X105.08 Y78.917 E.03523
G1 X132.782 Y90.391 E1.094
G1 X133.483 Y90.735 E.0285
G1 X133.853 Y90.963 E.01584
G1 X134.503 Y91.456 E.02977
G1 X134.826 Y91.756 E.01608
G1 X137.524 Y94.454 E.13922
G1 X138.039 Y95.039 E.02844
G1 X138.4 Y95.556 E.02302
G1 X138.792 Y96.275 E.02987
G1 X139.029 Y96.867 E.02325
G1 X145.505 Y115.773 E.72915
G1 X145.762 Y116.8 E.03865
G1 X145.847 Y117.823 E.03746
G1 X145.847 Y121.634 E.13902
G1 X145.798 Y122.413 E.0285
G1 X145.728 Y122.842 E.01584
G1 X145.522 Y123.631 E.02977
G1 X145.368 Y124.044 E.01608
G1 X137.718 Y142.511 E.72931
G1 X137.375 Y143.213 E.0285
G1 X137.147 Y143.582 E.01584
G1 X136.654 Y144.233 E.02977
G1 X136.354 Y144.555 E.01608
G1 X133.657 Y147.252 E.13913
G1 X132.874 Y147.915 E.03746
G1 X131.966 Y148.46 E.03864
G1 X114.019 Y157.249 E.72911
G1 X113.299 Y157.547 E.02844
G1 X112.692 Y157.721 E.02302
G1 X111.885 Y157.858 E.02987
G1 X111.249 Y157.891 E.02325
G1 X107.435 Y157.891 E.13915
G1 X106.655 Y157.842 E.0285
G1 X106.227 Y157.772 E.01584
G1 X105.437 Y157.566 E.02977
G1 X105.024 Y157.412 E.01608
G1 X77.318 Y145.936 E1.09417
G1 X76.619 Y145.594 E.02839
G1 X75.975 Y145.171 E.02813
G1 X75.388 Y144.672 E.02809
G1 X74.787 Y144.002 E.03285
G1 X74.345 Y143.369 E.02815
G1 X73.986 Y142.687 E.02813
G1 X73.714 Y141.966 E.02813
G1 X73.534 Y141.216 E.02813
G1 X73.45 Y140.452 E.02804
G1 X73.488 Y139.406 E.0382
G1 X73.622 Y138.65 E.02801
G1 X73.921 Y137.732 E.03524
G1 X75.829 Y133.127 E.18185
G1 X76.171 Y132.428 E.02839
G1 X76.593 Y131.784 E.02813
G1 X77.093 Y131.197 E.02809
G1 X77.763 Y130.596 E.03285
G1 X78.395 Y130.154 E.02815
G1 X79.077 Y129.795 E.02813
G1 X79.798 Y129.523 E.02813
G1 X80.548 Y129.343 E.02813
G1 X81.312 Y129.259 E.02805
G1 X82.304 Y129.291 E.03621
G1 X83.115 Y129.431 E.03001
G1 X84.033 Y129.73 E.03523
G1 X109.03 Y140.085 E.98722
G1 X109.218 Y140.079 E.00686
G1 X122.339 Y133.654 E.53305
G1 X122.45 Y133.536 E.0059
G1 X128.223 Y119.597 E.55047
G1 X128.229 Y119.436 E.0059
G1 X123.494 Y105.614 E.53305
G1 X123.365 Y105.477 E.00686
G1 X98.366 Y95.122 E.98728
G1 X97.667 Y94.78 E.02839
G1 X97.022 Y94.358 E.02813
G1 X96.435 Y93.858 E.02812
G1 X95.894 Y93.263 E.02935
G1 X95.392 Y92.555 E.03164
G1 X95.033 Y91.874 E.0281
G1 X94.761 Y91.153 E.02813
G1 X94.582 Y90.403 E.02813
G1 X94.497 Y89.639 E.02805
G1 X94.53 Y88.647 E.03621
G1 X94.67 Y87.836 E.03001
G1 X94.969 Y86.918 E.03523
G1 X96.876 Y82.314 E.18185
G1 X97.218 Y81.615 E.02839
G1 X97.619 Y81.004 E.02667
G1 X98.002 Y81.254 F42000
G1 F3600
G1 X98.003 Y81.252 E.00008
G1 X98.476 Y80.696 E.02664
G1 X99.03 Y80.194 E.02726
G1 X99.676 Y79.736 E.0289
G1 X100.32 Y79.396 E.02659
G1 X100.989 Y79.145 E.02604
G1 X101.683 Y78.98 E.02604
G1 X102.388 Y78.904 E.02586
G1 X103.296 Y78.933 E.03315
G1 X104.061 Y79.066 E.02835
G1 X104.926 Y79.348 E.03321
G1 X132.59 Y90.807 E1.09248
G1 X133.256 Y91.133 E.02707
G1 X133.588 Y91.337 E.01423
G1 X134.213 Y91.811 E.02862
G1 X134.51 Y92.087 E.01478
G1 X137.193 Y94.771 E.13847
G1 X137.674 Y95.316 E.02652
G1 X138.006 Y95.791 E.02116
G1 X138.38 Y96.478 E.02853
G1 X138.601 Y97.029 E.02168
G1 X145.065 Y115.897 E.72767
G1 X145.311 Y116.886 E.03719
G1 X145.39 Y117.848 E.03521
G1 X145.389 Y121.624 E.13776
G1 X145.344 Y122.356 E.02676
G1 X145.282 Y122.741 E.01423
G1 X145.083 Y123.5 E.02862
G1 X144.942 Y123.879 E.01477
G1 X137.303 Y142.319 E.72825
G1 X136.971 Y142.998 E.02756
G1 X136.766 Y143.329 E.01422
G1 X136.308 Y143.933 E.02764
G1 X136.023 Y144.24 E.01528
G1 X133.343 Y146.919 E.13826
G1 X132.597 Y147.548 E.03561
G1 X131.752 Y148.055 E.03595
G1 X113.834 Y156.83 E.72793
G1 X113.155 Y157.112 E.02684
G1 X112.598 Y157.272 E.02115
G1 X111.827 Y157.403 E.02853
G1 X111.233 Y157.434 E.02168
G1 X107.445 Y157.433 E.13823
G1 X106.713 Y157.388 E.02676
G1 X106.328 Y157.326 E.01423
G1 X105.569 Y157.127 E.02862
G1 X105.189 Y156.986 E.01477
G1 X77.51 Y145.52 E1.09311
G1 X76.854 Y145.199 E.02667
G1 X76.243 Y144.799 E.02666
G1 X75.702 Y144.337 E.02594
G1 X75.141 Y143.71 E.03068
G1 X74.732 Y143.123 E.0261
G1 X74.4 Y142.492 E.02604
G1 X74.15 Y141.823 E.02604
G1 X73.987 Y141.146 E.02541
G1 X73.909 Y140.446 E.02571
G1 X73.945 Y139.445 E.03652
G1 X74.069 Y138.752 E.02568
G1 X74.349 Y137.895 E.03288
G1 X76.244 Y133.319 E.18072
G1 X76.573 Y132.648 E.02729
G1 X76.955 Y132.065 E.02541
G1 X77.415 Y131.524 E.0259
G1 X78.054 Y130.95 E.03135
G1 X78.641 Y130.541 E.0261
G1 X79.273 Y130.209 E.02604
G1 X79.941 Y129.959 E.02604
G1 X80.635 Y129.794 E.02604
G1 X81.34 Y129.717 E.02586
G1 X82.267 Y129.748 E.03384
G1 X83.014 Y129.879 E.02765
G1 X83.879 Y130.162 E.03321
G1 X108.842 Y140.502 E.98584
G1 X109.059 Y140.541 E.00806
G1 X109.218 Y140.536 E.0058
G1 X109.432 Y140.483 E.00806
G1 X122.529 Y134.07 E.53207
G1 X122.681 Y133.958 E.00689
G1 X122.775 Y133.858 E.00499
G1 X122.877 Y133.699 E.00689
G1 X128.641 Y119.784 E.54956
G1 X128.681 Y119.599 E.00689
G1 X128.685 Y119.462 E.00499
G1 X128.657 Y119.276 E.00689
G1 X123.931 Y105.48 E.53207
G1 X123.817 Y105.291 E.00806
G1 X123.708 Y105.175 E.0058
G1 X123.527 Y105.049 E.00806
G1 X98.558 Y94.707 E.98607
G1 X97.901 Y94.386 E.02667
G1 X97.304 Y93.996 E.02604
G1 X96.761 Y93.535 E.026
G1 X96.246 Y92.969 E.0279
G1 X95.778 Y92.307 E.02956
G1 X95.448 Y91.678 E.02594
G1 X95.202 Y91.026 E.02541
G1 X95.032 Y90.316 E.02666
G1 X94.956 Y89.611 E.02586
G1 X94.985 Y88.703 E.03315
G1 X95.118 Y87.937 E.02835
G1 X95.4 Y87.072 E.03321
G1 X97.291 Y82.506 E.18033
G1 X97.613 Y81.849 E.02667
G1 X97.98 Y81.287 E.0245
G1 X98.363 Y81.537 F42000
G1 F3600
G1 X98.365 Y81.533 E.00014
G1 X98.812 Y81.009 E.02514
G1 X99.323 Y80.546 E.02516
G1 X99.908 Y80.131 E.02618
G1 X100.516 Y79.811 E.02508
G1 X101.131 Y79.581 E.02393
G1 X101.769 Y79.431 E.02395
G1 X102.415 Y79.362 E.02367
G1 X103.24 Y79.389 E.03012
G1 X103.96 Y79.513 E.02668
G1 X104.773 Y79.779 E.03119
G1 X132.398 Y91.222 E1.09097
G1 X133.029 Y91.531 E.02566
G1 X133.324 Y91.711 E.01261
G1 X133.927 Y92.169 E.02763
G1 X136.863 Y95.087 E.15102
G1 X137.309 Y95.593 E.02463
G1 X137.613 Y96.026 E.01928
G1 X137.969 Y96.68 E.02719
G1 X138.174 Y97.192 E.02011
G1 X144.624 Y116.021 E.72618
G1 X144.859 Y116.972 E.03574
G1 X144.933 Y117.872 E.03298
G1 X144.932 Y121.614 E.13651
G1 X144.889 Y122.298 E.02504
G1 X144.835 Y122.64 E.01262
G1 X144.644 Y123.368 E.02746
G1 X144.515 Y123.714 E.01347
G1 X136.888 Y142.127 E.72718
G1 X136.567 Y142.782 E.02661
G1 X136.384 Y143.075 E.01259
G1 X135.961 Y143.633 E.02555
G1 X135.692 Y143.924 E.01448
G1 X133.029 Y146.586 E.13737
G1 X132.321 Y147.181 E.03375
G1 X131.539 Y147.65 E.03329
G1 X113.65 Y156.411 E.72676
G1 X113.011 Y156.677 E.02525
G1 X112.503 Y156.824 E.01928
G1 X111.769 Y156.949 E.02719
G1 X111.218 Y156.977 E.02011
G1 X107.455 Y156.976 E.13731
G1 X106.77 Y156.933 E.02504
G1 X106.429 Y156.879 E.01262
G1 X105.7 Y156.688 E.02746
G1 X105.355 Y156.559 E.01347
G1 X77.702 Y145.105 E1.09205
G1 X77.073 Y144.797 E.02557
G1 X76.511 Y144.427 E.02456
G1 X76.016 Y144.002 E.02378
G1 X75.496 Y143.419 E.02852
G1 X75.119 Y142.878 E.02405
G1 X74.815 Y142.296 E.02395
G1 X74.586 Y141.681 E.02396
G1 X74.438 Y141.058 E.02335
G1 X74.368 Y140.438 E.02276
G1 X74.403 Y139.485 E.03483
G1 X74.517 Y138.855 E.02335
G1 X74.776 Y138.059 E.03054
G1 X76.659 Y133.512 E.17957
G1 X76.976 Y132.868 E.02619
G1 X77.328 Y132.333 E.02334
G1 X77.737 Y131.851 E.02308
G1 X78.346 Y131.304 E.02984
G1 X78.887 Y130.928 E.02404
G1 X79.468 Y130.624 E.02395
G1 X80.083 Y130.395 E.02395
G1 X80.722 Y130.244 E.02395
G1 X81.367 Y130.175 E.02366
G1 X82.229 Y130.206 E.03148
G1 X82.912 Y130.327 E.02531
G1 X83.725 Y130.593 E.03121
G1 X108.656 Y140.919 E.98457
G1 X108.969 Y140.989 E.01168
G1 X109.333 Y140.978 E.01329
G1 X109.644 Y140.888 E.01183
G1 X122.719 Y134.486 E.53118
G1 X123.02 Y134.263 E.01367
G1 X123.162 Y134.099 E.0079
G1 X123.303 Y133.865 E.00998
G1 X129.059 Y119.97 E.54874
G1 X129.137 Y119.604 E.01367
G1 X129.136 Y119.387 E.0079
G1 X129.086 Y119.118 E.00998
G1 X124.367 Y105.343 E.53126
G1 X124.213 Y105.063 E.01168
G1 X124.047 Y104.869 E.00931
G1 X123.695 Y104.624 E.01565
G1 X98.75 Y94.292 E.98513
G1 X98.135 Y93.992 E.02496
G1 X97.585 Y93.633 E.02395
G1 X97.086 Y93.211 E.02387
G1 X96.609 Y92.688 E.02581
G1 X96.165 Y92.06 E.02807
G1 X95.87 Y91.498 E.02317
G1 X95.643 Y90.9 E.02333
G1 X95.485 Y90.246 E.02455
G1 X95.414 Y89.584 E.02429
G1 X95.441 Y88.759 E.03012
G1 X95.565 Y88.038 E.02668
G1 X95.831 Y87.226 E.03119
G1 X97.707 Y82.698 E.17882
G1 X98.007 Y82.083 E.02496
G1 X98.341 Y81.57 E.02234
G1 X98.725 Y81.82 F42000
G1 F3600
G1 X98.738 Y81.801 E.00085
G1 X99.147 Y81.322 E.02298
G1 X99.616 Y80.899 E.02305
G1 X100.141 Y80.527 E.02347
G1 X100.696 Y80.233 E.02291
G1 X101.272 Y80.018 E.02244
G1 X101.855 Y79.881 E.02185
G1 X102.441 Y79.82 E.02149
G1 X103.183 Y79.844 E.0271
G1 X103.859 Y79.961 E.02502
G1 X104.619 Y80.21 E.02917
G1 X132.206 Y91.637 E1.08947
G1 X132.803 Y91.929 E.02426
G1 X133.06 Y92.085 E.01097
G1 X133.633 Y92.521 E.02626
G1 X136.533 Y95.404 E.14919
G1 X136.945 Y95.871 E.02272
G1 X137.219 Y96.261 E.0174
G1 X137.558 Y96.882 E.02583
G1 X137.746 Y97.354 E.01854
G1 X144.183 Y116.144 E.72468
G1 X144.407 Y117.057 E.03428
G1 X144.476 Y117.897 E.03075
G1 X144.475 Y121.604 E.13526
G1 X144.435 Y122.242 E.02333
G1 X144.388 Y122.539 E.01099
G1 X144.21 Y123.223 E.02578
G1 X136.473 Y141.935 E.73877
G1 X136.163 Y142.566 E.02566
G1 X136.004 Y142.821 E.01096
G1 X135.615 Y143.334 E.02348
G1 X135.361 Y143.609 E.01368
G1 X132.715 Y146.252 E.13644
G1 X132.063 Y146.801 E.0311
G1 X131.325 Y147.245 E.03143
G1 X113.465 Y155.993 E.72559
G1 X112.866 Y156.242 E.02368
G1 X112.409 Y156.375 E.01739
G1 X111.727 Y156.492 E.02524
G1 X111.203 Y156.52 E.01912
G1 X107.465 Y156.519 E.1364
G1 X106.827 Y156.479 E.02333
G1 X106.529 Y156.432 E.01099
G1 X105.828 Y156.248 E.02646
G1 X77.895 Y144.69 E1.10296
G1 X77.308 Y144.403 E.02383
G1 X76.78 Y144.055 E.02307
G1 X76.331 Y143.669 E.02162
G1 X75.85 Y143.129 E.02636
G1 X75.507 Y142.633 E.022
G1 X75.23 Y142.102 E.02186
G1 X75.022 Y141.54 E.02188
G1 X74.891 Y140.988 E.02069
G1 X74.827 Y140.431 E.02044
G1 X74.86 Y139.524 E.03312
G1 X74.964 Y138.958 E.021
G1 X75.204 Y138.223 E.02823
G1 X77.074 Y133.704 E.17842
G1 X77.378 Y133.088 E.02508
G1 X77.69 Y132.615 E.02067
G1 X78.059 Y132.177 E.0209
G1 X78.637 Y131.659 E.02831
G1 X79.131 Y131.316 E.02195
G1 X79.663 Y131.039 E.02186
G1 X80.224 Y130.831 E.02186
G1 X80.807 Y130.694 E.02185
G1 X81.393 Y130.634 E.02146
G1 X82.19 Y130.663 E.02913
G1 X82.81 Y130.774 E.02296
G1 X83.571 Y131.024 E.02923
G1 X108.471 Y141.338 E.98336
G1 X108.862 Y141.433 E.01469
G1 X108.99 Y141.446 E.00468
G1 X109.467 Y141.415 E.01742
G1 X109.855 Y141.294 E.01483
G1 X122.91 Y134.901 E.53039
G1 X123.369 Y134.558 E.02091
G1 X123.559 Y134.327 E.0109
G1 X123.729 Y134.032 E.01244
G1 X129.477 Y120.155 E.54801
G1 X129.594 Y119.594 E.02091
G1 X129.583 Y119.296 E.0109
G1 X129.516 Y118.962 E.01244
G1 X124.803 Y105.205 E.53055
G1 X124.618 Y104.851 E.01457
G1 X124.399 Y104.577 E.01281
G1 X124.302 Y104.49 E.00477
G1 X123.858 Y104.197 E.0194
G1 X98.942 Y93.877 E.98398
G1 X98.369 Y93.597 E.02327
G1 X97.852 Y93.26 E.0225
G1 X97.397 Y92.874 E.02175
G1 X96.971 Y92.408 E.02306
G1 X96.551 Y91.813 E.02657
G1 X96.284 Y91.302 E.02102
G1 X96.079 Y90.757 E.02128
G1 X95.939 Y90.176 E.02179
G1 X95.873 Y89.576 E.02201
G1 X95.898 Y88.796 E.02848
G1 X96.013 Y88.14 E.02433
G1 X96.262 Y87.38 E.02917
G1 X98.122 Y82.89 E.17732
G1 X98.402 Y82.317 E.02327
G1 X98.703 Y81.854 E.02016
G1 X99.087 Y82.104 F42000
G1 F3600
G1 X99.11 Y82.068 E.00155
G1 X99.482 Y81.636 E.02081
G1 X99.909 Y81.252 E.02096
G1 X100.374 Y80.922 E.02079
G1 X100.876 Y80.655 E.02074
G1 X101.396 Y80.459 E.0203
G1 X101.94 Y80.332 E.02036
G1 X102.467 Y80.278 E.01932
G1 X103.127 Y80.3 E.02411
G1 X103.758 Y80.409 E.02335
G1 X104.465 Y80.641 E.02715
G1 X132.014 Y92.052 E1.08798
G1 X132.578 Y92.327 E.02289
G1 X132.796 Y92.46 E.00931
G1 X133.339 Y92.873 E.02489
G1 X136.203 Y95.721 E.14737
G1 X136.58 Y96.149 E.02082
G1 X136.826 Y96.496 E.0155
G1 X137.146 Y97.085 E.02446
G1 X137.319 Y97.517 E.01696
G1 X143.742 Y116.267 E.72317
G1 X143.956 Y117.141 E.03282
G1 X144.018 Y117.921 E.02854
G1 X144.018 Y121.585 E.1337
G1 X143.98 Y122.186 E.02196
G1 X143.941 Y122.439 E.00936
G1 X143.772 Y123.086 E.0244
G1 X136.058 Y141.742 E.73658
G1 X135.759 Y142.349 E.02468
G1 X135.623 Y142.566 E.00933
G1 X135.268 Y143.034 E.02146
G1 X132.402 Y145.919 E.14837
G1 X131.787 Y146.433 E.02924
G1 X131.111 Y146.841 E.02879
G1 X113.281 Y155.574 E.72442
G1 X112.721 Y155.807 E.02213
G1 X112.313 Y155.927 E.0155
G1 X111.684 Y156.036 E.0233
G1 X111.188 Y156.062 E.01813
G1 X107.475 Y156.061 E.13546
G1 X106.883 Y156.024 E.02165
G1 X106.63 Y155.985 E.00934
G1 X105.965 Y155.81 E.02507
G1 X78.087 Y144.275 E1.10081
G1 X77.543 Y144.009 E.02209
G1 X77.049 Y143.684 E.02158
G1 X76.646 Y143.335 E.01944
G1 X76.206 Y142.839 E.02421
G1 X75.895 Y142.389 E.01994
G1 X75.646 Y141.908 E.01977
G1 X75.458 Y141.399 E.0198
G1 X75.344 Y140.917 E.01806
G1 X75.286 Y140.424 E.01811
G1 X75.317 Y139.564 E.03139
G1 X75.411 Y139.062 E.01864
G1 X75.631 Y138.386 E.02594
G1 X77.489 Y133.897 E.17725
G1 X77.78 Y133.308 E.02397
G1 X78.062 Y132.882 E.01863
G1 X78.382 Y132.503 E.01811
G1 X78.928 Y132.013 E.02677
G1 X79.376 Y131.704 E.01984
G1 X79.857 Y131.455 E.01977
G1 X80.365 Y131.268 E.01977
G1 X80.892 Y131.145 E.01975
G1 X81.418 Y131.092 E.01926
G1 X82.151 Y131.12 E.02678
G1 X82.707 Y131.221 E.02062
G1 X83.417 Y131.455 E.02727
G1 X108.288 Y141.756 E.98219
M73 P1 R45
G1 X108.747 Y141.875 E.01731
G1 X108.939 Y141.899 E.00705
G1 X109.488 Y141.872 E.02007
G1 X109.61 Y141.849 E.00451
G1 X110.064 Y141.7 E.01745
G1 X123.101 Y135.317 E.52962
G1 X123.637 Y134.929 E.02415
G1 X123.727 Y134.842 E.00456
G1 X123.959 Y134.547 E.01369
G1 X124.154 Y134.199 E.01457
G1 X129.894 Y120.341 E.54729
G1 X130.04 Y119.695 E.02415
G1 X130.051 Y119.571 E.00456
G1 X130.029 Y119.196 E.01369
G1 X129.945 Y118.806 E.01457
G1 X125.239 Y105.066 E.52991
G1 X125.028 Y104.649 E.01706
G1 X124.761 Y104.299 E.01604
G1 X124.545 Y104.103 E.01066
G1 X124.022 Y103.77 E.02262
G1 X99.134 Y93.461 E.98289
G1 X98.602 Y93.202 E.02157
G1 X98.133 Y92.898 E.0204
G1 X97.71 Y92.538 E.02026
G1 X97.334 Y92.127 E.02033
G1 X96.938 Y91.566 E.02505
G1 X96.699 Y91.107 E.01886
G1 X96.515 Y90.614 E.01923
G1 X96.389 Y90.088 E.01971
G1 X96.332 Y89.568 E.01909
G1 X96.356 Y88.834 E.02681
G1 X96.461 Y88.241 E.02195
G1 X96.693 Y87.534 E.02717
G1 X98.537 Y83.082 E.17583
G1 X98.796 Y82.55 E.02157
G1 X99.065 Y82.137 E.01798
