; HEADER_BLOCK_START
; generated by OrcaSlicer 2.1.0 on 2024-11-12 at 18:20:32
; total layer number: 200
; filament_density: 1.27
; filament_diameter: 1.75
; max_z_height: 40.00
; HEADER_BLOCK_END

; THUMBNAIL_BLOCK_START

;
; THUMBNAIL_BLOCK_END

; THUMBNAIL_BLOCK_START

;
; THUMBNAIL_BLOCK_END

; external perimeters extrusion width = 0.42mm
; perimeters extrusion width = 0.45mm
; infill extrusion width = 0.45mm
; solid infill extrusion width = 0.42mm
; top infill extrusion width = 0.42mm
; support material extrusion width = 0.42mm
; first layer extrusion width = 0.50mm

; EXECUTABLE_BLOCK_START
EXCLUDE_OBJECT_DEFINE NAME=клешня.stp_id_0_copy_0 CENTER=114.361,102.293 POLYGON=[[93.5031,91.9373],[108.148,77.2926],[135.219,77.2926],[135.219,127.293],[108.148,127.293],[93.5031,112.648],[93.5031,91.9373]]
M73 P0 R40
M106 S0
M106 P2 S0
;TYPE:Custom
M140 S0
M104 S0 
START_PRINT EXTRUDER_TEMP=250 BED_TEMP=80
G90
G21
M83 ; use relative distances for extrusion
; filament start gcode
M106 S0
M106 P2 S0
;LAYER_CHANGE
;Z:0.2
;HEIGHT:0.2
;BEFORE_LAYER_CHANGE
;0.2
G92 E0

G1 E-.6 F2400
;_SET_FAN_SPEED_CHANGING_LAYER
SET_VELOCITY_LIMIT ACCEL=500 ACCEL_TO_DECEL=250
SET_VELOCITY_LIMIT SQUARE_CORNER_VELOCITY=9
EXCLUDE_OBJECT_START NAME=клешня.stp_id_0_copy_0
G1 Z.2 F42000
G1 X90.366 Y88.792
G1 Z.2
G1 E.6 F2400
;TYPE:Brim
;WIDTH:0.5
G1 F3600
G1 X105.001 Y74.157 E.75514
G1 X105.493 Y73.733 E.02372
G1 X106.037 Y73.389 E.02349
G1 X106.483 Y73.183 E.01791
G1 X107.096 Y72.98 E.02355
G1 X107.731 Y72.871 E.02352
G1 X108.153 Y72.85 E.01542
G1 X135.21 Y72.85 E.98721
G1 X135.859 Y72.898 E.02372
G1 X136.481 Y73.039 E.02329
G1 X137.325 Y73.396 E.03341
G1 X137.943 Y73.793 E.02681
G1 X138.422 Y74.219 E.02338
G1 X138.833 Y74.711 E.02341
G1 X139.166 Y75.257 E.02332
G1 X139.477 Y76.043 E.03084
G1 X139.623 Y76.722 E.02536
G1 X139.661 Y77.3 E.02113
G1 X139.661 Y82.284 E.18185
G1 X139.613 Y82.933 E.02372
G1 X139.473 Y83.555 E.02329
G1 X139.115 Y84.398 E.03341
G1 X138.719 Y85.017 E.02681
G1 X138.293 Y85.496 E.02338
G1 X137.8 Y85.907 E.02341
G1 X137.255 Y86.239 E.02329
G1 X136.417 Y86.566 E.03282
G1 X135.79 Y86.697 E.02338
G1 X135.211 Y86.735 E.02115
G1 X112.153 Y86.735 E.84129
G1 X111.992 Y86.802 E.00638
G1 X103.012 Y95.781 E.46334
G1 X102.945 Y95.943 E.00638
G1 X102.945 Y108.642 E.46334
G1 X103.012 Y108.804 E.00638
G1 X111.992 Y117.783 E.46334
G1 X112.153 Y117.85 E.00638
G1 X135.21 Y117.85 E.84125
G1 X135.859 Y117.898 E.02372
G1 X136.48 Y118.039 E.02325
G1 X137.407 Y118.442 E.03689
G1 X137.942 Y118.792 E.02333
G1 X138.422 Y119.219 E.02341
G1 X138.833 Y119.711 E.02341
G1 X139.166 Y120.257 E.02332
G1 X139.477 Y121.043 E.03084
G1 X139.623 Y121.722 E.02536
G1 X139.661 Y122.3 E.02113
G1 X139.661 Y127.284 E.18185
G1 X139.613 Y127.933 E.02372
G1 X139.473 Y128.555 E.02329
G1 X139.115 Y129.398 E.03341
G1 X138.719 Y130.017 E.02681
G1 X138.293 Y130.496 E.02338
G1 X137.8 Y130.907 E.02341
G1 X137.255 Y131.239 E.02329
G1 X136.417 Y131.566 E.03282
G1 X135.79 Y131.697 E.02338
G1 X135.211 Y131.735 E.02115
G1 X108.156 Y131.735 E.98713
G1 X107.508 Y131.687 E.02372
G1 X106.88 Y131.545 E.02349
G1 X106.419 Y131.376 E.01791
G1 X105.842 Y131.086 E.02355
G1 X105.316 Y130.714 E.02352
G1 X105.003 Y130.43 E.01543
G1 X90.368 Y115.795 E.75514
G1 X89.943 Y115.303 E.02372
G1 X89.599 Y114.758 E.02349
G1 X89.393 Y114.313 E.01791
G1 X89.191 Y113.7 E.02355
G1 X89.081 Y113.065 E.02352
G1 X89.061 Y112.642 E.01542
G1 X89.061 Y91.946 E.75514
G1 X89.109 Y91.297 E.02372
G1 X89.251 Y90.669 E.02349
G1 X89.42 Y90.208 E.01791
G1 X89.71 Y89.632 E.02355
G1 X90.082 Y89.105 E.02352
G1 X90.339 Y88.822 E.01397
G1 X90.678 Y89.128 F42000
G1 F3600
G1 X90.699 Y89.105 E.00114
G1 X105.308 Y74.496 E.75382
G1 X105.774 Y74.096 E.02242
G1 X106.249 Y73.796 E.02048
G1 X106.659 Y73.606 E.01647
G1 X107.217 Y73.423 E.02143
G1 X107.773 Y73.327 E.02059
G1 X108.168 Y73.307 E.01442
G1 X135.199 Y73.308 E.98625
G1 X135.801 Y73.354 E.02205
G1 X136.352 Y73.481 E.02063
G1 X137.1 Y73.797 E.02963
G1 X137.657 Y74.152 E.02411
G1 X138.085 Y74.531 E.02084
G1 X138.466 Y74.987 E.02168
G1 X138.76 Y75.472 E.02071
G1 X139.04 Y76.187 E.02801
G1 X139.167 Y76.776 E.02199
G1 X139.204 Y77.32 E.01989
G1 X139.204 Y82.262 E.18033
G1 X139.16 Y82.855 E.02168
G1 X139.031 Y83.426 E.02136
G1 X138.714 Y84.174 E.02963
G1 X138.359 Y84.731 E.02411
G1 X137.981 Y85.159 E.02084
G1 X137.525 Y85.54 E.02168
G1 X137.04 Y85.832 E.02065
G1 X136.275 Y86.128 E.02993
G1 X135.737 Y86.241 E.02006
G1 X135.201 Y86.278 E.01961
G1 X112.167 Y86.278 E.84041
G1 X111.966 Y86.318 E.00747
G1 X111.829 Y86.374 E.0054
G1 X111.659 Y86.488 E.00747
G1 X102.699 Y95.449 E.46236
G1 X102.585 Y95.619 E.00747
G1 X102.528 Y95.756 E.0054
G1 X102.488 Y95.957 E.00747
G1 X102.488 Y108.629 E.46236
G1 X102.528 Y108.83 E.00747
G1 X102.585 Y108.966 E.0054
G1 X102.699 Y109.137 E.00747
G1 X111.659 Y118.097 E.46236
G1 X111.829 Y118.211 E.00747
G1 X111.966 Y118.268 E.0054
G1 X112.167 Y118.307 E.00747
G1 X135.188 Y118.307 E.83996
G1 X135.781 Y118.351 E.02168
G1 X136.325 Y118.472 E.02033
G1 X137.199 Y118.852 E.03478
G1 X137.671 Y119.163 E.02062
G1 X138.085 Y119.531 E.0202
G1 X138.466 Y119.987 E.02168
G1 X138.76 Y120.472 E.02071
G1 X139.034 Y121.165 E.02719
G1 X139.167 Y121.776 E.02281
G1 X139.204 Y122.32 E.01989
G1 X139.204 Y127.272 E.1807
G1 X139.16 Y127.855 E.02131
G1 X139.038 Y128.403 E.02047
G1 X138.714 Y129.174 E.03052
G1 X138.359 Y129.731 E.02411
G1 X137.981 Y130.159 E.02084
G1 X137.541 Y130.528 E.02094
G1 X137.062 Y130.822 E.02051
G1 X136.275 Y131.128 E.03081
G1 X135.737 Y131.241 E.02006
G1 X135.201 Y131.278 E.01961
G1 X108.178 Y131.278 E.98595
G1 X107.565 Y131.231 E.02242
G1 X107.018 Y131.108 E.02048
G1 X106.594 Y130.953 E.01647
G1 X106.07 Y130.687 E.02143
G1 X105.609 Y130.362 E.02059
G1 X105.316 Y130.097 E.01443
G1 X90.707 Y115.487 E.75382
G1 X90.306 Y115.021 E.02242
G1 X90.006 Y114.547 E.02048
G1 X89.822 Y114.152 E.0159
G1 X89.634 Y113.579 E.02201
G1 X89.538 Y113.023 E.02059
G1 X89.518 Y112.628 E.01442
G1 X89.518 Y91.968 E.75381
G1 X89.564 Y91.355 E.02242
G1 X89.688 Y90.807 E.02048
G1 X89.843 Y90.384 E.01647
G1 X90.109 Y89.86 E.02143
G1 X90.434 Y89.399 E.02059
G1 X90.651 Y89.158 E.01183
G1 X90.991 Y89.464 F42000
G1 F3600
G1 X91.033 Y89.418 E.00227
G1 X105.616 Y74.835 E.75244
G1 X106.055 Y74.459 E.02112
G1 X106.461 Y74.203 E.01749
G1 X106.834 Y74.029 E.01502
G1 X107.337 Y73.866 E.01929
G1 X107.815 Y73.784 E.0177
G1 X108.183 Y73.765 E.01342
G1 X135.176 Y73.765 E.98487
G1 X135.722 Y73.806 E.01998
G1 X136.222 Y73.922 E.01872
G1 X136.876 Y74.199 E.02592
G1 X137.372 Y74.513 E.02142
G1 X137.763 Y74.858 E.01903
G1 X138.098 Y75.262 E.01915
G1 X138.353 Y75.687 E.01806
G1 X138.604 Y76.33 E.02521
G1 X138.711 Y76.83 E.01866
G1 X138.747 Y77.34 E.01865
G1 X138.747 Y82.24 E.17879
G1 X138.708 Y82.777 E.01963
G1 X138.589 Y83.296 E.01944
G1 X138.313 Y83.95 E.02589
G1 X137.999 Y84.446 E.02142
G1 X137.668 Y84.822 E.01828
G1 X137.266 Y85.16 E.01914
G1 X136.827 Y85.425 E.01873
G1 X136.134 Y85.691 E.02707
G1 X135.665 Y85.787 E.01749
G1 X135.19 Y85.82 E.01738
G1 X112.181 Y85.821 E.83952
G1 X111.782 Y85.9 E.01484
G1 X111.567 Y86 E.00865
G1 X111.416 Y86.101 E.0066
G1 X102.385 Y95.116 E.4656
G1 X102.159 Y95.454 E.01484
G1 X102.079 Y95.675 E.00856
G1 X102.031 Y95.968 E.01083
G1 X102.031 Y108.618 E.46155
G1 X102.079 Y108.911 E.01083
G1 X102.159 Y109.131 E.00856
G1 X102.385 Y109.469 E.01484
G1 X111.328 Y118.412 E.46146
G1 X111.569 Y118.586 E.01083
G1 X111.782 Y118.685 E.00856
G1 X112.181 Y118.765 E.01484
G1 X135.167 Y118.765 E.83867
G1 X135.704 Y118.804 E.01967
G1 X136.17 Y118.906 E.0174
G1 X136.991 Y119.262 E.03265
G1 X137.384 Y119.521 E.01717
G1 X137.748 Y119.843 E.01774
G1 X138.098 Y120.262 E.01992
G1 X138.353 Y120.687 E.01808
G1 X138.591 Y121.288 E.02361
G1 X138.714 Y121.851 E.021
G1 X138.747 Y122.34 E.0179
G1 X138.746 Y127.26 E.17953
G1 X138.708 Y127.778 E.01894
G1 X138.604 Y128.251 E.01768
G1 X138.312 Y128.95 E.02763
G1 X137.999 Y129.446 E.0214
G1 X137.668 Y129.823 E.01831
G1 X137.281 Y130.149 E.01846
G1 X136.868 Y130.404 E.0177
G1 X136.133 Y130.691 E.02878
G1 X135.665 Y130.787 E.01746
G1 X135.19 Y130.82 E.01738
G1 X108.201 Y130.821 E.98472
G1 X107.624 Y130.776 E.02112
G1 X107.156 Y130.67 E.01749
G1 X106.769 Y130.529 E.01502
G1 X106.298 Y130.289 E.01929
G1 X105.902 Y130.009 E.0177
G1 X105.628 Y129.763 E.01343
G1 X91.046 Y115.18 E.75244
G1 X90.669 Y114.74 E.02112
G1 X90.413 Y114.334 E.01752
G1 X90.251 Y113.991 E.01386
G1 X90.077 Y113.458 E.02045
G1 X89.994 Y112.98 E.01769
G1 X89.975 Y112.613 E.01342
G1 X89.975 Y91.99 E.75244
G1 X90.02 Y91.413 E.02112
G1 X90.125 Y90.945 E.01749
G1 X90.267 Y90.559 E.01502
G1 X90.507 Y90.088 E.01929
G1 X90.787 Y89.691 E.0177
G1 X90.965 Y89.494 E.0097
G1 X91.306 Y89.799 F42000
G1 F3600
G1 X91.367 Y89.73 E.00338
G1 X105.922 Y75.175 E.75103
G1 X106.336 Y74.822 E.01982
G1 X106.672 Y74.61 E.01453
G1 X107.009 Y74.453 E.01356
G1 X107.457 Y74.31 E.01714
G1 X107.858 Y74.24 E.01487
G1 X108.198 Y74.222 E.01242
G1 X135.153 Y74.222 E.98348
G1 X135.642 Y74.259 E.0179
G1 X136.091 Y74.363 E.01681
G1 X136.653 Y74.601 E.02226
G1 X137.105 Y74.887 E.01952
G1 X137.44 Y75.185 E.01639
G1 X137.717 Y75.519 E.01582
G1 X137.935 Y75.879 E.01534
G1 X138.16 Y76.452 E.02248
G1 X138.255 Y76.885 E.01619
G1 X138.29 Y77.361 E.0174
G1 X138.29 Y82.219 E.17724
G1 X138.252 Y82.719 E.01831
G1 X138.148 Y83.166 E.01675
G1 X137.9 Y83.747 E.02301
G1 X137.625 Y84.179 E.01872
G1 X137.34 Y84.501 E.01569
G1 X136.991 Y84.792 E.01658
G1 X136.614 Y85.017 E.016
G1 X136.016 Y85.247 E.02338
G1 X135.612 Y85.332 E.01506
G1 X135.169 Y85.363 E.01619
G1 X112.192 Y85.364 E.83833
G1 X111.704 Y85.45 E.01809
G1 X111.381 Y85.583 E.01274
G1 X111.085 Y85.786 E.01313
G1 X102.071 Y94.784 E.4647
G1 X101.783 Y95.195 E.01829
G1 X101.728 Y95.303 E.00445
G1 X101.626 Y95.611 E.01181
G1 X101.574 Y95.977 E.01351
G1 X101.574 Y108.608 E.46084
G1 X101.626 Y108.974 E.01351
G1 X101.728 Y109.282 E.01181
G1 X101.783 Y109.391 E.00445
G1 X102.07 Y109.801 E.01828
G1 X110.997 Y118.728 E.4606
G1 X111.385 Y119.004 E.01738
G1 X111.704 Y119.136 E.0126
G1 X112.193 Y119.222 E.01809
G1 X135.145 Y119.222 E.83745
G1 X135.629 Y119.256 E.01769
G1 X136.016 Y119.34 E.01446
G1 X136.783 Y119.672 E.03049
G1 X137.113 Y119.891 E.01446
G1 X137.412 Y120.155 E.01456
G1 X137.73 Y120.537 E.01812
G1 X137.946 Y120.9 E.01543
G1 X138.148 Y121.412 E.02007
G1 X138.261 Y121.925 E.01918
G1 X138.29 Y122.36 E.0159
G1 X138.289 Y127.249 E.17836
G1 X138.255 Y127.702 E.01659
G1 X138.169 Y128.101 E.0149
G1 X137.91 Y128.728 E.02474
G1 X137.638 Y129.162 E.0187
G1 X137.354 Y129.488 E.01577
G1 X137.02 Y129.772 E.01598
G1 X136.674 Y129.987 E.01485
G1 X135.992 Y130.253 E.02672
G1 X135.594 Y130.334 E.01484
G1 X135.179 Y130.363 E.01517
G1 X108.224 Y130.364 E.98348
G1 X107.682 Y130.321 E.01982
G1 X107.294 Y130.233 E.01453
G1 X106.945 Y130.105 E.01355
G1 X106.527 Y129.891 E.01714
G1 X106.194 Y129.656 E.01487
G1 X105.94 Y129.428 E.01243
G1 X91.385 Y114.873 E.75103
G1 X91.033 Y114.46 E.01982
G1 X90.819 Y114.122 E.0146
G1 X90.681 Y113.829 E.0118
G1 X90.52 Y113.338 E.01887
G1 X90.451 Y112.937 E.01482
G1 X90.432 Y112.597 E.01242
G1 X90.432 Y92.013 E.75103
G1 X90.475 Y91.472 E.01982
G1 X90.563 Y91.083 E.01453
G1 X90.69 Y90.734 E.01355
G1 X90.905 Y90.317 E.01714
G1 X91.14 Y89.984 E.01487
G1 X91.279 Y89.829 E.00759
G1 X91.62 Y90.133 F42000
G1 F3600
G1 X91.702 Y90.042 E.00448
G1 X106.229 Y75.515 E.74957
G1 X106.616 Y75.186 E.01852
G1 X106.9 Y75.008 E.01223
G1 X107.184 Y74.877 E.01143
G1 X107.575 Y74.753 E.01496
G1 X107.902 Y74.697 E.0121
G1 X108.215 Y74.679 E.01142
G1 X135.131 Y74.679 E.98207
G1 X135.563 Y74.711 E.0158
G1 X135.96 Y74.804 E.01489
G1 X136.43 Y75.003 E.01861
G1 X136.838 Y75.26 E.01759
G1 X137.117 Y75.512 E.01372
G1 X137.337 Y75.777 E.01257
G1 X137.518 Y76.072 E.01263
G1 X137.718 Y76.575 E.01975
G1 X137.802 Y76.961 E.01441
G1 X137.833 Y77.382 E.01543
G1 X137.833 Y82.196 E.17564
G1 X137.797 Y82.66 E.01697
G1 X137.707 Y83.035 E.01405
G1 X137.499 Y83.522 E.01934
G1 X137.264 Y83.894 E.01605
G1 X137.027 Y84.165 E.01312
G1 X136.734 Y84.411 E.01399
G1 X136.403 Y84.609 E.01406
G1 X135.875 Y84.809 E.02059
G1 X135.539 Y84.879 E.01253
G1 X135.148 Y84.906 E.01428
G1 X112.203 Y84.907 E.83717
G1 X111.525 Y85.029 E.02516
G1 X111.114 Y85.212 E.0164
G1 X110.754 Y85.471 E.01619
G1 X101.755 Y94.453 E.46389
G1 X101.412 Y94.927 E.02135
G1 X101.324 Y95.089 E.00673
G1 X101.172 Y95.557 E.01796
G1 X101.117 Y95.986 E.01577
G1 X101.117 Y108.599 E.4602
G1 X101.172 Y109.029 E.01582
G1 X101.291 Y109.417 E.0148
G1 X101.414 Y109.66 E.00993
G1 X101.755 Y110.132 E.02125
G1 X110.666 Y119.043 E.45982
G1 X111.11 Y119.369 E.02007
G1 X111.525 Y119.556 E.01663
G1 X112.203 Y119.679 E.02514
G1 X135.124 Y119.679 E.83627
M73 P1 R40
G1 X135.554 Y119.709 E.01574
G1 X135.862 Y119.775 E.0115
G1 X136.574 Y120.082 E.02829
G1 X136.841 Y120.261 E.01172
G1 X137.075 Y120.468 E.01141
G1 X137.361 Y120.811 E.01629
G1 X137.538 Y121.113 E.01276
G1 X137.706 Y121.536 E.0166
G1 X137.808 Y122 E.01736
G1 X137.833 Y122.38 E.01389
G1 X137.831 Y127.237 E.1772
G1 X137.802 Y127.627 E.01428
G1 X137.733 Y127.952 E.01214
G1 X137.507 Y128.507 E.02186
G1 X137.275 Y128.88 E.01601
G1 X137.038 Y129.154 E.01323
G1 X136.757 Y129.395 E.01351
G1 X136.479 Y129.57 E.01198
G1 X135.851 Y129.816 E.02462
G1 X135.523 Y129.881 E.01219
G1 X135.168 Y129.905 E.013
G1 X108.247 Y129.907 E.98222
G1 X107.742 Y129.865 E.01852
G1 X107.415 Y129.79 E.01223
G1 X107.121 Y129.682 E.01143
G1 X106.757 Y129.493 E.01496
G1 X106.486 Y129.302 E.0121
G1 X106.252 Y129.094 E.01143
G1 X91.725 Y114.567 E.74957
G1 X91.397 Y114.18 E.01852
G1 X91.225 Y113.908 E.01175
G1 X91.11 Y113.667 E.00972
G1 X90.963 Y113.217 E.01727
G1 X90.907 Y112.894 E.01199
G1 X90.889 Y112.581 E.01142
G1 X90.889 Y92.037 E.74957
G1 X90.93 Y91.531 E.01852
G1 X91.005 Y91.204 E.01223
G1 X91.114 Y90.91 E.01143
G1 X91.302 Y90.546 E.01496
G1 X91.494 Y90.275 E.0121
G1 X91.594 Y90.163 E.00549
G1 X91.956 Y90.447 F42000
G1 F3600
G1 X92.003 Y90.387 E.00276
G1 X106.598 Y75.792 E.75308
G1 X106.958 Y75.51 E.01671
G1 X107.316 Y75.32 E.01478
G1 X107.631 Y75.221 E.01206
G1 X108.197 Y75.136 E.02085
G1 X135.176 Y75.136 E.98438
G1 X135.751 Y75.224 E.02121
G1 X135.877 Y75.262 E.00479
G1 X136.264 Y75.434 E.01545
G1 X136.375 Y75.501 E.00477
G1 X136.781 Y75.839 E.01926
G1 X136.963 Y76.057 E.01036
G1 X137.094 Y76.264 E.00894
G1 X137.281 Y76.716 E.01784
G1 X137.313 Y76.837 E.00458
G1 X137.376 Y77.331 E.01814
G1 X137.359 Y82.442 E.1865
G1 X137.246 Y82.961 E.01936
G1 X137.01 Y83.449 E.01978
G1 X136.673 Y83.855 E.01926
G1 X136.454 Y84.037 E.01036
G1 X136.247 Y84.167 E.00894
G1 X135.795 Y84.355 E.01784
G1 X135.674 Y84.387 E.00458
G1 X135.181 Y84.449 E.01812
G1 X111.169 Y84.449 E.87612
G1 X111.072 Y84.49 E.00383
G1 X100.7 Y94.862 E.53518
G1 X100.66 Y94.959 E.00383
G1 X100.66 Y109.627 E.53518
G1 X100.7 Y109.724 E.00383
G1 X111.072 Y120.096 E.53518
G1 X111.169 Y120.136 E.00383
G1 X135.175 Y120.136 E.87587
G1 X135.864 Y120.256 E.02552
G1 X136.206 Y120.398 E.01353
G1 X136.464 Y120.555 E.011
G1 X136.7 Y120.754 E.01128
G1 X136.943 Y121.029 E.01339
G1 X137.042 Y121.184 E.00669
G1 X137.266 Y121.663 E.01931
G1 X137.334 Y121.938 E.01036
G1 X137.376 Y122.329 E.01434
G1 X137.366 Y127.357 E.18346
G1 X137.339 Y127.592 E.0086
G1 X137.227 Y128.014 E.01594
G1 X136.972 Y128.507 E.02024
G1 X136.723 Y128.805 E.01419
G1 X136.625 Y128.896 E.00484
G1 X136.162 Y129.209 E.02043
G1 X135.674 Y129.387 E.01894
G1 X135.181 Y129.449 E.01812
G1 X108.187 Y129.449 E.98492
G1 X107.691 Y129.384 E.01826
G1 X107.513 Y129.339 E.0067
G1 X107.039 Y129.116 E.0191
G1 X106.588 Y128.783 E.02045
G1 X92.006 Y114.201 E.75244
G1 X91.701 Y113.804 E.01826
G1 X91.607 Y113.646 E.0067
G1 X91.43 Y113.153 E.0191
G1 X91.346 Y112.599 E.02045
G1 X91.346 Y91.986 E.75209
G1 X91.432 Y91.421 E.02085
G1 X91.531 Y91.106 E.01206
G1 X91.721 Y90.748 E.01478
G1 X91.932 Y90.478 E.01249
G1 X92.291 Y90.754 F42000
G1 F3600
G1 X92.32 Y90.716 E.00172
G1 X106.927 Y76.11 E.75369
G1 X107.245 Y75.866 E.0146
G1 X107.528 Y75.725 E.01157
G1 X107.697 Y75.674 E.00644
G1 X108.186 Y75.593 E.01809
G1 X135.187 Y75.593 E.98514
