; HEADER_BLOCK_START
; generated by OrcaSlicer 2.1.0 on 2024-12-14 at 15:43:39
; total layer number: 225
; filament_density: 1.27
; filament_diameter: 1.75
; max_z_height: 45.00
; HEADER_BLOCK_END

; THUMBNAIL_BLOCK_START

;
; THUMBNAIL_BLOCK_END

; THUMBNAIL_BLOCK_START

;
; THUMBNAIL_BLOCK_END

; external perimeters extrusion width = 0.42mm
; perimeters extrusion width = 0.45mm
; infill extrusion width = 0.45mm
; solid infill extrusion width = 0.42mm
; top infill extrusion width = 0.42mm
; support material extrusion width = 0.42mm
; first layer extrusion width = 0.50mm

; EXECUTABLE_BLOCK_START
EXCLUDE_OBJECT_DEFINE NAME=крюк.stp_id_0_copy_0 CENTER=110,110 POLYGON=[[97.5,72.9006],[97.5056,72.7511],[97.5223,72.6025],[97.5501,72.4556],[97.5889,72.3111],[97.6383,72.1699],[97.6981,72.0328],[97.768,71.9006],[97.8475,71.774],[97.9363,71.6536],[98.0339,71.5403],[98.1397,71.4345],[98.253,71.3369],[98.3734,71.2481],[98.5,71.1686],[98.6322,71.0987],[98.7693,71.0389],[98.9105,70.9895],[99.055,70.9508],[99.2019,70.9229],[99.3505,70.9062],[99.5,70.9006],[110.441,70.9006],[110.595,70.9065],[110.748,70.9243],[110.899,70.9538],[111.048,70.9948],[111.193,71.0471],[111.333,71.1104],[111.468,71.1843],[111.597,71.2683],[111.719,71.3621],[111.834,71.465],[111.94,71.5764],[112.038,71.6956],[112.126,71.822],[112.204,71.9548],[112.271,72.0932],[112.328,72.2363],[112.373,72.3834],[112.407,72.5336],[119.919,112.771],[122.5,126.601],[122.5,149.099],[97.5,149.099],[97.5,72.9006]]
M73 P0 R40
M106 S0
M106 P2 S0
;TYPE:Custom
M140 S0
M104 S0 
START_PRINT EXTRUDER_TEMP=250 BED_TEMP=80
G90
G21
M83 ; use relative distances for extrusion
; filament start gcode
M106 S0
M106 P2 S0
;LAYER_CHANGE
;Z:0.2
;HEIGHT:0.2
;BEFORE_LAYER_CHANGE
;0.2
G92 E0

G1 E-.6 F2400
;_SET_FAN_SPEED_CHANGING_LAYER
SET_VELOCITY_LIMIT ACCEL=500 ACCEL_TO_DECEL=250
SET_VELOCITY_LIMIT SQUARE_CORNER_VELOCITY=9
EXCLUDE_OBJECT_START NAME=крюк.stp_id_0_copy_0
G1 Z.2 F42000
G1 X97.145 Y130.454
G1 Z.2
G1 E.6 F2400
;TYPE:Support interface
;WIDTH:0.5
G1 F3600
G1 X97.339 Y130.647 E.00999
G1 X97.721 Y130.647 E.01393
G1 X97.721 Y131.394 E.02723
G1 X98.598 Y131.394 E.032
G1 X98.598 Y130.647 E.02723
G1 X99.475 Y130.647 E.032
G1 X99.475 Y131.394 E.02723
G1 X100.352 Y131.394 E.032
G1 X100.352 Y130.647 E.02723
G1 X101.229 Y130.647 E.032
G1 X101.229 Y131.394 E.02723
G1 X102.106 Y131.394 E.032
G1 X102.106 Y130.647 E.02723
G1 X102.983 Y130.647 E.032
G1 X102.983 Y131.394 E.02723
G1 X103.86 Y131.394 E.032
G1 X103.86 Y130.647 E.02723
G1 X104.738 Y130.647 E.032
G1 X104.738 Y131.394 E.02723
G1 X105.615 Y131.394 E.032
G1 X105.615 Y130.647 E.02723
G1 X106.492 Y130.647 E.032
G1 X106.492 Y131.394 E.02723
G1 X107.369 Y131.394 E.032
G1 X107.369 Y130.647 E.02723
G1 X108.246 Y130.647 E.032
G1 X108.246 Y131.394 E.02723
G1 X109.123 Y131.394 E.032
G1 X109.123 Y130.647 E.02723
G1 X110 Y130.647 E.032
G1 X110 Y131.394 E.02723
G1 X110.877 Y131.394 E.032
G1 X110.877 Y130.647 E.02723
G1 X111.754 Y130.647 E.032
G1 X111.754 Y131.394 E.02723
G1 X112.631 Y131.394 E.032
G1 X112.631 Y130.647 E.02723
G1 X113.508 Y130.647 E.032
G1 X113.508 Y131.394 E.02723
G1 X114.385 Y131.394 E.032
G1 X114.385 Y130.647 E.02723
G1 X115.262 Y130.647 E.032
G1 X115.262 Y131.394 E.02723
G1 X116.14 Y131.394 E.032
G1 X116.14 Y130.647 E.02723
G1 X117.017 Y130.647 E.032
G1 X117.017 Y131.394 E.02723
G1 X117.894 Y131.394 E.032
G1 X117.894 Y130.647 E.02723
G1 X118.771 Y130.647 E.032
G1 X118.771 Y131.394 E.02723
G1 X119.648 Y131.394 E.032
G1 X119.648 Y130.647 E.02723
G1 X120.525 Y130.647 E.032
G1 X120.525 Y131.394 E.02723
G1 X121.402 Y131.394 E.032
G1 X121.402 Y130.647 E.02723
G1 X122.279 Y130.647 E.032
G1 X122.279 Y131.394 E.02723
G1 X123.156 Y131.394 E.032
G1 X123.156 Y129.017 E.08673
G1 X124.033 Y129.017 E.032
G1 X124.033 Y133.771 E.17346
G1 X123.156 Y133.771 E.032
G1 X123.156 Y131.419 E.08583
G1 X122.723 Y131.852 E.02235
G1 X122.279 Y131.852 E.0162
G1 X122.279 Y133.771 E.07002
G1 X121.402 Y133.771 E.032
G1 X121.402 Y131.852 E.07002
G1 X120.525 Y131.852 E.032
G1 X120.525 Y133.771 E.07002
G1 X119.648 Y133.771 E.032
G1 X119.648 Y131.852 E.07002
G1 X118.771 Y131.852 E.032
G1 X118.771 Y133.771 E.07002
G1 X117.894 Y133.771 E.032
G1 X117.894 Y131.852 E.07002
G1 X117.017 Y131.852 E.032
G1 X117.017 Y133.771 E.07002
G1 X116.14 Y133.771 E.032
G1 X116.14 Y131.852 E.07002
G1 X115.262 Y131.852 E.032
G1 X115.262 Y133.771 E.07002
G1 X114.385 Y133.771 E.032
G1 X114.385 Y131.852 E.07002
G1 X113.508 Y131.852 E.032
G1 X113.508 Y133.771 E.07002
G1 X112.631 Y133.771 E.032
G1 X112.631 Y131.852 E.07002
G1 X111.754 Y131.852 E.032
G1 X111.754 Y133.771 E.07002
G1 X110.877 Y133.771 E.032
M73 P0 R39
G1 X110.877 Y131.852 E.07002
G1 X110 Y131.852 E.032
G1 X110 Y133.771 E.07002
G1 X109.123 Y133.771 E.032
G1 X109.123 Y131.852 E.07002
G1 X108.246 Y131.852 E.032
G1 X108.246 Y133.771 E.07002
G1 X107.369 Y133.771 E.032
G1 X107.369 Y131.852 E.07002
G1 X106.492 Y131.852 E.032
G1 X106.492 Y133.771 E.07002
G1 X105.615 Y133.771 E.032
G1 X105.615 Y131.852 E.07002
G1 X104.738 Y131.852 E.032
G1 X104.738 Y133.771 E.07002
G1 X103.86 Y133.771 E.032
G1 X103.86 Y131.852 E.07002
G1 X102.983 Y131.852 E.032
G1 X102.983 Y133.771 E.07002
G1 X102.106 Y133.771 E.032
G1 X102.106 Y131.852 E.07002
G1 X101.229 Y131.852 E.032
G1 X101.229 Y133.771 E.07002
G1 X100.352 Y133.771 E.032
G1 X100.352 Y131.852 E.07002
G1 X99.475 Y131.852 E.032
G1 X99.475 Y133.771 E.07002
G1 X98.598 Y133.771 E.032
G1 X98.598 Y131.852 E.07002
G1 X97.721 Y131.852 E.032
G1 X97.721 Y133.771 E.07002
G1 X96.844 Y133.771 E.032
G1 X96.844 Y131.419 E.08583
G1 X97.532 Y131.394 F42000
G1 F3600
G1 X96.844 Y131.394 E.02512
G1 X96.844 Y129.017 E.08673
G1 X95.967 Y129.017 E.032
G1 X95.967 Y133.771 E.17346
G1 X95.738 Y133.771 E.00836
G1 X95.738 Y133.326 E.01623
G1 X95.299 Y132.082 F42000
;TYPE:Support
G1 F3600
G1 X93.05 Y129.832 E.11606
G1 X95.299 Y129.832 E.08207
G1 X95.299 Y132.013 E.07957
G1 X94.888 Y130.244 F42000
G1 F3600
G1 X94.888 Y131.089 E.03083
G1 X94.043 Y130.244 E.04359
G1 X94.888 Y130.244 E.03083
;WIPE_START
G1 X94.043 Y130.244 E-.25345
G1 X94.859 Y131.061 E-.34655
;WIPE_END
G1 Z.4 F42000
G1 X122.45 Y130.209 Z.4
G1 Z.2
G1 E.6 F2400
G1 F3600
G1 X97.55 Y130.209 E.9085
G1 X97.55 Y129.832 E.01373
G1 X122.45 Y129.832 E.9085
G1 X122.45 Y130.14 E.01123
;WIPE_START
G1 X122.45 Y129.832 E-.09233
G1 X120.758 Y129.832 E-.50767
;WIPE_END
G1 Z.4 F42000
G1 X124.701 Y132.082 Z.4
G1 Z.2
G1 E.6 F2400
G1 F3600
G1 X124.701 Y129.832 E.08207
G1 X126.95 Y129.832 E.08207
G1 X124.75 Y132.033 E.11356
G1 X125.112 Y130.244 F42000
G1 F3600
G1 X125.957 Y130.244 E.03083
G1 X125.112 Y131.089 E.04359
G1 X125.112 Y130.244 E.03083
G1 X125.112 Y129.375 F42000
;TYPE:Brim
G1 F3600
G1 X124.606 Y129.375 E.01846
G1 X124.49 Y129.423 E.00459
G1 X124.49 Y128.922 E.0183
G1 X124.423 Y128.76 E.00638
G1 X124.29 Y128.626 E.00691
G1 X124.128 Y128.56 E.00638
G1 X123.062 Y128.56 E.03891
G1 X122.9 Y128.626 E.00638
G1 X122.829 Y128.698 E.00368
G1 X122.823 Y126.54 E.07872
G1 X112.73 Y72.473 E2.00677
G1 X112.57 Y71.956 E.01976
G1 X112.482 Y71.781 E.00716
G1 X112.286 Y71.481 E.01307
G1 X112.047 Y71.215 E.01305
G1 X111.783 Y70.998 E.01247
G1 X111.618 Y70.892 E.00716
G1 X111.296 Y70.735 E.01307
G1 X110.987 Y70.638 E.01179
G1 X110.64 Y70.581 E.01283
G1 X99.5 Y70.572 E.40646
G1 X99.011 Y70.625 E.01795
G1 X98.662 Y70.729 E.01328
G1 X98.213 Y70.961 E.01844
G1 X97.896 Y71.215 E.01482
G1 X97.565 Y71.607 E.01873
G1 X97.345 Y72.023 E.01716
G1 X97.225 Y72.411 E.01484
G1 X97.172 Y72.897 E.01782
G1 X97.171 Y128.698 E2.03596
G1 X97.1 Y128.626 E.00368
G1 X96.938 Y128.56 E.00638
G1 X95.872 Y128.56 E.03891
G1 X95.71 Y128.626 E.00638
G1 X95.577 Y128.76 E.00691
G1 X95.51 Y128.922 E.00638
G1 X95.51 Y129.423 E.0183
G1 X95.394 Y129.375 E.00459
G1 X93.115 Y129.375 E.08314
G1 X93.058 Y128.706 E.02449
G1 X93.058 Y72.906 E2.03592
G1 X93.09 Y72.266 E.02338
G1 X93.184 Y71.639 E.02315
G1 X93.295 Y71.171 E.01753
G1 X93.561 Y70.406 E.02956
G1 X93.765 Y69.968 E.01762
G1 X94 Y69.548 E.01758
G1 X94.265 Y69.148 E.01752
G1 X94.661 Y68.65 E.0232
G1 X94.991 Y68.301 E.01752
G1 X95.348 Y67.977 E.01758
G1 X95.727 Y67.68 E.01757
G1 X96.128 Y67.413 E.01757
G1 X96.547 Y67.176 E.01758
G1 X96.985 Y66.971 E.01762
G1 X97.749 Y66.702 E.02956
G1 X98.217 Y66.589 E.01758
G1 X98.691 Y66.511 E.01752
G1 X99.326 Y66.462 E.02325
G1 X110.439 Y66.458 E.40548
G1 X111.091 Y66.493 E.02383
G1 X111.586 Y66.562 E.01821
G1 X112.07 Y66.669 E.0181
G1 X112.544 Y66.813 E.01809
G1 X113.005 Y66.992 E.01805
G1 X113.592 Y67.283 E.02388
G1 X114.014 Y67.541 E.01805
G1 X114.415 Y67.832 E.01809
G1 X114.795 Y68.153 E.01814
G1 X115.037 Y68.388 E.0123
G1 X115.371 Y68.756 E.01814
G1 X115.676 Y69.147 E.0181
G1 X115.949 Y69.561 E.01809
G1 X116.19 Y69.995 E.0181
G1 X116.396 Y70.446 E.01809
G1 X116.567 Y70.911 E.01809
G1 X116.702 Y71.387 E.01804
G1 X126.865 Y125.775 E2.01876
G1 X126.941 Y126.589 E.02983
G1 X126.942 Y128.702 E.07708
G1 X126.889 Y129.375 E.02464
G1 X125.152 Y129.375 E.06336
G1 X125.152 Y128.918 F42000
G1 F3600
G1 X125.057 Y128.918 E.0035
G1 X124.927 Y128.825 E.00583
G1 X124.848 Y128.594 E.0089
G1 X124.737 Y128.428 E.00731
G1 X124.622 Y128.313 E.00592
G1 X124.452 Y128.199 E.00747
G1 X124.315 Y128.142 E.0054
G1 X124.114 Y128.102 E.00747
G1 X123.421 Y128.102 E.02531
G1 X123.317 Y128.055 E.00417
G1 X123.284 Y127.967 E.00344
G1 X123.27 Y126.445 E.05553
G1 X113.181 Y72.398 E2.00602
G1 X112.974 Y71.744 E.02503
G1 X112.861 Y71.526 E.00897
G1 X112.62 Y71.169 E.01572
G1 X112.331 Y70.857 E.01553
G1 X112.024 Y70.609 E.01437
G1 X111.812 Y70.478 E.00909
G1 X111.426 Y70.297 E.01558
G1 X111.052 Y70.185 E.01423
G1 X110.724 Y70.132 E.0121
G1 X99.508 Y70.115 E.40926
G1 X98.973 Y70.17 E.01959
G1 X98.441 Y70.329 E.02026
G1 X97.92 Y70.611 E.02162
G1 X97.538 Y70.93 E.01815
G1 X97.224 Y71.303 E.01781
G1 X96.946 Y71.8 E.02076
G1 X96.792 Y72.266 E.01793
G1 X96.714 Y72.905 E.02348
G1 X96.714 Y127.965 E2.00893
G1 X96.667 Y128.069 E.00417
G1 X96.577 Y128.102 E.00348
G1 X95.886 Y128.102 E.02524
G1 X95.685 Y128.142 E.00747
G1 X95.548 Y128.199 E.0054
G1 X95.378 Y128.313 E.00747
G1 X95.263 Y128.428 E.00592
G1 X95.152 Y128.594 E.00731
G1 X95.073 Y128.825 E.0089
G1 X94.943 Y128.918 E.00583
G1 X93.661 Y128.918 E.04681
G1 X93.557 Y128.87 E.00417
G1 X93.523 Y128.781 E.00348
G1 X93.515 Y72.922 E2.0381
G1 X93.547 Y72.305 E.02252
G1 X93.632 Y71.731 E.02116
G1 X93.733 Y71.307 E.01593
G1 X93.989 Y70.572 E.02838
G1 X94.175 Y70.172 E.01609
G1 X94.388 Y69.791 E.01595
G1 X94.639 Y69.412 E.01658
G1 X95.003 Y68.954 E.02133
G1 X95.308 Y68.631 E.01621
G1 X95.647 Y68.323 E.0167
G1 X95.999 Y68.048 E.01633
G1 X96.372 Y67.8 E.01632
G1 X96.753 Y67.585 E.01596
G1 X97.152 Y67.398 E.01609
G1 X97.885 Y67.139 E.02838
G1 X98.313 Y67.036 E.01605
G1 X98.74 Y66.966 E.01577
G1 X99.349 Y66.919 E.0223
G1 X110.431 Y66.916 E.40435
G1 X111.042 Y66.948 E.02231
G1 X111.499 Y67.012 E.01686
G1 X111.949 Y67.11 E.01681
G1 X112.39 Y67.243 E.01681
G1 X112.826 Y67.413 E.01707
G1 X113.365 Y67.681 E.02195
G1 X113.756 Y67.919 E.01669
G1 X114.137 Y68.195 E.01719
G1 X114.495 Y68.499 E.01712
G1 X115.015 Y69.044 E.02748
G1 X115.301 Y69.41 E.01694
G1 X115.555 Y69.794 E.01681
G1 X115.779 Y70.197 E.01681
G1 X115.971 Y70.615 E.01681
G1 X116.131 Y71.047 E.01681
G1 X116.255 Y71.485 E.0166
G1 X126.411 Y125.832 E2.01723
G1 X126.484 Y126.618 E.02878
G1 X126.477 Y128.781 E.07896
G1 X126.429 Y128.885 E.00417
G1 X126.34 Y128.918 E.00347
G1 X125.192 Y128.918 E.04187
G1 X125.372 Y128.461 F42000
M73 P1 R39
G1 F3600
G1 X125.258 Y128.401 E.00469
G1 X125.053 Y128.098 E.01338
G1 X124.867 Y127.927 E.00919
G1 X124.717 Y127.826 E.00659
G1 X124.394 Y127.692 E.01278
G1 X124.103 Y127.645 E.01072
G1 X123.874 Y127.645 E.00838
G1 X123.77 Y127.598 E.00417
G1 X123.737 Y127.511 E.0034
G1 X123.717 Y126.349 E.04237
G1 X113.632 Y72.322 E2.00528
G1 X113.375 Y71.524 E.03059
G1 X113.236 Y71.264 E.01076
G1 X112.949 Y70.851 E.01838
G1 X112.672 Y70.552 E.01485
G1 X112.317 Y70.258 E.01683
G1 X112 Y70.061 E.01361
G1 X111.548 Y69.856 E.0181
G1 X111.191 Y69.75 E.0136
G1 X110.808 Y69.682 E.01419
G1 X99.515 Y69.658 E.41203
G1 X98.938 Y69.714 E.02114
G1 X98.322 Y69.887 E.02336
G1 X97.712 Y70.204 E.02506
G1 X97.254 Y70.572 E.02145
G1 X96.819 Y71.09 E.02468
G1 X96.509 Y71.666 E.02388
G1 X96.336 Y72.224 E.02129
G1 X96.262 Y72.842 E.02273
G1 X96.257 Y127.508 E1.99455
G1 X96.21 Y127.612 E.00417
G1 X96.12 Y127.645 E.00348
G1 X95.897 Y127.645 E.00816
G1 X95.606 Y127.692 E.01072
G1 X95.283 Y127.826 E.01278
G1 X95.133 Y127.927 E.00659
G1 X94.947 Y128.098 E.00919
G1 X94.742 Y128.401 E.01338
G1 X94.628 Y128.461 E.00469
G1 X94.118 Y128.461 E.01863
G1 X94.014 Y128.413 E.00417
G1 X93.98 Y128.324 E.00348
G1 X93.972 Y72.937 E2.02086
G1 X94.003 Y72.344 E.02165
G1 X94.081 Y71.824 E.0192
G1 X94.171 Y71.442 E.01433
G1 X94.416 Y70.738 E.02719
G1 X94.585 Y70.376 E.01456
G1 X94.776 Y70.033 E.01434
G1 X95.013 Y69.676 E.01563
G1 X95.345 Y69.258 E.01946
G1 X95.625 Y68.961 E.01488
G1 X95.945 Y68.67 E.01581
G1 X96.271 Y68.416 E.01507
G1 X96.615 Y68.187 E.01508
G1 X96.958 Y67.994 E.01435
G1 X97.319 Y67.824 E.01456
G1 X98.022 Y67.577 E.0272
G1 X98.399 Y67.486 E.01415
G1 X98.788 Y67.421 E.0144
G1 X99.372 Y67.376 E.02134
G1 X110.423 Y67.373 E.40321
G1 X110.992 Y67.403 E.0208
G1 X111.413 Y67.461 E.01551
G1 X111.829 Y67.552 E.01552
G1 X112.236 Y67.674 E.01551
G1 X112.647 Y67.835 E.0161
G1 X113.139 Y68.078 E.02003
G1 X113.497 Y68.297 E.01533
G1 X113.85 Y68.552 E.01588
G1 X114.185 Y68.837 E.01606
G1 X114.664 Y69.338 E.02527
G1 X114.926 Y69.673 E.01551
G1 X115.161 Y70.027 E.01552
G1 X115.368 Y70.399 E.01553
G1 X115.546 Y70.785 E.01552
G1 X115.694 Y71.184 E.01552
G1 X115.808 Y71.584 E.01516
G1 X125.956 Y125.889 E2.0157
G1 X126.026 Y126.645 E.02768
G1 X126.021 Y128.324 E.06129
G1 X125.973 Y128.428 E.00417
G1 X125.884 Y128.461 E.00347
G1 X125.412 Y128.461 E.01723
G1 X125.408 Y127.772 F42000
G1 F3600
G1 X125.339 Y127.739 E.0028
G1 X125.116 Y127.544 E.01083
G1 X124.882 Y127.4 E.01001
G1 X124.58 Y127.275 E.01193
G1 X124.295 Y127.213 E.01064
G1 X124.203 Y127.145 E.00417
G1 X124.187 Y127.083 E.00233
G1 X124.165 Y126.255 E.03022
G1 X114.083 Y72.247 E2.00456
G1 X113.773 Y71.299 E.03639
G1 X113.608 Y70.998 E.01255
G1 X113.278 Y70.534 E.02076
G1 X112.957 Y70.195 E.01702
G1 X112.551 Y69.866 E.01909
G1 X112.181 Y69.642 E.01578
G1 X111.744 Y69.444 E.01749
G1 X111.328 Y69.314 E.01591
G1 X110.897 Y69.234 E.01598
G1 X99.523 Y69.201 E.415
G1 X98.804 Y69.277 E.02638
G1 X98.1 Y69.488 E.02683
G1 X97.513 Y69.792 E.02413
G1 X96.977 Y70.208 E.02476
G1 X96.477 Y70.788 E.02792
G1 X96.112 Y71.44 E.02726
G1 X95.903 Y72.079 E.02453
G1 X95.809 Y72.78 E.02582
G1 X95.8 Y127.081 E1.98123
G1 X95.753 Y127.185 E.00417
G1 X95.692 Y127.215 E.00245
G1 X95.42 Y127.275 E.01017
G1 X95.118 Y127.4 E.01194
G1 X94.884 Y127.544 E.01001
G1 X94.665 Y127.736 E.01065
G1 X94.555 Y127.769 E.00417
G1 X94.459 Y127.707 E.00417
G1 X94.437 Y127.633 E.00281
G1 X94.429 Y72.952 E1.99508
G1 X94.459 Y72.384 E.02079
G1 X94.529 Y71.916 E.01725
G1 X94.609 Y71.576 E.01273
G1 X94.843 Y70.904 E.02599
G1 X94.994 Y70.58 E.01302
G1 X95.164 Y70.276 E.01273
G1 X95.387 Y69.94 E.01469
G1 X95.687 Y69.562 E.01762
G1 X95.949 Y69.284 E.01394
G1 X96.236 Y69.023 E.01415
G1 X96.534 Y68.791 E.01381
G1 X96.85 Y68.58 E.01385
G1 X97.164 Y68.403 E.01313
G1 X97.499 Y68.245 E.01353
G1 X98.145 Y68.018 E.02499
G1 X98.485 Y67.935 E.01277
G1 X98.849 Y67.875 E.01346
G1 X99.395 Y67.833 E.01995
G1 X110.414 Y67.83 E.40207
G1 X110.943 Y67.858 E.01931
G1 X111.328 Y67.911 E.01417
G1 X111.709 Y67.994 E.01423
G1 X112.081 Y68.105 E.0142
G1 X112.467 Y68.256 E.01511
G1 X112.913 Y68.477 E.01813
G1 X113.24 Y68.675 E.01397
G1 X113.563 Y68.908 E.01455
G1 X113.876 Y69.175 E.015
G1 X114.314 Y69.632 E.02309
G1 X114.552 Y69.936 E.01407
G1 X114.768 Y70.26 E.01422
G1 X114.958 Y70.601 E.01424
G1 X115.121 Y70.955 E.01424
G1 X115.257 Y71.321 E.01424
G1 X115.36 Y71.682 E.0137
G1 X125.502 Y125.946 E2.01416
G1 X125.569 Y126.672 E.02658
G1 X125.566 Y127.637 E.03522
G1 X125.518 Y127.741 E.00417
G1 X125.447 Y127.761 E.00271
G1 X125.072 Y126.892 F42000
G1 F3600
G1 X124.924 Y126.923 E.00552
G1 X124.721 Y126.842 E.00798
