; HEADER_BLOCK_START
; generated by OrcaSlicer 2.1.0 on 2025-02-25 at 10:49:19
; total layer number: 16
; filament_density: 1.27
; filament_diameter: 1.75
; max_z_height: 3.20
; HEADER_BLOCK_END

; THUMBNAIL_BLOCK_START

;
; THUMBNAIL_BLOCK_END

; THUMBNAIL_BLOCK_START

;
; THUMBNAIL_BLOCK_END

; external perimeters extrusion width = 0.42mm
; perimeters extrusion width = 0.45mm
; infill extrusion width = 0.45mm
; solid infill extrusion width = 0.42mm
; top infill extrusion width = 0.42mm
; support material extrusion width = 0.42mm
; first layer extrusion width = 0.50mm

; EXECUTABLE_BLOCK_START
EXCLUDE_OBJECT_DEFINE NAME=крышка_захвата.stp_id_0_copy_0 CENTER=110,110 POLYGON=[[78.9815,91.925],[141.019,91.925],[141.019,128.075],[78.9815,128.075],[78.9815,91.925]]
M73 P0 R8
M106 S0
M106 P2 S0
;TYPE:Custom
M140 S0
M104 S0 
START_PRINT EXTRUDER_TEMP=250 BED_TEMP=90
M106 P3 S153
G90
G21
M83 ; use relative distances for extrusion
; filament start gcode
M106 S0
M106 P2 S0
;LAYER_CHANGE
;Z:0.2
;HEIGHT:0.2
;BEFORE_LAYER_CHANGE
;0.2
G92 E0

G1 E-.6 F2400
;_SET_FAN_SPEED_CHANGING_LAYER
SET_VELOCITY_LIMIT ACCEL=500 ACCEL_TO_DECEL=250
SET_VELOCITY_LIMIT SQUARE_CORNER_VELOCITY=9
EXCLUDE_OBJECT_START NAME=крышка_захвата.stp_id_0_copy_0
G1 Z.2 F42000
G1 X113.875 Y125.827
G1 Z.2
G1 E.6 F2400
;TYPE:Inner wall
;WIDTH:0.499999
G1 F3600
G1 X114.041 Y125.554 E.01153
G1 X114.308 Y124.801 E.02884
G1 X114.382 Y124.158 E.02336
G1 X114.311 Y123.363 E.02883
G1 X114.14 Y122.81 E.02089
G1 X113.877 Y122.294 E.02092
G1 X113.53 Y121.83 E.02091
G1 X113.111 Y121.436 E.02077
G1 X112.669 Y121.144 E.01913
G1 X112.364 Y120.987 E.01239
G1 X111.816 Y120.802 E.02089
G1 X111.243 Y120.714 E.02092
G1 X110.664 Y120.725 E.0209
G1 X110.096 Y120.836 E.02091
G1 X109.605 Y121.022 E.01896
G1 X109.279 Y121.192 E.01324
G1 X108.872 Y121.484 E.01809
G1 X108.617 Y121.714 E.01242
G1 X108.212 Y122.22 E.02339
G1 X107.85 Y122.931 E.02883
G1 X107.701 Y123.491 E.02089
G1 X107.65 Y124.068 E.02092
G1 X107.699 Y124.645 E.02091
G1 X107.873 Y125.268 E.02338
G1 X108.239 Y125.978 E.02884
G1 X108.497 Y126.304 E.01498
G1 X80.753 Y126.304 E1.00172
G1 X80.753 Y93.696 E1.17733
G1 X107.649 Y93.696 E.9711
G1 X107.651 Y94.015 E.01152
G1 X107.699 Y94.594 E.02097
G1 X107.873 Y95.218 E.02341
G1 X108.24 Y95.928 E.02885
G1 X108.586 Y96.357 E.0199
G1 X109.004 Y96.72 E.01997
G1 X109.287 Y96.914 E.01239
G1 X109.807 Y97.168 E.02089
G1 X110.363 Y97.329 E.02092
G1 X110.927 Y97.393 E.02048
G1 X111.463 Y97.36 E.01942
G1 X111.801 Y97.301 E.01239
G1 X112.351 Y97.119 E.02089
G1 X112.861 Y96.845 E.02092
G1 X113.317 Y96.487 E.02091
G1 X113.705 Y96.057 E.02091
G1 X114.041 Y95.504 E.02338
G1 X114.308 Y94.75 E.02889
G1 X114.383 Y94.169 E.02113
G1 X114.363 Y93.696 E.01711
G1 X139.247 Y93.696 E.89846
G1 X139.247 Y126.304 E1.17733
G1 X113.543 Y126.304 E.92808
M73 P1 R8
G1 X113.705 Y126.107 E.00918
G1 X113.854 Y125.861 E.0104
G1 X113.482 Y125.6 F42000
G1 F3600
G1 X113.617 Y125.381 E.00927
G1 X113.857 Y124.723 E.02531
G1 X113.925 Y124.178 E.01982
G1 X113.869 Y123.479 E.0253
G1 X113.725 Y123 E.01805
G1 X113.501 Y122.553 E.01808
G1 X113.203 Y122.15 E.01808
G1 X112.8 Y121.776 E.01984
G1 X112.2 Y121.414 E.02531
G1 X111.728 Y121.251 E.01806
G1 X111.233 Y121.171 E.01809
G1 X110.733 Y121.177 E.01806
G1 X110.241 Y121.269 E.01808
G1 X109.768 Y121.449 E.01825
G1 X109.51 Y121.588 E.01061
G1 X109.007 Y121.966 E.02271
G1 X108.659 Y122.365 E.0191
G1 X108.384 Y122.842 E.01988
G1 X108.197 Y123.357 E.01979
G1 X108.115 Y123.852 E.01808
G1 X108.12 Y124.352 E.01808
G1 X108.21 Y124.845 E.01808
G1 X108.479 Y125.493 E.02532
G1 X108.787 Y125.946 E.0198
G1 X109.141 Y126.301 E.01808
G1 X109.55 Y126.589 E.01807
G1 X109.903 Y126.761 E.01419
G1 X80.296 Y126.761 E1.06901
G1 X80.296 Y93.239 E1.21033
G1 X108.203 Y93.23 E1.00762
G1 X108.107 Y93.996 E.02787
G1 X108.145 Y94.496 E.01812
G1 X108.288 Y95.028 E.01986
G1 X108.605 Y95.653 E.02532
G1 X108.955 Y96.075 E.01981
G1 X109.443 Y96.476 E.02278
G1 X109.894 Y96.713 E.01842
G1 X110.382 Y96.868 E.01847
G1 X110.92 Y96.936 E.0196
G1 X111.477 Y96.9 E.02014
G1 X111.967 Y96.778 E.01825
G1 X112.425 Y96.574 E.01809
G1 X112.841 Y96.296 E.01808
G1 X113.203 Y95.95 E.01808
G1 X113.501 Y95.547 E.01808
G1 X113.79 Y94.908 E.02532
G1 X113.909 Y94.372 E.01984
G1 X113.925 Y93.867 E.01825
G1 X113.799 Y93.229 E.02348
G1 X139.704 Y93.239 E.93533
G1 X139.704 Y126.761 E1.21033
G1 X112.152 Y126.759 E.99481
G1 X112.594 Y126.524 E.01808
G1 X112.99 Y126.218 E.01807
G1 X113.328 Y125.848 E.01808
G1 X113.461 Y125.634 E.00912
G1 X112.591 Y127.218 F42000
G1 F3600
G1 X111.911 Y127.218 E.02456
;WIDTH:0.542418
G1 X111.737 Y127.197 E.00691
;WIDTH:0.584836
G1 X111.563 Y127.176 E.0075
;WIDTH:0.627254
G1 X111.389 Y127.154 E.00809
G1 X110.73 Y127.156 E.03038
;WIDTH:0.624421
G1 X110.491 Y127.176 E.01105
;WIDTH:0.582947
G1 X110.251 Y127.197 E.01027
;WIDTH:0.541473
G1 X110.011 Y127.218 E.00948
;WIDTH:0.499999
G1 X79.839 Y127.218 E1.08941
M73 P2 R8
G1 X79.839 Y92.782 E1.24334
G1 X107.781 Y92.782 E1.0089
G1 X109.005 Y92.74 E.04421
G1 X108.863 Y92.931 E.00861
G1 X108.649 Y93.411 E.01897
G1 X108.588 Y93.732 E.0118
G1 X108.577 Y94.282 E.01984
G1 X108.657 Y94.697 E.01527
G1 X108.894 Y95.252 E.02181
G1 X109.189 Y95.666 E.01834
G1 X109.6 Y96.026 E.01973
G1 X109.988 Y96.254 E.01626
G1 X110.386 Y96.397 E.01525
G1 X110.882 Y96.478 E.01816
G1 X111.404 Y96.448 E.01889
G1 X111.788 Y96.354 E.01427
G1 X112.226 Y96.163 E.01723
G1 X112.574 Y95.925 E.01524
G1 X112.877 Y95.63 E.01524
G1 X113.124 Y95.288 E.01524
G1 X113.366 Y94.736 E.02179
G1 X113.459 Y94.294 E.01629
G1 X113.447 Y93.707 E.0212
G1 X113.263 Y93.083 E.02349
G1 X113.051 Y92.742 E.01449
G1 X114.218 Y92.782 E.04217
G1 X140.161 Y92.782 E.9367
G1 X140.161 Y127.218 E1.24334
G1 X112.631 Y127.218 E.99402
;WIPE_START
G1 X111.911 Y127.218 E-.21608
G1 X111.737 Y127.197 E-.05258
G1 X111.563 Y127.176 E-.05258
G1 X111.389 Y127.154 E-.05258
G1 X110.73 Y127.156 E-.19748
G1 X110.635 Y127.164 E-.02872
;WIPE_END
G1 Z.4 F42000
G1 X112.777 Y94.959 Z.4
G1 Z.2
G1 E.6 F2400
;TYPE:Outer wall
G1 F3600
G1 X112.943 Y94.563 E.01549
G1 X113.009 Y94.216 E.01275
G1 X113.01 Y93.871 E.01245
G1 X112.894 Y93.375 E.01842
G1 X112.745 Y93.104 E.01116
G1 X112.484 Y92.795 E.0146
G1 X112.094 Y92.523 E.01716
G1 X111.698 Y92.305 E.01634
;WIDTH:0.5159
G1 X111.249 Y92.183 E.0174
G1 X111.728 Y92.175 E.01791
;WIDTH:0.499999
G1 X112.229 Y92.177 E.0181
G1 X112.757 Y92.251 E.01925
G1 X113.463 Y92.306 E.02557
G1 X114.218 Y92.325 E.02728
G1 X140.619 Y92.325 E.95321
G1 X140.619 Y127.675 E1.27635
M73 P3 R8
G1 X79.381 Y127.675 E2.21102
G1 X79.381 Y92.325 E1.27635
G1 X107.649 Y92.325 E1.02061
G1 X108.784 Y92.303 E.041
G1 X109.282 Y92.252 E.01806
G1 X109.788 Y92.175 E.01848
;WIDTH:0.542926
G1 X110.545 Y92.196 E.02992
G1 X110.167 Y92.384 E.01668
;WIDTH:0.499999
G1 X109.481 Y92.864 E.03021
G1 X109.183 Y93.284 E.01858
G1 X109.045 Y93.767 E.01817
G1 X109.033 Y94.263 E.01789
G1 X109.103 Y94.599 E.01242
G1 X109.31 Y95.061 E.01826
G1 X109.518 Y95.346 E.01274
G1 X109.898 Y95.68 E.01825
G1 X110.205 Y95.852 E.01274
G1 X110.531 Y95.964 E.01242
G1 X110.87 Y96.019 E.01241
G1 X111.375 Y95.991 E.01825
G1 X111.662 Y95.914 E.01074
G1 X112.026 Y95.752 E.01439
G1 X112.307 Y95.554 E.01241
G1 X112.55 Y95.311 E.01241
G1 X112.747 Y95.029 E.01241
G1 X112.762 Y94.996 E.00132
;WIPE_START
G1 X112.943 Y94.563 E-.14068
G1 X113.009 Y94.216 E-.10594
G1 X113.01 Y93.871 E-.10342
G1 X112.894 Y93.375 E-.15308
G1 X112.745 Y93.104 E-.0927
G1 X112.736 Y93.093 E-.00419
;WIPE_END
G1 Z.4 F42000
G1 X126.971 Y111.427 Z.4
G1 Z.2
G1 E.6 F2400
;TYPE:Inner wall
G1 F3600
G1 X126.675 Y111.633 E.01304
G1 X126.132 Y111.88 E.02153
G1 X125.517 Y112.027 E.02282
G1 X124.866 Y112.065 E.02355
G1 X124.288 Y111.988 E.02105
G1 X123.733 Y111.811 E.02102
G1 X123.421 Y111.658 E.01256
G1 X122.974 Y111.37 E.0192
G1 X122.549 Y110.979 E.02085
G1 X122.196 Y110.516 E.02102
G1 X122.028 Y110.211 E.01256
G1 X121.827 Y109.721 E.01913
G1 X121.697 Y109.118 E.02227
G1 X121.679 Y108.573 E.0197
G1 X121.756 Y107.995 E.02105
G1 X121.932 Y107.44 E.02102
G1 X122.086 Y107.128 E.01256
G1 X122.367 Y106.689 E.01884
G1 X122.765 Y106.256 E.02121
G1 X123.228 Y105.902 E.02104
G1 X123.745 Y105.634 E.02102
G1 X124.074 Y105.522 E.01256
G1 X124.59 Y105.409 E.01906
G1 X125.17 Y105.385 E.02096
G1 X125.516 Y105.423 E.01257
G1 X126.133 Y105.57 E.0229
G1 X126.699 Y105.831 E.0225
G1 X127.218 Y106.204 E.02308
G1 X127.581 Y106.572 E.01867
G1 X127.916 Y107.051 E.02109
G1 X128.174 Y107.611 E.02229
G1 X128.32 Y108.226 E.02282
G1 X128.358 Y108.877 E.02355
G1 X128.281 Y109.454 E.02102
G1 X128.184 Y109.788 E.01256
G1 X127.933 Y110.37 E.02287
G1 X127.581 Y110.878 E.02231
G1 X127.167 Y111.29 E.02108
G1 X127.004 Y111.404 E.00719
G1 X126.742 Y111.027 F42000
G1 F3600
G1 X126.547 Y111.174 E.0088
G1 X126.099 Y111.402 E.01815
G1 X125.418 Y111.581 E.02542
G1 X124.866 Y111.608 E.01996
G1 X124.368 Y111.537 E.01818
G1 X123.89 Y111.382 E.01815
G1 X123.282 Y111.027 E.02542
G1 X122.872 Y110.656 E.01996
G1 X122.57 Y110.254 E.01815
G1 X122.276 Y109.615 E.02542
G1 X122.138 Y108.941 E.02481
G1 X122.146 Y108.417 E.01894
G1 X122.248 Y107.909 E.01869
G1 X122.449 Y107.41 E.01944
G1 X122.742 Y106.95 E.01971
G1 X123.088 Y106.579 E.01829
G1 X123.49 Y106.276 E.01817
G1 X123.938 Y106.048 E.01815
G1 X124.619 Y105.869 E.02542
G1 X125.17 Y105.842 E.01993
G1 X125.863 Y105.968 E.02543
G1 X126.381 Y106.18 E.0202
G1 X126.91 Y106.542 E.02316
G1 X127.293 Y106.947 E.02011
G1 X127.567 Y107.369 E.01818
G1 X127.775 Y107.88 E.01991
G1 X127.884 Y108.375 E.01833
G1 X127.901 Y108.877 E.01813
G1 X127.831 Y109.375 E.01815
G1 X127.587 Y110.035 E.02542
G1 X127.293 Y110.503 E.01996
G1 X126.949 Y110.871 E.01817
G1 X126.774 Y111.003 E.00793
G1 X126.441 Y110.687 F42000
G1 F3600
G1 X126.181 Y110.859 E.01126
G1 X125.765 Y111.035 E.01633
G1 X125.246 Y111.147 E.01917
G1 X124.747 Y111.14 E.018
G1 X124.332 Y111.056 E.0153
G1 X123.912 Y110.887 E.01633
G1 X123.485 Y110.612 E.01833
M73 P4 R8
G1 X123.131 Y110.258 E.01809
G1 X122.873 Y109.861 E.0171
G1 X122.677 Y109.382 E.0187
G1 X122.593 Y108.877 E.01847
G1 X122.603 Y108.454 E.0153
G1 X122.706 Y107.986 E.01728
G1 X122.857 Y107.619 E.01434
G1 X123.134 Y107.188 E.01852
G1 X123.491 Y106.834 E.01813
G1 X123.855 Y106.591 E.01582
G1 X124.272 Y106.415 E.01634
G1 X124.791 Y106.303 E.01917
G1 X125.318 Y106.316 E.01903
G1 X125.837 Y106.435 E.01923
G1 X126.289 Y106.653 E.01812
G1 X126.626 Y106.902 E.01512
G1 X126.918 Y107.209 E.0153
G1 X127.153 Y107.562 E.01531
G1 X127.329 Y107.979 E.01633
G1 X127.44 Y108.498 E.01917
G1 X127.434 Y108.996 E.018
G1 X127.339 Y109.439 E.01634
G1 X127.132 Y109.929 E.01922
G1 X126.841 Y110.333 E.01795
G1 X126.535 Y110.625 E.0153
G1 X126.475 Y110.664 E.0026
G1 X126.191 Y110.306 F42000
;TYPE:Outer wall
G1 F3600
G1 X125.988 Y110.445 E.00887
G1 X125.666 Y110.589 E.01275
G1 X125.171 Y110.694 E.01827
G1 X124.827 Y110.69 E.01243
G1 X124.488 Y110.627 E.01243
G1 X124.158 Y110.501 E.01275
G1 X123.734 Y110.225 E.01827
G1 X123.493 Y109.979 E.01243
G1 X123.295 Y109.686 E.01276
G1 X123.111 Y109.239 E.01746
G1 X123.05 Y108.877 E.01324
G1 X123.053 Y108.533 E.01243
G1 X123.136 Y108.143 E.01441
G1 X123.243 Y107.865 E.01076
G1 X123.519 Y107.441 E.01827
G1 X123.765 Y107.2 E.01243
G1 X124.049 Y107.005 E.01243
G1 X124.371 Y106.861 E.01276
G1 X124.866 Y106.756 E.01827
G1 X125.219 Y106.762 E.01276
G1 X125.713 Y106.877 E.01829
G1 X126.027 Y107.028 E.01258
G1 X126.303 Y107.225 E.01226
G1 X126.544 Y107.471 E.01243
G1 X126.738 Y107.755 E.01243
G1 X126.883 Y108.078 E.01275
G1 X126.987 Y108.573 E.01827
G1 X126.984 Y108.917 E.01243
G1 X126.917 Y109.264 E.01276
G1 X126.718 Y109.729 E.01827
G1 X126.518 Y110.009 E.01243
G1 X126.272 Y110.25 E.01243
G1 X126.224 Y110.283 E.00212
;WIPE_START
G1 X125.988 Y110.445 E-.08572
G1 X125.666 Y110.589 E-.10597
G1 X125.171 Y110.694 E-.1518
G1 X124.827 Y110.69 E-.10325
G1 X124.488 Y110.627 E-.10331
G1 X124.332 Y110.568 E-.04995
;WIPE_END
G1 Z.4 F42000
G1 X113.079 Y125.401 Z.4
G1 Z.2
G1 E.6 F2400
;TYPE:Inner wall
G1 F3600
G1 X112.876 Y125.68 E.01246
G1 X112.574 Y125.975 E.01525
G1 X112.226 Y126.213 E.01523
;WIDTH:0.535412
G1 X111.944 Y126.327 E.0118
;WIDTH:0.570824
G1 X111.663 Y126.441 E.01265
;WIDTH:0.606236
G1 X111.382 Y126.555 E.0135
;WIDTH:0.619541
G1 X111.193 Y126.582 E.0087
;WIDTH:0.638983
G1 X110.576 Y126.561 E.02908
G1 X110.352 Y126.462 E.01152
;WIDTH:0.592655
G1 X110.128 Y126.362 E.01063
;WIDTH:0.546327
G1 X109.904 Y126.263 E.00973
;WIDTH:0.499999
G1 X109.454 Y125.967 E.01948
G1 X109.153 Y125.671 E.01524
G1 X108.894 Y125.302 E.01627
G1 X108.657 Y124.747 E.02179
G1 X108.577 Y124.333 E.01524
G1 X108.569 Y123.91 E.01524
G1 X108.633 Y123.493 E.01525
G1 X108.782 Y123.068 E.01626
G1 X109.037 Y122.623 E.01852
G1 X109.377 Y122.248 E.01827
G1 X109.792 Y121.948 E.0185
G1 X110.358 Y121.712 E.02212
G1 X110.887 Y121.622 E.01938
G1 X111.34 Y121.641 E.0164
G1 X111.753 Y121.732 E.01525
G1 X112.168 Y121.908 E.01627
G1 X112.601 Y122.195 E.01876
G1 X112.951 Y122.561 E.01829
G1 X113.182 Y122.914 E.01524
G1 X113.349 Y123.302 E.01525
G1 X113.449 Y123.741 E.01626
G1 X113.459 Y124.345 E.02179
G1 X113.366 Y124.786 E.01627
G1 X113.124 Y125.338 E.02179
G1 X113.102 Y125.368 E.00134
G1 X112.711 Y125.132 F42000
;TYPE:Outer wall
G1 F3600
G1 X112.55 Y125.361 E.0101
G1 X112.307 Y125.604 E.01242
G1 X112.026 Y125.802 E.0124
G1 X111.706 Y125.952 E.01276
G1 X111.209 Y126.065 E.01841
G1 X110.699 Y126.049 E.01841
G1 X110.366 Y125.965 E.01241
G1 X110.052 Y125.825 E.01241
G1 X109.766 Y125.634 E.01241
G1 X109.518 Y125.396 E.01241
G1 X109.31 Y125.111 E.01274
G1 X109.103 Y124.649 E.01825
G1 X109.033 Y124.313 E.01241
G1 X109.022 Y123.969 E.01241
G1 X109.069 Y123.629 E.01242
G1 X109.179 Y123.293 E.01273
G1 X109.433 Y122.856 E.01825
G1 X109.673 Y122.597 E.01277
G1 X110.082 Y122.308 E.01808
G1 X110.526 Y122.138 E.01715
G1 X110.909 Y122.079 E.014
G1 X111.253 Y122.089 E.01241
G1 X111.589 Y122.159 E.01242
G1 X111.917 Y122.29 E.01274
G1 X112.337 Y122.572 E.01825
G1 X112.575 Y122.82 E.01241
G1 X112.767 Y123.105 E.01241
G1 X112.907 Y123.419 E.01242
G1 X112.992 Y123.761 E.01274
G1 X113.009 Y124.266 E.01825
G1 X112.943 Y124.613 E.01274
G1 X112.747 Y125.079 E.01825
G1 X112.734 Y125.099 E.00087
;WIPE_START
G1 X112.55 Y125.361 E-.09589
G1 X112.307 Y125.604 E-.10319
G1 X112.026 Y125.802 E-.10307
G1 X111.706 Y125.952 E-.10605
G1 X111.209 Y126.065 E-.15294
G1 X111.079 Y126.061 E-.03887
;WIPE_END
G1 Z.4 F42000
G1 X110.594 Y92.2 Z.4
G1 Z.2
G1 E.6 F2400
;WIDTH:0.549008
G1 F3600
G1 X111.178 Y92.18 E.02336
;WIDTH:0.5159
G1 X111.249 Y92.183 E.00264
G1 E-.16343 F2400
;WIPE_START
G1 F3600
G1 X111.178 Y92.18 E-.04705
G1 X110.594 Y92.2 E-.38952
;WIPE_END
G1 Z.4 F42000
G1 X107.106 Y93.833 Z.4
G1 Z.2
G1 E.6 F2400
;TYPE:Bottom surface
;WIDTH:0.500746
G1 F6300
G1 X107.315 Y94.042 E.0107
G1 X107.321 Y94.337 E.01067
G1 X107.384 Y94.758 E.01538
G1 X106.664 Y94.039 E.03678
G1 X106.017 Y94.039 E.02342
G1 X121.415 Y109.437 E.78753
G1 X121.346 Y109.077 E.01325
G1 X121.341 Y108.715 E.01309
G1 X110.283 Y97.658 E.56554
G1 X110.692 Y97.724 E.01497
G1 X111.004 Y97.731 E.01129
G1 X121.395 Y108.122 E.53145
G1 X121.447 Y107.801 E.01178
G1 X121.516 Y107.596 E.00781
G1 X111.608 Y97.687 E.50679
M73 P5 R8
G1 X111.75 Y97.667 E.00522
G1 X112.125 Y97.557 E.01412
G1 X121.697 Y107.129 E.48954
G1 X121.942 Y106.726 E.01704
G1 X112.592 Y97.376 E.47822
G1 X112.927 Y97.212 E.01351
G1 X113.014 Y97.151 E.00383
G1 X122.206 Y106.343 E.47015
G1 X122.525 Y106.015 E.01656
G1 X113.389 Y96.879 E.46728
G1 X113.721 Y96.563 E.01656
G1 X122.889 Y105.731 E.46889
G1 X123.172 Y105.53 E.01255
G1 X123.284 Y105.479 E.00446
G1 X114.016 Y96.21 E.47405
G1 X114.163 Y95.996 E.00942
G1 X114.263 Y95.81 E.00761
G1 X123.728 Y105.275 E.48407
G1 X123.794 Y105.245 E.00263
G1 X124.24 Y105.14 E.01657
G1 X114.467 Y95.367 E.49985
G1 X114.533 Y95.205 E.00633
G1 X114.626 Y94.879 E.01227
G1 X124.796 Y105.048 E.52012
G1 X125.175 Y105.042 E.01371
G1 X125.462 Y105.067 E.01044
G1 X114.714 Y94.319 E.54974
G1 X114.725 Y94.039 E.01013
G1 X115.081 Y94.039 E.01288
G1 X126.742 Y105.699 E.59636
;WIPE_START
G1 X125.327 Y104.285 E-.6
;WIPE_END
G1 Z.4 F42000
