; HEADER_BLOCK_START
; generated by OrcaSlicer 2.1.0 on 2025-03-19 at 17:40:20
; total layer number: 172
; filament_density: 1.27
; filament_diameter: 1.75
; max_z_height: 34.40
; HEADER_BLOCK_END

; THUMBNAIL_BLOCK_START

;
; THUMBNAIL_BLOCK_END

; THUMBNAIL_BLOCK_START

;
; THUMBNAIL_BLOCK_END

; external perimeters extrusion width = 0.42mm
; perimeters extrusion width = 0.45mm
; infill extrusion width = 0.45mm
; solid infill extrusion width = 0.42mm
; top infill extrusion width = 0.42mm
; support material extrusion width = 0.42mm
; first layer extrusion width = 0.50mm

; EXECUTABLE_BLOCK_START
EXCLUDE_OBJECT_DEFINE NAME=КРЕПЛ_НОМЕРА.stp_id_0_copy_0 CENTER=110,110 POLYGON=[[90.4,77.0049],[102.6,77.0049],[129.6,136.995],[129.6,142.995],[90.4,142.995],[90.4,77.0049]]
M73 P0 R35
M106 S0
M106 P2 S0
;TYPE:Custom
M140 S0
M104 S0 
START_PRINT EXTRUDER_TEMP=250 BED_TEMP=90
M106 P3 S153
G90
G21
M83 ; use relative distances for extrusion
; filament start gcode
M106 S0
M106 P2 S0
;LAYER_CHANGE
;Z:0.2
;HEIGHT:0.2
;BEFORE_LAYER_CHANGE
;0.2
G92 E0

G1 E-.6 F2400
;_SET_FAN_SPEED_CHANGING_LAYER
SET_VELOCITY_LIMIT ACCEL=500 ACCEL_TO_DECEL=250
SET_VELOCITY_LIMIT SQUARE_CORNER_VELOCITY=9
EXCLUDE_OBJECT_START NAME=КРЕПЛ_НОМЕРА.stp_id_0_copy_0
G1 Z.2 F42000
G1 X86.173 Y73.759
G1 Z.2
G1 E.6 F2400
;TYPE:Brim
;WIDTH:0.5
G1 F3600
G1 X86.594 Y73.267 E.02337
G1 X87.123 Y72.795 E.02561
G1 X87.711 Y72.399 E.02561
G1 X88.349 Y72.085 E.02564
G1 X88.945 Y71.88 E.02278
G1 X89.64 Y71.731 E.02566
G1 X90.408 Y71.675 E.02781
G1 X102.592 Y71.675 E.43992
G1 X103.308 Y71.723 E.02589
G1 X104.002 Y71.866 E.02561
G1 X104.674 Y72.102 E.02568
G1 X105.144 Y72.332 E.0189
G1 X105.826 Y72.764 E.02917
G1 X106.364 Y73.225 E.02558
G1 X106.836 Y73.754 E.02561
G1 X107.232 Y74.343 E.02561
G1 X107.546 Y74.98 E.02566
G1 X107.736 Y75.525 E.02081
G1 X107.901 Y76.272 E.02763
G1 X107.956 Y77.04 E.02779
G1 X107.956 Y131.41 E1.96311
G1 X108.005 Y131.551 E.00538
G1 X108.185 Y131.639 E.00722
G1 X129.592 Y131.639 E.77293
G1 X130.308 Y131.687 E.02589
G1 X131.002 Y131.83 E.02561
G1 X131.674 Y132.065 E.02568
G1 X132.144 Y132.295 E.0189
G1 X132.826 Y132.728 E.02917
G1 X133.364 Y133.189 E.02558
G1 X133.836 Y133.718 E.02561
G1 X134.232 Y134.307 E.02561
G1 X134.546 Y134.944 E.02566
G1 X134.736 Y135.488 E.02081
G1 X134.901 Y136.236 E.02763
G1 X134.956 Y137.003 E.02779
G1 X134.956 Y142.987 E.21606
G1 X134.908 Y143.703 E.02589
G1 X134.765 Y144.397 E.02561
G1 X134.53 Y145.068 E.02565
G1 X134.254 Y145.622 E.02236
G1 X133.868 Y146.22 E.02571
G1 X133.406 Y146.759 E.02561
G1 X132.877 Y147.231 E.02561
G1 X132.289 Y147.627 E.02561
G1 X131.651 Y147.941 E.02564
G1 X131.055 Y148.146 E.02278
G1 X130.36 Y148.296 E.02566
G1 X129.592 Y148.351 E.02781
G1 X90.408 Y148.351 E1.41478
G1 X89.692 Y148.303 E.02589
G1 X88.998 Y148.16 E.02561
G1 X88.326 Y147.925 E.02568
G1 X87.856 Y147.695 E.0189
G1 X87.174 Y147.262 E.02917
G1 X86.636 Y146.801 E.02558
G1 X86.164 Y146.272 E.02561
G1 X85.768 Y145.684 E.02561
G1 X85.454 Y145.047 E.02564
G1 X85.249 Y144.45 E.02278
G1 X85.099 Y143.755 E.02566
G1 X85.044 Y142.987 E.02781
G1 X85.044 Y77.039 E2.38111
G1 X85.092 Y76.324 E.02589
G1 X85.235 Y75.629 E.02561
G1 X85.47 Y74.959 E.02565
G1 X85.746 Y74.404 E.02236
G1 X86.132 Y73.806 E.02571
G1 X86.147 Y73.789 E.00079
G1 X86.495 Y74.087 F42000
G1 F3600
G1 X86.915 Y73.595 E.02334
G1 X87.397 Y73.163 E.02337
G1 X87.934 Y72.801 E.02337
G1 X88.517 Y72.512 E.02349
G1 X89.076 Y72.32 E.02136
G1 X89.696 Y72.186 E.02289
G1 X90.43 Y72.132 E.02657
G1 X102.581 Y72.132 E.43875
G1 X103.255 Y72.179 E.02438
G1 X103.889 Y72.31 E.02337
G1 X104.489 Y72.521 E.02297
G1 X104.926 Y72.735 E.01758
G1 X105.545 Y73.128 E.02646
G1 X106.036 Y73.546 E.0233
G1 X106.468 Y74.028 E.02337
G1 X106.84 Y74.581 E.02404
G1 X107.12 Y75.15 E.02289
G1 X107.293 Y75.642 E.01883
G1 X107.448 Y76.348 E.02611
G1 X107.499 Y77.061 E.02581
G1 X107.499 Y131.399 E1.96192
G1 X107.568 Y131.687 E.0107
G1 X107.671 Y131.859 E.00726
G1 X107.817 Y131.968 E.00654
G1 X107.971 Y132.043 E.0062
G1 X108.201 Y132.096 E.00851
G1 X129.581 Y132.096 E.77198
G1 X130.255 Y132.143 E.02438
G1 X130.889 Y132.274 E.02337
G1 X131.489 Y132.485 E.02297
G1 X131.913 Y132.692 E.01704
G1 X132.545 Y133.091 E.027
G1 X133.05 Y133.523 E.02396
G1 X133.468 Y133.992 E.02271
G1 X133.831 Y134.529 E.02337
G1 X134.127 Y135.129 E.02416
G1 X134.297 Y135.621 E.01881
G1 X134.445 Y136.292 E.02481
G1 X134.499 Y137.025 E.02653
G1 X134.499 Y142.967 E.21456
G1 X134.455 Y143.632 E.02405
G1 X134.326 Y144.266 E.02337
G1 X134.111 Y144.881 E.02352
G1 X133.852 Y145.402 E.02099
G1 X133.494 Y145.954 E.02374
G1 X133.072 Y146.445 E.02337
G1 X132.588 Y146.874 E.02337
G1 X132.05 Y147.235 E.02337
G1 X131.467 Y147.521 E.02345
G1 X130.924 Y147.706 E.02073
G1 X130.304 Y147.84 E.02289
G1 X129.57 Y147.894 E.02658
G1 X90.419 Y147.894 E1.41361
G1 X89.745 Y147.847 E.02438
G1 X89.111 Y147.716 E.02337
G1 X88.511 Y147.505 E.02297
G1 X88.087 Y147.298 E.01704
G1 X87.455 Y146.899 E.027
G1 X86.964 Y146.48 E.0233
G1 X86.521 Y145.983 E.02404
G1 X86.16 Y145.446 E.02337
G1 X85.874 Y144.862 E.02345
G1 X85.689 Y144.319 E.02073
G1 X85.555 Y143.699 E.02289
G1 X85.501 Y142.965 E.02657
G1 X85.501 Y77.059 E2.37961
G1 X85.545 Y76.394 E.02405
G1 X85.674 Y75.76 E.02337
G1 X85.896 Y75.129 E.02414
G1 X86.148 Y74.625 E.02038
G1 X86.474 Y74.12 E.02167
G1 X86.857 Y74.369 F42000
G1 F3600
G1 X87.237 Y73.922 E.02115
G1 X87.672 Y73.531 E.02114
G1 X88.156 Y73.202 E.02114
G1 X88.685 Y72.939 E.02132
G1 X89.207 Y72.759 E.01993
G1 X89.752 Y72.642 E.02013
G1 X90.452 Y72.589 E.02534
G1 X102.561 Y72.589 E.43721
G1 X103.202 Y72.635 E.02319
G1 X103.757 Y72.75 E.02049
G1 X104.305 Y72.941 E.02093
G1 X104.709 Y73.139 E.01626
G1 X105.265 Y73.491 E.02376
G1 X105.709 Y73.868 E.02102
G1 X106.112 Y74.318 E.02179
G1 X106.448 Y74.819 E.02178
G1 X106.694 Y75.319 E.02015
G1 X106.849 Y75.759 E.01684
G1 X106.995 Y76.424 E.02457
G1 X107.042 Y77.082 E.02384
G1 X107.042 Y131.385 E1.96065
G1 X107.122 Y131.786 E.01475
G1 X107.181 Y131.93 E.00562
G1 X107.272 Y132.082 E.0064
G1 X107.409 Y132.234 E.0074
G1 X107.535 Y132.328 E.00568
G1 X107.873 Y132.489 E.01351
G1 X108.213 Y132.553 E.0125
G1 X129.57 Y132.553 E.77112
G1 X130.183 Y132.596 E.02218
G1 X130.775 Y132.719 E.02182
G1 X131.305 Y132.905 E.0203
G1 X131.684 Y133.088 E.01518
G1 X132.265 Y133.455 E.02481
G1 X132.735 Y133.857 E.02234
G1 X133.111 Y134.281 E.02048
G1 X133.429 Y134.751 E.02048
G1 X133.707 Y135.313 E.02265
G1 X133.858 Y135.753 E.0168
G1 X133.99 Y136.349 E.02202
G1 X134.042 Y137.047 E.02527
G1 X134.042 Y142.947 E.21304
G1 X134.001 Y143.561 E.02222
G1 X133.886 Y144.136 E.02115
G1 X133.692 Y144.695 E.02138
G1 X133.45 Y145.181 E.01961
G1 X133.121 Y145.686 E.02175
G1 X132.739 Y146.129 E.02114
G1 X132.3 Y146.517 E.02114
G1 X131.813 Y146.842 E.02114
G1 X131.284 Y147.101 E.02127
G1 X130.794 Y147.267 E.01869
G1 X130.248 Y147.385 E.02015
G1 X129.548 Y147.437 E.02534
G1 X90.43 Y147.437 E1.41242
G1 X89.817 Y147.394 E.02218
G1 X89.225 Y147.271 E.02182
G1 X88.695 Y147.085 E.0203
G1 X88.316 Y146.902 E.01518
G1 X87.735 Y146.535 E.02483
G1 X87.291 Y146.159 E.021
G1 X86.889 Y145.71 E.02177
G1 X86.553 Y145.208 E.0218
G1 X86.294 Y144.679 E.02127
G1 X86.128 Y144.189 E.01869
G1 X86.01 Y143.643 E.02015
G1 X85.958 Y142.943 E.02534
G1 X85.958 Y77.079 E2.3781
G1 X85.999 Y76.465 E.02222
G1 X86.114 Y75.891 E.02113
G1 X86.321 Y75.3 E.02261
G1 X86.55 Y74.845 E.01838
G1 X86.836 Y74.402 E.01904
G1 X87.221 Y74.651 F42000
G1 F3600
G1 X87.231 Y74.635 E.0007
G1 X87.572 Y74.235 E.01896
G1 X87.962 Y73.886 E.0189
G1 X88.396 Y73.593 E.0189
G1 X88.87 Y73.358 E.01911
G1 X89.338 Y73.199 E.01784
G1 X89.808 Y73.097 E.01738
G1 X90.474 Y73.046 E.02411
G1 X102.54 Y73.046 E.43564
G1 X103.148 Y73.09 E.02201
G1 X103.644 Y73.194 E.01829
G1 X104.121 Y73.361 E.01825
G1 X104.492 Y73.542 E.01493
G1 X104.986 Y73.855 E.02109
G1 X105.396 Y74.203 E.01942
G1 X105.755 Y74.607 E.01951
G1 X106.046 Y75.04 E.01886
G1 X106.275 Y75.505 E.01869
G1 X106.411 Y75.893 E.01485
G1 X106.539 Y76.48 E.02169
G1 X106.585 Y77.094 E.02224
G1 X106.585 Y131.372 E1.95975
G1 X106.704 Y131.968 E.02196
G1 X106.792 Y132.169 E.00791
G1 X106.94 Y132.396 E.0098
G1 X107.063 Y132.532 E.00662
G1 X107.255 Y132.689 E.00895
G1 X107.67 Y132.898 E.01678
G1 X107.796 Y132.939 E.00479
G1 X108.224 Y133.01 E.01568
G1 X129.55 Y133.011 E.76997
G1 X130.111 Y133.049 E.02033
G1 X130.643 Y133.158 E.0196
G1 X131.122 Y133.325 E.0183
G1 X131.468 Y133.492 E.01387
G1 X132 Y133.83 E.02277
G1 X132.407 Y134.178 E.01931
G1 X132.744 Y134.555 E.01827
G1 X133.037 Y134.99 E.01892
G1 X133.28 Y135.482 E.01982
G1 X133.419 Y135.885 E.0154
G1 X133.537 Y136.426 E.01998
G1 X133.585 Y137.069 E.02331
G1 X133.585 Y142.928 E.21152
G1 X133.548 Y143.492 E.02042
G1 X133.441 Y144.024 E.0196
G1 X133.266 Y144.526 E.01918
G1 X133.048 Y144.961 E.01756
G1 X132.76 Y145.403 E.01907
G1 X132.406 Y145.814 E.01957
G1 X132.013 Y146.159 E.0189
G1 X131.577 Y146.449 E.01891
G1 X131.101 Y146.68 E.01908
G1 X130.664 Y146.827 E.01666
G1 X130.192 Y146.929 E.01744
G1 X129.526 Y146.98 E.02411
G1 X90.441 Y146.979 E1.41121
G1 X89.87 Y146.938 E.02065
G1 X89.339 Y146.827 E.01959
G1 X88.878 Y146.665 E.01765
G1 X88.546 Y146.505 E.01332
G1 X88.014 Y146.171 E.02267
G1 X87.605 Y145.824 E.01938
G1 X87.246 Y145.421 E.01949
G1 X86.946 Y144.971 E.01951
G1 X86.715 Y144.496 E.01906
G1 X86.568 Y144.059 E.01666
G1 X86.466 Y143.587 E.01744
G1 X86.415 Y142.921 E.02411
G1 X86.415 Y77.099 E2.37658
G1 X86.452 Y76.534 E.02042
G1 X86.554 Y76.022 E.01887
G1 X86.74 Y75.487 E.02042
G1 X86.944 Y75.079 E.01649
G1 X87.199 Y74.684 E.01696
G1 X87.583 Y74.932 F42000
G1 F3600
G1 X87.594 Y74.916 E.00069
G1 X87.906 Y74.549 E.0174
G1 X88.251 Y74.242 E.01667
G1 X88.635 Y73.985 E.01667
G1 X89.055 Y73.778 E.01691
G1 X89.453 Y73.642 E.01518
G1 X89.865 Y73.552 E.01524
G1 X90.497 Y73.503 E.02288
G1 X102.518 Y73.503 E.43405
G1 X103.093 Y73.546 E.02081
G1 X103.529 Y73.639 E.0161
G1 X103.937 Y73.781 E.01559
G1 X104.275 Y73.946 E.0136
G1 X104.706 Y74.219 E.01842
G1 X105.082 Y74.538 E.0178
G1 X105.398 Y74.895 E.01721
G1 X105.653 Y75.278 E.01663
G1 X105.855 Y75.69 E.01656
G1 X105.972 Y76.026 E.01284
G1 X106.084 Y76.536 E.01887
G1 X106.127 Y77.106 E.02062
G1 X106.128 Y131.359 E1.95888
G1 X106.288 Y132.157 E.02938
G1 X106.414 Y132.426 E.01072
G1 X106.552 Y132.638 E.00913
G1 X106.718 Y132.833 E.00927
G1 X106.957 Y133.035 E.0113
G1 X107.537 Y133.335 E.02357
G1 X107.729 Y133.391 E.00722
G1 X108.235 Y133.467 E.01846
G1 X129.529 Y133.468 E.76887
G1 X130.04 Y133.502 E.0185
G1 X130.513 Y133.598 E.0174
G1 X130.939 Y133.745 E.01629
G1 X131.252 Y133.897 E.01254
G1 X131.736 Y134.205 E.02072
G1 X132.092 Y134.512 E.01699
G1 X132.387 Y134.844 E.01605
G1 X132.645 Y135.228 E.0167
G1 X132.854 Y135.65 E.017
G1 X132.98 Y136.016 E.01398
G1 X133.081 Y136.482 E.01722
G1 X133.128 Y137.092 E.02206
G1 X133.128 Y142.908 E.21001
G1 X133.094 Y143.422 E.01861
G1 X132.996 Y143.912 E.01803
G1 X132.84 Y144.355 E.01697
G1 X132.647 Y144.739 E.01553
G1 X132.399 Y145.12 E.0164
G1 X132.087 Y145.484 E.01731
G1 X131.741 Y145.79 E.01665
G1 X131.341 Y146.055 E.01734
G1 X130.92 Y146.259 E.0169
G1 X130.535 Y146.388 E.01465
G1 X130.135 Y146.474 E.01477
G1 X129.503 Y146.523 E.02288
G1 X90.452 Y146.522 E1.40997
G1 X89.943 Y146.485 E.01843
G1 X89.454 Y146.383 E.01805
G1 X89.061 Y146.245 E.01505
G1 X88.774 Y146.108 E.01147
G1 X88.293 Y145.806 E.0205
G1 X87.932 Y145.502 E.01705
G1 X87.615 Y145.147 E.01718
G1 X87.348 Y144.751 E.01723
G1 X87.136 Y144.315 E.01753
G1 X87.008 Y143.93 E.01465
G1 X86.921 Y143.53 E.01477
G1 X86.872 Y142.898 E.02288
G1 X86.872 Y77.118 E2.37505
M73 P1 R35
G1 X86.906 Y76.603 E.01864
G1 X86.994 Y76.151 E.01663
G1 X87.159 Y75.674 E.01824
G1 X87.338 Y75.313 E.01456
G1 X87.562 Y74.965 E.01491
G1 X87.946 Y75.215 F42000
G1 F3600
G1 X87.967 Y75.182 E.0014
G1 X88.241 Y74.864 E.01516
G1 X88.54 Y74.599 E.01441
G1 X88.872 Y74.377 E.01444
G1 X89.239 Y74.199 E.01472
G1 X89.568 Y74.086 E.01258
G1 X89.923 Y74.008 E.01311
G1 X90.52 Y73.96 E.02163
G1 X102.496 Y73.961 E.43242
G1 X103.038 Y74.001 E.01959
G1 X103.398 Y74.078 E.01329
G1 X103.753 Y74.201 E.01358
G1 X104.058 Y74.35 E.01227
G1 X104.427 Y74.583 E.01574
G1 X104.768 Y74.873 E.01617
G1 X105.029 Y75.167 E.01421
G1 X105.251 Y75.499 E.01441
G1 X105.435 Y75.874 E.01508
G1 X105.533 Y76.158 E.01085
G1 X105.629 Y76.594 E.0161
G1 X105.67 Y77.118 E.01899
G1 X105.671 Y131.347 E1.95798
G1 X105.838 Y132.24 E.0328
G1 X105.877 Y132.358 E.0045
G1 X106.035 Y132.681 E.01298
G1 X106.209 Y132.94 E.01125
G1 X106.43 Y133.188 E.01201
G1 X106.656 Y133.379 E.01068
G1 X106.753 Y133.444 E.00423
G1 X107.419 Y133.777 E.02689
G1 X107.669 Y133.845 E.00935
G1 X108.157 Y133.918 E.0178
G1 X129.509 Y133.925 E.77094
G1 X129.97 Y133.956 E.01669
G1 X130.383 Y134.038 E.01521
G1 X130.757 Y134.166 E.01424
G1 X131.021 Y134.293 E.0106
G1 X131.47 Y134.579 E.01921
G1 X131.777 Y134.845 E.01467
G1 X132.03 Y135.132 E.01382
G1 X132.253 Y135.466 E.01449
G1 X132.427 Y135.819 E.01421
G1 X132.541 Y136.148 E.01257
G1 X132.626 Y136.539 E.01447
G1 X132.671 Y137.114 E.02082
G1 X132.671 Y142.888 E.20849
G1 X132.641 Y143.353 E.0168
G1 X132.551 Y143.799 E.01645
G1 X132.414 Y144.184 E.01473
G1 X132.246 Y144.518 E.01351
G1 X132.037 Y144.838 E.01378
G1 X131.767 Y145.155 E.01506
G1 X131.469 Y145.42 E.01438
G1 X131.122 Y145.652 E.01507
G1 X130.739 Y145.837 E.01537
G1 X130.406 Y145.948 E.01265
G1 X130.078 Y146.019 E.01214
G1 X129.48 Y146.066 E.02164
G1 X90.464 Y146.064 E1.40872
G1 X89.997 Y146.03 E.01688
G1 X89.568 Y145.939 E.01583
G1 X89.242 Y145.824 E.01247
G1 X89.002 Y145.71 E.00961
G1 X88.571 Y145.441 E.01833
G1 X88.245 Y145.166 E.01542
G1 X87.971 Y144.858 E.01487
G1 X87.741 Y144.514 E.01493
G1 X87.557 Y144.133 E.01528
G1 X87.447 Y143.801 E.01262
G1 X87.376 Y143.473 E.01214
G1 X87.329 Y142.875 E.02164
G1 X87.329 Y77.138 E2.37351
G1 X87.359 Y76.671 E.01688
G1 X87.435 Y76.28 E.0144
G1 X87.579 Y75.859 E.01605
G1 X87.74 Y75.532 E.01317
G1 X87.924 Y75.248 E.01222
G1 X88.293 Y75.542 F42000
G1 F3600
G1 X88.514 Y75.264 E.01281
G1 X88.942 Y74.894 E.02042
G1 X89.359 Y74.657 E.01733
G1 X89.804 Y74.503 E.01698
G1 X90.298 Y74.427 E.01805
G1 X102.816 Y74.438 E.45198
G1 X103.137 Y74.49 E.01175
G1 X103.469 Y74.591 E.01253
G1 X104.023 Y74.873 E.02243
G1 X104.242 Y75.026 E.00964
G1 X104.522 Y75.297 E.01409
G1 X104.769 Y75.62 E.01467
G1 X104.966 Y75.975 E.01468
G1 X105.1 Y76.322 E.01341
G1 X105.205 Y77.014 E.02527
G1 X105.214 Y134.244 E2.06635
G1 X105.261 Y134.348 E.00413
G1 X105.351 Y134.381 E.00344
G1 X129.551 Y134.381 E.87379
G1 X130.058 Y134.44 E.01841
G1 X130.471 Y134.555 E.01549
G1 X131.025 Y134.837 E.02245
G1 X131.18 Y134.939 E.00671
G1 X131.451 Y135.181 E.01311
G1 X131.711 Y135.489 E.01454
G1 X131.839 Y135.698 E.00886
G1 X132.094 Y136.267 E.0225
G1 X132.171 Y136.6 E.01236
G1 X132.214 Y137.039 E.01591
G1 X132.204 Y143.056 E.21726
G1 X132.187 Y143.264 E.00753
G1 X132.054 Y143.816 E.02052
G1 X131.764 Y144.408 E.02377
G1 X131.409 Y144.848 E.02042
G1 X131.267 Y144.974 E.00684
G1 X130.933 Y145.214 E.01486
G1 X130.285 Y145.501 E.02561
G1 X130.106 Y145.544 E.00662
G1 X129.554 Y145.609 E.02006
G1 X90.453 Y145.609 E1.4118
G1 X89.729 Y145.499 E.02645
G1 X89.551 Y145.441 E.00676
G1 X89.114 Y145.242 E.01735
G1 X88.947 Y145.135 E.00714
G1 X88.488 Y144.744 E.02179
G1 X88.328 Y144.554 E.00895
G1 X88.15 Y144.286 E.01164
G1 X88.01 Y144.008 E.01122
G1 X87.903 Y143.714 E.01129
G1 X87.786 Y142.946 E.02806
G1 X87.786 Y77.081 E2.37812
G1 X87.863 Y76.487 E.02161
G1 X88.004 Y76.042 E.01686
G1 X88.248 Y75.599 E.01826
G1 X88.268 Y75.573 E.0012
G1 X88.626 Y75.858 F42000
G1 F3600
G1 X88.88 Y75.539 E.01472
G1 X89.242 Y75.24 E.01696
G1 X89.585 Y75.054 E.01408
G1 X89.953 Y74.935 E.01398
G1 X90.368 Y74.878 E.01511
G1 X102.737 Y74.888 E.44659
G1 X103.017 Y74.931 E.01025
G1 X103.251 Y74.993 E.00873
G1 X103.824 Y75.284 E.02322
G1 X103.923 Y75.353 E.00435
G1 X104.16 Y75.576 E.01174
G1 X104.364 Y75.832 E.01183
G1 X104.57 Y76.205 E.01538
G1 X104.675 Y76.491 E.01099
G1 X104.748 Y77.004 E.01871
G1 X104.757 Y134.701 E2.08323
G1 X104.804 Y134.805 E.00413
G1 X104.894 Y134.838 E.00344
G1 X129.559 Y134.838 E.89057
