; HEADER_BLOCK_START
; generated by OrcaSlicer 2.1.0 on 2025-03-06 at 19:13:41
; total layer number: 127
; filament_density: 1.27
; filament_diameter: 1.75
; max_z_height: 25.40
; HEADER_BLOCK_END

; THUMBNAIL_BLOCK_START

;
; THUMBNAIL_BLOCK_END

; THUMBNAIL_BLOCK_START

;
; THUMBNAIL_BLOCK_END

; external perimeters extrusion width = 0.42mm
; perimeters extrusion width = 0.45mm
; infill extrusion width = 0.45mm
; solid infill extrusion width = 0.42mm
; top infill extrusion width = 0.42mm
; support material extrusion width = 0.42mm
; first layer extrusion width = 0.50mm

; external perimeters extrusion width = 0.42mm
; perimeters extrusion width = 0.45mm
; infill extrusion width = 0.45mm
; solid infill extrusion width = 0.42mm
; top infill extrusion width = 0.42mm
; support material extrusion width = 0.42mm
; first layer extrusion width = 0.50mm

; EXECUTABLE_BLOCK_START
EXCLUDE_OBJECT_DEFINE NAME=крепеж_под_серву.stp_id_0_copy_0 CENTER=111.582,132.01 POLYGON=[[78.5815,116.51],[144.582,116.51],[144.582,145.51],[144.579,145.611],[144.576,145.659],[144.571,145.711],[144.559,145.808],[144.55,145.864],[144.531,145.955],[144.517,146.015],[144.493,146.099],[144.472,146.162],[144.443,146.24],[144.417,146.304],[144.383,146.378],[144.351,146.441],[144.314,146.51],[144.276,146.572],[144.234,146.636],[144.191,146.697],[144.145,146.757],[144.098,146.813],[144.048,146.87],[143.998,146.922],[143.942,146.976],[143.89,147.022],[143.828,147.073],[143.776,147.114],[143.708,147.162],[143.657,147.196],[143.582,147.242],[143.532,147.269],[143.449,147.312],[143.404,147.333],[143.312,147.372],[143.272,147.387],[143.171,147.421],[143.137,147.431],[143.027,147.46],[143,147.465],[142.88,147.487],[142.862,147.49],[142.731,147.504],[142.722,147.505],[142.582,147.51],[80.5815,147.51],[80.4825,147.507],[80.4321,147.504],[80.3836,147.5],[80.2834,147.487],[80.2579,147.483],[80.1365,147.46],[80.133,147.459],[80.0096,147.426],[79.992,147.421],[79.888,147.386],[79.8508,147.372],[79.7686,147.337],[79.7138,147.312],[79.6519,147.281],[79.5815,147.242],[79.5385,147.216],[79.4549,147.162],[79.4289,147.144],[79.3345,147.073],[79.3236,147.065],[79.2231,146.978],[79.2212,146.976],[79.128,146.884],[79.1154,146.87],[79.0389,146.783],[79.0179,146.757],[78.9563,146.675],[78.929,146.636],[78.8807,146.562],[78.8495,146.51],[78.8127,146.443],[78.7796,146.378],[78.7528,146.32],[78.7198,146.24],[78.7013,146.191],[78.6704,146.099],[78.6586,146.06],[78.6317,145.955],[78.6251,145.925],[78.6039,145.808],[78.6009,145.788],[78.5871,145.659],[78.5864,145.649],[78.5815,145.51],[78.5815,116.51]]
EXCLUDE_OBJECT_DEFINE NAME=крепеж_под_серву.stp_id_1_copy_0 CENTER=110,78 POLYGON=[[77,62.5],[143,62.5],[143,91.5],[142.997,91.6008],[142.994,91.6495],[142.99,91.7013],[142.978,91.7981],[142.968,91.8543],[142.95,91.945],[142.935,92.0048],[142.911,92.0895],[142.891,92.1518],[142.862,92.2307],[142.836,92.2943],[142.802,92.3678],[142.77,92.4315],[142.732,92.5],[142.694,92.5625],[142.652,92.6266],[142.61,92.6868],[142.564,92.747],[142.517,92.8035],[142.466,92.8603],[142.416,92.9123],[142.36,92.9661],[142.308,93.0126],[142.247,93.0637],[142.194,93.1041],[142.127,93.1525],[142.075,93.1865],[142,93.232],[141.951,93.2596],[141.868,93.3019],[141.822,93.3231],[141.731,93.3617],[141.691,93.377],[141.59,93.4111],[141.556,93.4212],[141.445,93.4499],[141.419,93.4557],[141.298,93.4777],[141.28,93.4803],[141.149,93.4944],[141.14,93.4951],[141,93.5],[79,93.5],[78.9009,93.4975],[78.8505,93.4944],[78.8021,93.4902],[78.7019,93.4777],[78.6763,93.4736],[78.555,93.4499],[78.5515,93.4491],[78.4281,93.4165],[78.4105,93.4111],[78.3064,93.3759],[78.2693,93.3617],[78.1871,93.3273],[78.1322,93.3019],[78.0704,93.2708],[78,93.232],[77.957,93.2065],[77.8734,93.1525],[77.8474,93.1345],[77.753,93.0637],[77.742,93.0548],[77.6416,92.9679],[77.6397,92.9661],[77.5465,92.8738],[77.5339,92.8603],[77.4574,92.7729],[77.4363,92.747],[77.3748,92.6656],[77.3475,92.6266],[77.2992,92.5523],[77.268,92.5],[77.2312,92.4335],[77.1981,92.3678],[77.1713,92.3097],[77.1383,92.2307],[77.1197,92.1816],[77.0889,92.0895],[77.0771,92.0498],[77.0501,91.945],[77.0435,91.915],[77.0223,91.7981],[77.0194,91.778],[77.0056,91.6495],[77.0049,91.6393],[77,91.5],[77,62.5]]
M73 P0 R44
M106 S0
M106 P2 S0
;TYPE:Custom
M140 S0
M104 S0 
START_PRINT EXTRUDER_TEMP=250 BED_TEMP=90
M106 P3 S153
G90
G21
M83 ; use relative distances for extrusion
; filament start gcode
M106 S0
M106 P2 S0
;LAYER_CHANGE
;Z:0.2
;HEIGHT:0.2
;BEFORE_LAYER_CHANGE
;0.2
G92 E0

G1 E-.6 F2400
;_SET_FAN_SPEED_CHANGING_LAYER
SET_VELOCITY_LIMIT ACCEL=500 ACCEL_TO_DECEL=250
SET_VELOCITY_LIMIT SQUARE_CORNER_VELOCITY=9
EXCLUDE_OBJECT_START NAME=крепеж_под_серву.stp_id_0_copy_0
G1 Z.2 F42000
G1 X133.68 Y119.66
G1 Z.2
G1 E.6 F2400
;TYPE:Inner wall
;WIDTH:0.499999
G1 F3600
G1 X142.81 Y119.66 E.32964
G1 X142.81 Y143.794 E.87141
G1 X142.81 Y145.509 E.0619
G1 X142.711 Y145.673 E.00693
G1 X142.488 Y145.738 E.0084
G1 X133.853 Y145.733 E.31178
G1 X133.853 Y143.665 E.0747
G1 X134.568 Y144.067 E.02963
G1 X135.338 Y144.306 E.02911
G1 X135.972 Y144.374 E.02301
G1 X136.776 Y144.316 E.02913
G1 X137.391 Y144.147 E.02301
G1 X138.168 Y143.764 E.03128
G1 X138.799 Y143.263 E.02909
G1 X139.223 Y142.759 E.02379
G1 X139.638 Y142.023 E.03051
G1 X139.878 Y141.253 E.02911
G1 X139.945 Y140.62 E.02301
G1 X139.888 Y139.816 E.0291
G1 X139.72 Y139.206 E.02283
G1 X139.371 Y138.473 E.02931
G1 X138.992 Y137.967 E.02283
G1 X138.399 Y137.412 E.02932
G1 X137.862 Y137.079 E.02282
G1 X137.387 Y136.871 E.01872
G1 X136.819 Y136.724 E.02121
G1 X136.252 Y136.645 E.02067
G1 X135.672 Y136.663 E.02094
G1 X135.047 Y136.785 E.02297
G1 X134.294 Y137.079 E.02921
G1 X133.853 Y137.353 E.01876
G1 X133.853 Y133.765 E.12957
G1 X134.568 Y134.167 E.02963
G1 X135.048 Y134.335 E.01837
G1 X135.678 Y134.458 E.02316
G1 X136.211 Y134.465 E.01926
G1 X136.776 Y134.416 E.02046
G1 X137.385 Y134.249 E.02283
G1 X137.86 Y134.042 E.01871
G1 X138.331 Y133.743 E.02013
G1 X138.799 Y133.363 E.02176
G1 X139.209 Y132.882 E.02282
G1 X139.638 Y132.123 E.03148
G1 X139.878 Y131.354 E.02909
G1 X139.946 Y130.786 E.02066
G1 X139.929 Y130.202 E.0211
G1 X139.806 Y129.576 E.02303
G1 X139.482 Y128.772 E.03127
G1 X138.988 Y128.062 E.03125
G1 X138.399 Y127.512 E.02911
G1 X137.857 Y127.176 E.02301
G1 X137.39 Y126.973 E.01838
G1 X136.793 Y126.819 E.02226
G1 X136.252 Y126.745 E.01973
G1 X135.68 Y126.762 E.02066
G1 X135.047 Y126.885 E.02325
G1 X134.294 Y127.179 E.02921
G1 X133.853 Y127.453 E.01876
G1 X133.853 Y120.338 E.2569
G1 X133.73 Y119.723 E.02266
G1 X133.705 Y119.691 E.00145
G1 X132.253 Y119.199 F42000
G1 F3600
G1 X143.267 Y119.203 E.39768
G1 X143.267 Y143.794 E.88791
G1 X143.267 Y145.595 E.06502
G1 X143.091 Y145.955 E.01446
G1 X142.824 Y146.13 E.01152
G1 X142.513 Y146.196 E.01145
G1 X133.592 Y146.19 E.32213
G1 X133.447 Y146.123 E.00577
G1 X133.396 Y145.931 E.00718
G1 X133.396 Y142.606 E.12003
G1 X133.494 Y142.73 E.00571
G1 X134.058 Y143.254 E.02778
G1 X134.719 Y143.635 E.02757
G1 X135.406 Y143.854 E.02604
G1 X135.955 Y143.917 E.01993
G1 X136.675 Y143.87 E.02605
G1 X137.208 Y143.728 E.01993
G1 X137.896 Y143.396 E.02759
G1 X138.464 Y142.952 E.02602
G1 X138.836 Y142.515 E.02072
G1 X139.207 Y141.872 E.0268
G1 X139.426 Y141.185 E.02604
G1 X139.489 Y140.637 E.01993
G1 X139.442 Y139.917 E.02604
G1 X139.301 Y139.388 E.01976
G1 X138.993 Y138.73 E.02623
G1 X138.669 Y138.29 E.01976
G1 X138.142 Y137.79 E.02623
G1 X137.67 Y137.494 E.02012
G1 X136.963 Y137.216 E.02741
G1 X136.251 Y137.102 E.02602
G1 X135.739 Y137.115 E.01849
G1 X135.198 Y137.217 E.01987
G1 X134.523 Y137.474 E.02611
G1 X134.053 Y137.77 E.02005
G1 X133.67 Y138.099 E.01822
G1 X133.396 Y138.423 E.01534
G1 X133.396 Y132.711 E.20625
G1 X133.498 Y132.834 E.00577
G1 X134.058 Y133.354 E.02758
G1 X134.719 Y133.735 E.02757
G1 X135.409 Y133.955 E.02616
G1 X135.955 Y134.017 E.01981
G1 X136.674 Y133.97 E.02604
G1 X137.203 Y133.829 E.01976
G1 X137.674 Y133.625 E.01853
G1 X138.06 Y133.376 E.01659
G1 X138.464 Y133.052 E.01869
G1 X138.822 Y132.638 E.01976
G1 X139.207 Y131.972 E.02778
G1 X139.426 Y131.286 E.02602
G1 X139.489 Y130.785 E.01822
G1 X139.477 Y130.27 E.01861
G1 X139.375 Y129.727 E.01995
G1 X139.095 Y129.016 E.02758
G1 X138.665 Y128.385 E.02757
G1 X138.141 Y127.889 E.02604
G1 X137.674 Y127.595 E.01993
G1 X136.963 Y127.316 E.02758
G1 X136.251 Y127.202 E.02602
G1 X135.747 Y127.214 E.01822
G1 X135.198 Y127.317 E.02015
G1 X134.523 Y127.574 E.02611
G1 X134.053 Y127.87 E.02005
G1 X133.67 Y128.199 E.01822
G1 X133.396 Y128.523 E.01534
G1 X133.396 Y120.338 E.29553
G1 X133.308 Y119.899 E.01618
G1 X132.939 Y119.424 E.02171
G1 X132.291 Y119.212 E.02461
;WIPE_START
G1 X134.291 Y119.21 E-.6
;WIPE_END
G1 Z.4 F42000
G1 X133.742 Y142.293 Z.4
G1 Z.2
G1 E.6 F2400
G1 F3600
G1 X133.454 Y141.86 E.01878
G1 X133.353 Y141.545 E.01193
;WIDTH:0.466495
G1 X133.251 Y141.231 E.01106
;WIDTH:0.43299
G1 X133.224 Y140.955 E.00853
;WIDTH:0.400232
G1 X133.197 Y140.68 E.00782
;WIDTH:0.411649
G1 X133.21 Y140.357 E.00939
;WIDTH:0.455824
G1 X133.224 Y140.035 E.01051
;WIDTH:0.499999
G1 X133.237 Y139.713 E.01164
G1 X133.486 Y139.1 E.0239
G1 X133.865 Y138.558 E.02389
G1 X134.351 Y138.116 E.02372
G1 X134.869 Y137.816 E.02161
G1 X135.349 Y137.648 E.01838
G1 X135.856 Y137.561 E.01854
G1 X136.378 Y137.571 E.01887
G1 X136.878 Y137.665 E.01837
G1 X137.486 Y137.912 E.0237
G1 X137.927 Y138.199 E.01896
G1 X138.345 Y138.612 E.02125
G1 X138.677 Y139.1 E.0213
G1 X138.882 Y139.571 E.01853
G1 X139.013 Y140.145 E.02127
G1 X139.032 Y140.654 E.01838
G1 X138.943 Y141.241 E.02145
G1 X138.776 Y141.721 E.01837
G1 X138.449 Y142.272 E.0231
G1 X138.034 Y142.726 E.02223
G1 X137.625 Y143.028 E.01837
G1 X137.025 Y143.309 E.0239
G1 X136.539 Y143.431 E.01812
G1 X135.937 Y143.46 E.02173
G1 X135.35 Y143.372 E.02145
G1 X134.87 Y143.204 E.01837
G1 X134.301 Y142.867 E.02388
G1 X133.818 Y142.407 E.02407
G1 X133.764 Y142.326 E.0035
;WIPE_START
G1 X133.454 Y141.86 E-.16808
G1 X133.353 Y141.545 E-.09914
G1 X133.251 Y141.231 E-.09914
G1 X133.224 Y140.955 E-.08308
G1 X133.197 Y140.68 E-.08308
G1 X133.206 Y140.455 E-.06749
;WIPE_END
G1 Z.4 F42000
G1 X135.798 Y127.677 Z.4
G1 Z.2
G1 E.6 F2400
G1 F3600
G1 X135.916 Y127.659 E.0043
G1 X136.378 Y127.671 E.01669
G1 X136.878 Y127.765 E.01837
G1 X137.491 Y128.014 E.0239
G1 X137.982 Y128.349 E.02145
G1 X138.342 Y128.708 E.01837
G1 X138.708 Y129.259 E.02388
G1 X138.943 Y129.878 E.0239
G1 X139.032 Y130.44 E.02055
G1 X139.024 Y130.886 E.01611
G1 X138.943 Y131.341 E.01669
G1 X138.776 Y131.821 E.01837
G1 X138.435 Y132.395 E.02407
G1 X138.052 Y132.812 E.02046
G1 X137.625 Y133.128 E.01919
G1 X137.03 Y133.406 E.0237
G1 X136.505 Y133.536 E.01952
G1 X135.937 Y133.56 E.02052
G1 X135.35 Y133.472 E.02145
G1 X134.87 Y133.304 E.01837
G1 X134.301 Y132.967 E.02388
G1 X133.821 Y132.511 E.0239
G1 X133.494 Y132.039 E.02071
G1 X133.305 Y131.618 E.01669
G1 X133.262 Y131.366 E.00922
;WIDTH:0.451914
G1 X133.22 Y131.114 E.00825
;WIDTH:0.403828
G1 X133.197 Y130.464 E.01855
;WIDTH:0.411833
G1 X133.21 Y130.247 E.00633
;WIDTH:0.455916
G1 X133.224 Y130.03 E.00709
;WIDTH:0.499999
G1 X133.237 Y129.813 E.00784
G1 X133.486 Y129.2 E.0239
G1 X133.865 Y128.658 E.02389
G1 X134.351 Y128.216 E.02372
G1 X134.869 Y127.916 E.02161
G1 X135.35 Y127.748 E.01838
G1 X135.759 Y127.684 E.01496
;WIPE_START
G1 X135.916 Y127.659 E-.04777
G1 X136.378 Y127.671 E-.13867
G1 X136.878 Y127.765 E-.15261
G1 X137.491 Y128.014 E-.19856
G1 X137.663 Y128.131 E-.06239
;WIPE_END
G1 Z.4 F42000
G1 X89.367 Y120.054 Z.4
G1 Z.2
G1 E.6 F2400
G1 F3600
G1 X89.31 Y120.338 E.01048
G1 X89.31 Y127.451 E.25682
G1 X88.862 Y127.179 E.01894
G1 X88.048 Y126.867 E.03148
G1 X87.548 Y126.773 E.01837
G1 X86.917 Y126.745 E.02282
G1 X86.367 Y126.82 E.02004
G1 X85.827 Y126.95 E.02004
G1 X85.296 Y127.178 E.02086
G1 X84.758 Y127.52 E.02303
G1 X84.129 Y128.115 E.03124
G1 X83.648 Y128.834 E.03124
G1 X83.339 Y129.643 E.03128
G1 X83.216 Y130.44 E.02913
G1 X83.234 Y131.018 E.02086
G1 X83.357 Y131.644 E.02303
G1 X83.68 Y132.446 E.03121
G1 X84.171 Y133.153 E.03109
G1 X84.625 Y133.601 E.02305
G1 X85.057 Y133.893 E.01882
G1 X85.568 Y134.167 E.02093
G1 X86.048 Y134.335 E.01837
G1 X86.673 Y134.457 E.02299
G1 X87.211 Y134.465 E.01942
G1 X87.85 Y134.399 E.02319
G1 X88.385 Y134.249 E.02007
G1 X88.856 Y134.044 E.01853
G1 X89.31 Y133.759 E.01937
G1 X89.31 Y137.351 E.12972
G1 X88.862 Y137.079 E.01894
G1 X88.392 Y136.873 E.01853
G1 X87.819 Y136.724 E.0214
G1 X87.252 Y136.645 E.02067
G1 X86.62 Y136.672 E.02282
G1 X86.116 Y136.767 E.01853
G1 X85.512 Y136.974 E.02306
G1 X84.997 Y137.251 E.02111
G1 X84.632 Y137.529 E.01658
G1 X84.129 Y138.015 E.02522
G1 X83.648 Y138.734 E.03124
G1 X83.339 Y139.543 E.03129
G1 X83.216 Y140.34 E.02913
G1 X83.234 Y140.918 E.02086
G1 X83.357 Y141.544 E.02303
G1 X83.681 Y142.347 E.03127
G1 X84.175 Y143.058 E.03125
G1 X84.815 Y143.641 E.03125
G1 X85.568 Y144.067 E.03125
G1 X86.338 Y144.306 E.02911
G1 X86.912 Y144.375 E.02086
G1 X87.49 Y144.357 E.02088
G1 X88.116 Y144.234 E.02303
G1 X88.596 Y144.066 E.01838
G1 X89.31 Y143.665 E.02958
G1 X89.31 Y145.733 E.0747
G1 X80.733 Y145.738 E.30971
G1 X80.501 Y145.708 E.00842
G1 X80.419 Y145.64 E.00387
G1 X80.353 Y145.387 E.00944
G1 X80.353 Y119.66 E.92891
G1 X89.483 Y119.66 E.32964
G1 X89.433 Y119.723 E.0029
G1 X89.375 Y120.015 E.01074
G1 X89.805 Y120.149 F42000
G1 F3600
G1 X89.767 Y120.338 E.00698
G1 X89.767 Y128.513 E.29516
G1 X89.665 Y128.385 E.00592
G1 X89.142 Y127.89 E.02602
G1 X88.679 Y127.598 E.01976
G1 X87.963 Y127.316 E.02778
G1 X87.251 Y127.202 E.02602
G1 X86.705 Y127.221 E.01976
G1 X85.994 Y127.376 E.02625
G1 X85.525 Y127.573 E.0184
G1 X85.056 Y127.867 E.01995
G1 X84.497 Y128.386 E.02756
G1 X84.067 Y129.016 E.02755
G1 X83.788 Y129.728 E.02759
G1 X83.674 Y130.44 E.02606
G1 X83.686 Y130.95 E.0184
G1 X83.788 Y131.493 E.01995
G1 X84.067 Y132.203 E.02753
G1 X84.494 Y132.83 E.02741
G1 X85.058 Y133.354 E.02778
G1 X85.719 Y133.735 E.02757
G1 X86.406 Y133.954 E.02604
G1 X86.955 Y134.017 E.01993
G1 X87.674 Y133.97 E.02604
G1 X88.203 Y133.829 E.01976
G1 X88.896 Y133.496 E.02778
G1 X89.306 Y133.194 E.01837
G1 X89.767 Y132.709 E.02418
G1 X89.767 Y138.413 E.20595
G1 X89.665 Y138.285 E.00592
G1 X89.142 Y137.79 E.02602
G1 X88.679 Y137.498 E.01976
G1 X88.209 Y137.292 E.01853
G1 X87.809 Y137.187 E.01494
G1 X87.251 Y137.102 E.02035
G1 X86.705 Y137.121 E.01976
G1 X86.2 Y137.216 E.01853
G1 X85.679 Y137.399 E.01996
G1 X85.226 Y137.646 E.01862
G1 X84.93 Y137.875 E.01351
G1 X84.497 Y138.286 E.02155
G1 X84.067 Y138.917 E.02755
G1 X83.788 Y139.628 E.02759
G1 X83.674 Y140.34 E.02605
G1 X83.686 Y140.85 E.0184
G1 X83.788 Y141.393 E.01995
G1 X84.068 Y142.104 E.02758
G1 X84.498 Y142.735 E.02757
G1 X85.058 Y143.254 E.02757
G1 X85.719 Y143.635 E.02757
G1 X86.199 Y143.803 E.01837
G1 X86.741 Y143.905 E.01992
G1 X87.252 Y143.918 E.01844
G1 X87.757 Y143.854 E.01839
G1 X88.1 Y143.755 E.01289
G1 X88.676 Y143.524 E.02239
G1 X89.305 Y143.094 E.02752
G1 X89.767 Y142.606 E.02427
G1 X89.767 Y145.945 E.12056
G1 X89.716 Y146.123 E.00666
G1 X89.571 Y146.19 E.00577
G1 X80.668 Y146.196 E.32147
G1 X80.242 Y146.097 E.01578
G1 X79.986 Y145.831 E.01334
G1 X79.896 Y145.421 E.01514
G1 X79.896 Y119.203 E.94665
G1 X90.151 Y119.203 E.37026
;WIDTH:0.51031
G1 X90.712 Y119.208 E.02072
G1 X90.224 Y119.424 E.01969
;WIDTH:0.499999
G1 X89.855 Y119.899 E.02171
G1 X89.813 Y120.109 E.00776
;WIPE_START
G1 X89.767 Y120.338 E-.07003
G1 X89.767 Y122.105 E-.52997
;WIPE_END
G1 Z.4 F42000
G1 X89.49 Y128.93 Z.4
G1 Z.2
G1 E.6 F2400
G1 F3600
G1 X89.709 Y129.259 E.01427
G1 X89.926 Y129.812 E.02145
G1 X89.939 Y130.021 E.00757
;WIDTH:0.455835
G1 X89.953 Y130.23 E.00684
;WIDTH:0.41167
G1 X89.966 Y130.44 E.0061
;WIDTH:0.377259
G1 X89.952 Y130.972 E.01406
;WIDTH:0.418173
G1 X89.931 Y131.158 E.00555
;WIDTH:0.459086
G1 X89.911 Y131.344 E.00616
;WIDTH:0.499999
G1 X89.89 Y131.53 E.00676
G1 X89.708 Y131.96 E.01687
G1 X89.435 Y132.395 E.01853
G1 X89.034 Y132.826 E.02127
G1 X88.625 Y133.128 E.01837
G1 X88.021 Y133.41 E.02407
G1 X87.505 Y133.536 E.01916
G1 X86.937 Y133.56 E.02052
G1 X86.41 Y133.49 E.01923
G1 X85.87 Y133.304 E.02061
G1 X85.301 Y132.967 E.02388
