; HEADER_BLOCK_START
; generated by OrcaSlicer 2.1.0 on 2025-02-22 at 18:41:10
; total layer number: 165
; filament_density: 1.27
; filament_diameter: 1.75
; max_z_height: 23.60
; HEADER_BLOCK_END

; THUMBNAIL_BLOCK_START

;
; THUMBNAIL_BLOCK_END

; THUMBNAIL_BLOCK_START

;
; THUMBNAIL_BLOCK_END

; external perimeters extrusion width = 0.42mm
; perimeters extrusion width = 0.45mm
; infill extrusion width = 0.45mm
; solid infill extrusion width = 0.42mm
; top infill extrusion width = 0.42mm
; support material extrusion width = 0.42mm
; first layer extrusion width = 0.50mm

; EXECUTABLE_BLOCK_START
EXCLUDE_OBJECT_DEFINE NAME=крепление_длинное_ответн.stp_id_0_copy_0 CENTER=109.816,115.311 POLYGON=[[9.96854,121.488],[97.3175,34.1395],[180.836,24.4948],[181.018,24.4771],[181.2,24.4706],[181.383,24.4751],[181.564,24.4907],[181.745,24.5174],[181.923,24.555],[182.099,24.6033],[182.272,24.6623],[182.441,24.7317],[182.605,24.8112],[182.764,24.9005],[182.918,24.9994],[183.065,25.1074],[183.205,25.2241],[183.338,25.3492],[209.663,51.6739],[55.2633,206.073],[55.1845,206.152],[16.3992,167.367],[9.96854,121.488]]
M73 P0 R89
M106 S0
M106 P2 S0
;TYPE:Custom
M140 S0
M104 S0 
START_PRINT EXTRUDER_TEMP=250 BED_TEMP=90
M106 P3 S153
G90
G21
M83 ; use relative distances for extrusion
; filament start gcode
M106 S0
M106 P2 S0
;LAYER_CHANGE
;Z:0.2
;HEIGHT:0.2
;BEFORE_LAYER_CHANGE
;0.2
G92 E0

G1 E-.6 F2400
;_SET_FAN_SPEED_CHANGING_LAYER
SET_VELOCITY_LIMIT ACCEL=500 ACCEL_TO_DECEL=250
SET_VELOCITY_LIMIT SQUARE_CORNER_VELOCITY=9
EXCLUDE_OBJECT_START NAME=крепление_длинное_ответн.stp_id_0_copy_0
G1 Z.2 F42000
G1 X54.195 Y54.181
G1 Z.2
G1 E.6 F2400
;TYPE:Brim
;WIDTH:0.5
G1 F3600
G1 X85.768 Y22.6 E1.61241
G1 X86.7 Y21.738 E.04582
G1 X87.693 Y20.954 E.04566
G1 X88.743 Y20.25 E.04566
G1 X89.845 Y19.629 E.04566
G1 X90.992 Y19.097 E.04566
G1 X92.177 Y18.655 E.04566
G1 X93.393 Y18.307 E.04566
G1 X94.634 Y18.054 E.04572
G1 X95.466 Y17.941 E.03032
G1 X152.739 Y11.605 E2.08054
G1 X178.777 Y8.299 E.94767
G1 X179.434 Y8.228 E.02385
G1 X180.44 Y8.161 E.0364
G1 X181.774 Y8.154 E.04816
G1 X182.946 Y8.223 E.04239
G1 X183.928 Y8.337 E.03569
G1 X185.086 Y8.537 E.04246
G1 X186.411 Y8.857 E.04921
G1 X187.356 Y9.147 E.03568
G1 X188.457 Y9.553 E.04238
G1 X189.703 Y10.108 E.04924
G1 X190.743 Y10.657 E.04248
G1 X191.747 Y11.267 E.04239
G1 X192.562 Y11.827 E.03572
G1 X193.493 Y12.546 E.04247
G1 X194.379 Y13.321 E.04248
G1 X194.882 Y13.804 E.0252
G1 X219.771 Y38.694 E1.2709
G1 X219.771 Y64.633 E.93655
G1 X66.75 Y217.676 E7.81408
G1 X65.818 Y218.537 E.04582
G1 X64.826 Y219.321 E.04566
G1 X64.154 Y219.771 E.02918
G1 X46.242 Y219.771 E.64675
M73 P0 R88
G1 X45.288 Y219.096 E.0422
G1 X44.315 Y218.285 E.04572
G1 X43.707 Y217.708 E.03031
G1 X4.864 Y178.887 E1.98281
G1 X4.002 Y177.955 E.04582
G1 X3.218 Y176.963 E.04566
G1 X2.513 Y175.913 E.04566
G1 X1.893 Y174.811 E.04566
G1 X1.359 Y173.662 E.04572
G1 X1.058 Y172.888 E.03
G1 X.671 Y171.682 E.04574
G1 X.38 Y170.451 E.04566
G1 X.229 Y169.482 E.03539
G1 X.229 Y164.861 E.16687
G1 X.758 Y158.729 E.22222
G1 X.229 Y155.095 E.13258
G1 X.229 Y108.161 E1.69461
G1 X54.166 Y54.21 E2.75449
G1 X54.49 Y54.533 F42000
G1 F3600
G1 X86.084 Y22.931 E1.61344
G1 X86.994 Y22.089 E.04476
G1 X87.958 Y21.327 E.04437
G1 X88.978 Y20.642 E.04438
G1 X90.049 Y20.039 E.04438
G1 X91.173 Y19.517 E.04476
G1 X92.325 Y19.088 E.04437
G1 X93.507 Y18.75 E.04438
G1 X94.706 Y18.506 E.04418
G1 X95.52 Y18.394 E.02966
G1 X152.789 Y12.06 E2.08035
G1 X178.832 Y8.753 E.94787
G1 X179.476 Y8.683 E.02341
G1 X180.452 Y8.619 E.03531
G1 X181.766 Y8.611 E.04744
G1 X182.902 Y8.678 E.04109
G1 X183.859 Y8.789 E.03476
G1 X184.998 Y8.986 E.04176
G1 X186.294 Y9.299 E.04815
G1 X187.213 Y9.581 E.03471
G1 X188.281 Y9.975 E.04108
G1 X189.499 Y10.518 E.04815
G1 X190.522 Y11.057 E.04174
G1 X191.495 Y11.649 E.04114
G1 X192.29 Y12.194 E.03479
G1 X193.199 Y12.896 E.0415
G1 X194.067 Y13.655 E.04163
G1 X194.563 Y14.132 E.02482
G1 X219.274 Y38.843 E1.2618
G1 X219.314 Y38.94 E.00379
G1 X219.314 Y64.387 E.91878
G1 X219.274 Y64.483 E.00379
G1 X66.435 Y217.344 E7.80477
G1 X65.525 Y218.186 E.04476
G1 X64.552 Y218.955 E.04476
G1 X64.05 Y219.291 E.02182
G1 X63.974 Y219.314 E.00288
G1 X46.431 Y219.314 E.63339
G1 X46.352 Y219.289 E.003
G1 X45.563 Y218.73 E.03491
G1 X44.623 Y217.946 E.04419
G1 X44.024 Y217.379 E.02978
G1 X5.195 Y178.572 E1.98211
G1 X4.353 Y177.662 E.04476
G1 X3.584 Y176.689 E.04476
G1 X2.9 Y175.668 E.04438
G1 X2.302 Y174.607 E.04399
G1 X1.778 Y173.479 E.0449
G1 X1.488 Y172.731 E.02896
G1 X1.111 Y171.554 E.04465
G1 X.83 Y170.368 E.04399
G1 X.686 Y169.436 E.03404
G1 X.686 Y164.874 E.16471
G1 X1.213 Y158.776 E.22101
G1 X1.209 Y158.655 E.00437
G1 X.686 Y155.052 E.13145
G1 X.686 Y108.407 E1.68417
G1 X.726 Y108.31 E.00379
G1 X54.461 Y54.561 E2.74416
G1 X54.785 Y54.884 F42000
G1 F3600
G1 X86.399 Y23.262 E1.61446
G1 X87.287 Y22.44 E.0437
G1 X88.223 Y21.7 E.04309
G1 X89.214 Y21.035 E.04309
G1 X90.253 Y20.449 E.04308
G1 X91.345 Y19.941 E.04347
G1 X92.473 Y19.521 E.04347
G1 X93.621 Y19.193 E.04309
G1 X94.779 Y18.958 E.04266
G1 X95.575 Y18.848 E.02901
G1 X152.838 Y12.514 E2.08015
G1 X178.886 Y9.206 E.94807
G1 X179.519 Y9.138 E.02297
G1 X180.464 Y9.076 E.03422
G1 X181.758 Y9.068 E.04671
G1 X182.859 Y9.134 E.0398
G1 X183.79 Y9.241 E.03384
G1 X184.91 Y9.435 E.04105
G1 X186.178 Y9.741 E.04709
G1 X187.071 Y10.016 E.03373
G1 X188.104 Y10.397 E.03978
G1 X189.295 Y10.928 E.04707
G1 X190.3 Y11.457 E.04101
G1 X191.244 Y12.031 E.03989
G1 X192.017 Y12.561 E.03387
G1 X192.906 Y13.247 E.04052
G1 X193.756 Y13.99 E.04077
G1 X194.244 Y14.459 E.02443
G1 X218.817 Y39.032 E1.25475
G1 X218.857 Y39.129 E.00379
G1 X218.857 Y64.197 E.90511
G1 X218.817 Y64.294 E.00379
G1 X66.12 Y217.013 E7.79752
G1 X65.231 Y217.835 E.0437
G1 X64.287 Y218.582 E.04347
G1 X63.911 Y218.834 E.01635
G1 X63.835 Y218.857 E.00288
G1 X46.577 Y218.857 E.62311
G1 X46.497 Y218.832 E.00301
G1 X45.838 Y218.364 E.02921
G1 X44.93 Y217.608 E.04266
G1 X44.342 Y217.05 E.02926
G1 X5.526 Y178.257 E1.98142
G1 X4.697 Y177.36 E.04409
G1 X3.951 Y176.415 E.04347
G1 X3.293 Y175.433 E.0427
G1 X2.712 Y174.402 E.04271
G1 X2.198 Y173.296 E.04407
G1 X1.918 Y172.575 E.02792
G1 X1.55 Y171.426 E.04355
G1 X1.28 Y170.286 E.04231
G1 X1.143 Y169.391 E.03269
G1 X1.144 Y164.888 E.16256
G1 X1.669 Y158.756 E.22222
G1 X1.661 Y158.583 E.00626
G1 X1.143 Y155.009 E.13038
G1 X1.143 Y108.596 E1.67579
G1 X1.183 Y108.499 E.00379
G1 X54.756 Y54.912 E2.73589
G1 X55.08 Y55.236 F42000
G1 F3600
G1 X86.714 Y23.594 E1.61549
G1 X87.581 Y22.791 E.04265
G1 X88.488 Y22.073 E.0418
G1 X89.449 Y21.427 E.0418
G1 X90.457 Y20.858 E.04179
G1 X91.516 Y20.366 E.04217
G1 X92.621 Y19.954 E.04256
G1 X93.734 Y19.637 E.0418
G1 X94.851 Y19.41 E.04114
G1 X95.629 Y19.302 E.02836
G1 X152.887 Y12.969 E2.07996
G1 X178.941 Y9.66 E.94826
G1 X179.561 Y9.594 E.02253
G1 X180.477 Y9.533 E.03313
G1 X181.75 Y9.526 E.04599
G1 X182.815 Y9.589 E.03851
G1 X183.72 Y9.693 E.03291
G1 X184.821 Y9.884 E.04034
G1 X186.061 Y10.184 E.04603
G1 X186.928 Y10.45 E.03276
G1 X187.928 Y10.819 E.03848
G1 X189.091 Y11.337 E.04598
G1 X190.078 Y11.857 E.04028
G1 X190.993 Y12.413 E.03864
G1 X191.745 Y12.929 E.03294
G1 X192.612 Y13.598 E.03954
G1 X193.445 Y14.325 E.03992
G1 X193.925 Y14.787 E.02404
G1 X218.36 Y39.222 E1.24769
G1 X218.4 Y39.319 E.00379
G1 X218.4 Y64.008 E.89143
G1 X218.36 Y64.105 E.00379
G1 X65.805 Y216.682 E7.79027
G1 X64.938 Y217.484 E.04264
G1 X64.021 Y218.209 E.04219
G1 X63.772 Y218.377 E.01087
G1 X63.695 Y218.4 E.00289
G1 X46.722 Y218.4 E.61282
G1 X46.643 Y218.375 E.00301
G1 X46.113 Y217.998 E.02349
G1 X45.237 Y217.269 E.04114
G1 X44.659 Y216.721 E.02874
G1 X5.858 Y177.941 E1.98071
G1 X5.049 Y177.067 E.04302
G1 X4.318 Y176.142 E.04257
G1 X3.68 Y175.189 E.04142
G1 X3.122 Y174.198 E.04104
G1 X2.617 Y173.112 E.04324
G1 X2.348 Y172.418 E.02688
G1 X1.99 Y171.298 E.04247
G1 X1.73 Y170.204 E.04061
G1 X1.6 Y169.345 E.03134
G1 X1.601 Y164.902 E.16043
G1 X2.125 Y158.725 E.22384
G1 X2.112 Y158.512 E.00771
G1 X1.6 Y154.966 E.12934
G1 X1.6 Y108.785 E1.66741
G1 X1.64 Y108.688 E.00379
G1 X55.051 Y55.264 E2.72761
G1 X55.375 Y55.587 F42000
G1 F3600
G1 X87.029 Y23.925 E1.61652
G1 X87.874 Y23.142 E.0416
G1 X88.754 Y22.445 E.04052
G1 X89.685 Y21.819 E.04051
G1 X90.662 Y21.268 E.0405
G1 X91.698 Y20.786 E.04126
G1 X92.769 Y20.387 E.04126
G1 X93.848 Y20.08 E.04051
G1 X94.924 Y19.861 E.03963
G1 X95.687 Y19.756 E.02783
G1 X152.936 Y13.423 E2.07963
G1 X178.995 Y10.114 E.94846
G1 X179.604 Y10.049 E.02209
G1 X180.489 Y9.99 E.03204
G1 X181.743 Y9.983 E.04526
G1 X182.772 Y10.044 E.03722
G1 X183.651 Y10.145 E.03198
G1 X184.733 Y10.333 E.03963
G1 X185.944 Y10.626 E.04497
G1 X186.785 Y10.885 E.03178
G1 X187.751 Y11.242 E.03719
G1 X188.887 Y11.747 E.04489
G1 X189.856 Y12.257 E.03954
G1 X190.741 Y12.795 E.03739
G1 X191.473 Y13.296 E.03202
G1 X192.318 Y13.949 E.03857
G1 X193.133 Y14.66 E.03907
G1 X193.606 Y15.114 E.02366
G1 X217.903 Y39.411 E1.24064
G1 X217.943 Y39.508 E.00379
G1 X217.943 Y63.819 E.87776
G1 X217.903 Y63.916 E.00379
G1 X65.49 Y216.35 E7.78302
M73 P1 R88
G1 X64.644 Y217.133 E.04159
G1 X63.64 Y217.914 E.04596
G1 X63.556 Y217.943 E.00321
G1 X46.868 Y217.943 E.60251
G1 X46.789 Y217.918 E.00301
G1 X46.388 Y217.632 E.01778
G1 X45.544 Y216.929 E.03964
G1 X44.977 Y216.392 E.02821
G1 X6.189 Y177.626 E1.98001
G1 X5.4 Y176.774 E.04196
G1 X4.685 Y175.868 E.04166
G1 X4.072 Y174.953 E.03975
G1 X3.531 Y173.994 E.03976
G1 X3.036 Y172.929 E.04241
G1 X2.778 Y172.262 E.02582
G1 X2.429 Y171.17 E.04138
G1 X2.181 Y170.122 E.03891
G1 X2.057 Y169.301 E.02998
G1 X2.059 Y164.916 E.15831
G1 X2.581 Y158.687 E.22568
G1 X2.564 Y158.441 E.0089
G1 X2.057 Y154.924 E.12832
G1 X2.057 Y108.975 E1.65903
G1 X2.097 Y108.878 E.00379
G1 X55.346 Y55.615 E2.71933
G1 X55.669 Y55.939 F42000
G1 F3600
G1 X87.344 Y24.256 E1.61755
G1 X88.168 Y23.493 E.04055
G1 X89.02 Y22.818 E.03924
G1 X89.921 Y22.211 E.03923
G1 X90.866 Y21.677 E.0392
G1 X91.879 Y21.206 E.04035
G1 X92.917 Y20.821 E.03995
G1 X93.962 Y20.523 E.03923
G1 X94.996 Y20.313 E.03813
G1 X95.746 Y20.209 E.02731
G1 X152.985 Y13.877 E2.0793
G1 X179.05 Y10.568 E.94865
G1 X179.646 Y10.504 E.02164
G1 X180.501 Y10.448 E.03095
G1 X181.735 Y10.441 E.04454
G1 X182.728 Y10.5 E.03593
G1 X183.582 Y10.597 E.03105
G1 X184.644 Y10.781 E.03892
G1 X185.826 Y11.068 E.04391
G1 X186.642 Y11.319 E.03081
G1 X187.575 Y11.664 E.03591
G1 X188.683 Y12.156 E.04381
G1 X189.634 Y12.657 E.0388
G1 X190.49 Y13.177 E.03615
G1 X191.2 Y13.664 E.0311
G1 X192.025 Y14.3 E.03759
G1 X192.822 Y14.996 E.03821
G1 X193.287 Y15.442 E.02327
G1 X217.446 Y39.6 E1.23358
G1 X217.486 Y39.697 E.00379
G1 X217.486 Y63.629 E.86409
G1 X217.446 Y63.726 E.00379
G1 X65.174 Y216.019 E7.77577
G1 X64.353 Y216.78 E.04044
G1 X63.483 Y217.457 E.03979
G1 X63.399 Y217.486 E.00321
G1 X47.014 Y217.486 E.59157
G1 X46.935 Y217.461 E.00302
G1 X46.663 Y217.267 E.01206
G1 X45.851 Y216.59 E.03815
G1 X45.294 Y216.063 E.02769
G1 X6.52 Y177.311 E1.9793
G1 X5.751 Y176.48 E.04089
G1 X5.052 Y175.594 E.04076
G1 X4.459 Y174.709 E.03847
G1 X3.941 Y173.79 E.0381
G1 X3.455 Y172.746 E.04157
G1 X3.208 Y172.106 E.02477
G1 X2.869 Y171.043 E.04029
G1 X2.631 Y170.04 E.03719
G1 X2.514 Y169.256 E.02863
G1 X2.516 Y164.93 E.15621
G1 X3.036 Y158.646 E.22766
G1 X3.015 Y158.372 E.00993
G1 X2.514 Y154.881 E.12732
G1 X2.514 Y109.164 E1.65066
M73 P1 R87
G1 X2.554 Y109.067 E.00379
G1 X55.641 Y55.967 E2.71105
G1 X55.964 Y56.29 F42000
G1 F3600
G1 X87.659 Y24.587 E1.61858
G1 X88.462 Y23.844 E.0395
G1 X89.285 Y23.191 E.03796
G1 X90.157 Y22.604 E.03794
G1 X91.07 Y22.087 E.0379
G1 X92.051 Y21.63 E.03903
G1 X93.064 Y21.254 E.03904
G1 X94.075 Y20.967 E.03794
G1 X95.069 Y20.764 E.03663
G1 X95.804 Y20.662 E.02679
G1 X153.034 Y14.332 E2.07896
G1 X179.104 Y11.022 E.94884
G1 X179.688 Y10.96 E.0212
G1 X180.514 Y10.905 E.02987
G1 X181.727 Y10.898 E.04382
G1 X182.685 Y10.955 E.03464
G1 X183.513 Y11.05 E.03011
G1 X184.556 Y11.23 E.0382
G1 X185.709 Y11.51 E.04284
G1 X186.499 Y11.754 E.02984
G1 X187.399 Y12.086 E.03463
G1 X188.48 Y12.566 E.04272
G1 X189.412 Y13.057 E.03806
G1 X190.239 Y13.559 E.0349
G1 X190.928 Y14.031 E.03018
G1 X191.731 Y14.651 E.03661
G1 X192.511 Y15.331 E.03736
G1 X192.968 Y15.769 E.02287
G1 X216.989 Y39.79 E1.22652
G1 X217.029 Y39.887 E.00379
G1 X217.029 Y63.44 E.85042
G1 X216.989 Y63.537 E.00379
G1 X64.859 Y215.688 E7.76852
G1 X64.061 Y216.427 E.03931
G1 X63.326 Y217 E.03363
G1 X63.242 Y217.029 E.00322
G1 X47.161 Y217.029 E.58062
G1 X47.074 Y216.998 E.00332
G1 X46.159 Y216.252 E.04262
G1 X45.612 Y215.734 E.02722
G1 X6.852 Y176.996 E1.97859
G1 X6.102 Y176.187 E.03983
G1 X5.418 Y175.321 E.03985
G1 X4.852 Y174.473 E.0368
G1 X4.35 Y173.586 E.03682
G1 X3.874 Y172.563 E.04074
G1 X3.638 Y171.95 E.02371
G1 X3.308 Y170.915 E.03921
G1 X3.082 Y169.96 E.03547
G1 X2.971 Y169.212 E.02727
G1 X2.974 Y164.943 E.15413
G1 X3.491 Y158.601 E.22974
G1 X3.467 Y158.302 E.01084
G1 X2.971 Y154.839 E.12633
G1 X2.971 Y109.353 E1.64229
G1 X3.011 Y109.256 E.00379
G1 X55.936 Y56.318 E2.70277
G1 X56.259 Y56.641 F42000
G1 F3600
G1 X87.974 Y24.919 E1.61961
G1 X88.756 Y24.195 E.03846
G1 X89.551 Y23.563 E.03668
G1 X90.393 Y22.996 E.03665
G1 X91.275 Y22.496 E.0366
G1 X92.222 Y22.055 E.03771
G1 X93.211 Y21.687 E.03811
G1 X94.188 Y21.41 E.03665
G1 X95.142 Y21.216 E.03514
G1 X95.862 Y21.116 E.02626
G1 X153.083 Y14.786 E2.07862
G1 X179.156 Y11.476 E.94894
G1 X179.73 Y11.415 E.02085
G1 X180.526 Y11.362 E.02879
G1 X181.719 Y11.356 E.04309
G1 X182.642 Y11.41 E.03336
G1 X183.445 Y11.502 E.02918
G1 X184.467 Y11.679 E.03748
G1 X185.592 Y11.952 E.04178
G1 X186.356 Y12.188 E.02887
G1 X187.222 Y12.508 E.03335
G1 X188.276 Y12.976 E.04163
G1 X189.191 Y13.457 E.03732
G1 X189.988 Y13.941 E.03366
G1 X190.656 Y14.399 E.02926
G1 X191.445 Y15.007 E.03594
G1 X192.2 Y15.666 E.0362
G1 X192.65 Y16.097 E.02248
G1 X216.532 Y39.979 E1.21946
G1 X216.572 Y40.076 E.00379
G1 X216.572 Y63.251 E.83675
G1 X216.532 Y63.348 E.00379
G1 X64.544 Y215.356 E7.76127
G1 X63.769 Y216.075 E.03817
G1 X63.169 Y216.543 E.02746
G1 X63.085 Y216.572 E.00322
G1 X47.324 Y216.572 E.56907
G1 X47.237 Y216.541 E.00332
G1 X46.465 Y215.912 E.03596
G1 X45.929 Y215.405 E.02663
G1 X7.183 Y176.681 E1.97787
G1 X6.447 Y175.885 E.03915
G1 X5.785 Y175.047 E.03855
G1 X5.239 Y174.229 E.03552
G1 X4.76 Y173.381 E.03516
G1 X4.294 Y172.379 E.0399
G1 X4.068 Y171.794 E.02264
G1 X3.748 Y170.788 E.03813
G1 X3.532 Y169.879 E.03373
G1 X3.428 Y169.169 E.02592
G1 X3.431 Y164.957 E.15208
G1 X3.946 Y158.555 E.2319
G1 X3.919 Y158.233 E.01164
G1 X3.428 Y154.796 E.12536
G1 X3.428 Y109.543 E1.63393
G1 X3.468 Y109.446 E.00379
G1 X56.231 Y56.67 E2.69449
G1 X56.554 Y56.993 F42000
G1 F3600
G1 X88.289 Y25.25 E1.62065
G1 X89.05 Y24.546 E.03742
G1 X89.817 Y23.935 E.0354
G1 X90.629 Y23.388 E.03536
G1 X91.48 Y22.905 E.0353
G1 X92.403 Y22.475 E.03679
G1 X93.359 Y22.12 E.03679
G1 X94.301 Y21.854 E.03537
G1 X95.215 Y21.668 E.03366
G1 X95.921 Y21.569 E.02574
G1 X153.132 Y15.241 E2.07828
G1 X179.208 Y11.93 E.94903
G1 X179.772 Y11.87 E.0205
G1 X180.538 Y11.819 E.02771
G1 X181.711 Y11.813 E.04237
G1 X182.598 Y11.866 E.03208
G1 X183.376 Y11.954 E.02824
G1 X184.379 Y12.128 E.03676
G1 X185.474 Y12.394 E.04071
G1 X186.213 Y12.622 E.0279
G1 X187.046 Y12.93 E.03208
G1 X188.072 Y13.385 E.04054
G1 X188.969 Y13.857 E.03658
G1 X189.736 Y14.324 E.03242
G1 X190.384 Y14.767 E.02834
G1 X191.158 Y15.363 E.03526
G1 X191.889 Y16.001 E.03505
G1 X192.331 Y16.424 E.02209
G1 X216.075 Y40.168 E1.2124
G1 X216.115 Y40.265 E.00379
G1 X216.115 Y63.061 E.82308
G1 X216.075 Y63.158 E.00379
G1 X64.229 Y215.025 E7.75402
G1 X63.476 Y215.722 E.03705
G1 X63.012 Y216.086 E.02129
G1 X62.927 Y216.115 E.00322
G1 X47.486 Y216.115 E.55751
G1 X47.4 Y216.084 E.00332
G1 X46.771 Y215.571 E.0293
G1 X46.246 Y215.076 E.02605
G1 X7.514 Y176.366 E1.97715
G1 X6.798 Y175.592 E.03808
G1 X6.152 Y174.774 E.03764
G1 X5.631 Y173.994 E.03387
G1 X5.169 Y173.177 E.03388
G1 X4.713 Y172.196 E.03905
G1 X4.498 Y171.639 E.02157
G1 X4.187 Y170.661 E.03705
G1 X3.983 Y169.799 E.03199
G1 X3.885 Y169.125 E.02456
G1 X3.889 Y164.97 E.15005
G1 X4.401 Y158.601 E.23068
G1 X4.371 Y158.164 E.01584
G1 X3.885 Y154.754 E.12435
