; HEADER_BLOCK_START
; generated by OrcaSlicer 2.1.0 on 2025-03-15 at 16:55:16
; total layer number: 80
; filament_density: 1.27
; filament_diameter: 1.75
; max_z_height: 16.00
; HEADER_BLOCK_END

; THUMBNAIL_BLOCK_START

;
; THUMBNAIL_BLOCK_END

; THUMBNAIL_BLOCK_START

;
; THUMBNAIL_BLOCK_END

; external perimeters extrusion width = 0.42mm
; perimeters extrusion width = 0.45mm
; infill extrusion width = 0.45mm
; solid infill extrusion width = 0.42mm
; top infill extrusion width = 0.42mm
; support material extrusion width = 0.42mm
; first layer extrusion width = 0.50mm

; EXECUTABLE_BLOCK_START
EXCLUDE_OBJECT_DEFINE NAME=крыльчатка_2_.stp_id_0_copy_0 CENTER=110,110 POLYGON=[[34.8,108],[44.8749,72.4],[45.8749,70.6679],[72.4,44.8749],[74.132,43.8749],[110,34.8],[112,34.8],[147.6,44.8749],[149.332,45.8749],[175.125,72.4],[176.125,74.132],[185.2,110],[185.2,112],[175.125,147.6],[174.125,149.332],[147.6,175.125],[145.868,176.125],[110,185.2],[108,185.2],[72.4,175.125],[70.6679,174.125],[44.8749,147.6],[43.8749,145.868],[34.8,110],[34.8,108]]
M73 P0 R57
M106 S0
M106 P2 S0
;TYPE:Custom
M140 S0
M104 S0 
START_PRINT EXTRUDER_TEMP=250 BED_TEMP=90
M106 P3 S153
G90
G21
M83 ; use relative distances for extrusion
; filament start gcode
M106 S0
M106 P2 S0
;LAYER_CHANGE
;Z:0.2
;HEIGHT:0.2
;BEFORE_LAYER_CHANGE
;0.2
G92 E0

G1 E-.6 F2400
;_SET_FAN_SPEED_CHANGING_LAYER
SET_VELOCITY_LIMIT ACCEL=500 ACCEL_TO_DECEL=250
SET_VELOCITY_LIMIT SQUARE_CORNER_VELOCITY=9
EXCLUDE_OBJECT_START NAME=крыльчатка_2_.stp_id_0_copy_0
G1 Z.2 F42000
G1 X41.359 Y63.962
G1 Z.2
G1 E.6 F2400
;TYPE:Brim
;WIDTH:0.5
G1 F3600
G1 X41.662 Y63.766 E.01302
G1 X42.526 Y63.303 E.03541
G1 X43.345 Y62.979 E.0318
G1 X44.196 Y62.747 E.03183
G1 X45.066 Y62.61 E.03183
G1 X45.947 Y62.57 E.03183
G1 X46.826 Y62.627 E.0318
G1 X47.801 Y62.806 E.0358
G1 X48.696 Y63.078 E.03379
G1 X49.508 Y63.43 E.03192
G1 X49.927 Y63.656 E.01721
G1 X64.983 Y72.348 E.62769
G1 X65.129 Y72.376 E.00538
G1 X65.27 Y72.3 E.00578
G1 X66.353 Y71.051 E.05968
G1 X67.03 Y70.306 E.03636
G1 X68.25 Y69.024 E.06391
G1 X69.419 Y67.866 E.05942
G1 X70.151 Y67.173 E.03637
G1 X71.465 Y65.987 E.06391
G1 X72.718 Y64.921 E.0594
G1 X73.865 Y63.997 E.05318
G1 X73.945 Y63.871 E.00538
G1 X73.92 Y63.705 E.00606
G1 X65.389 Y48.93 E.61601
G1 X64.988 Y48.138 E.03205
G1 X64.679 Y47.312 E.03183
G1 X64.463 Y46.458 E.03183
G1 X64.342 Y45.582 E.03192
G1 X64.316 Y45.073 E.01841
G1 X64.347 Y44.092 E.03541
G1 X64.476 Y43.221 E.0318
G1 X64.701 Y42.369 E.03183
G1 X65.017 Y41.546 E.03183
G1 X65.423 Y40.763 E.03183
G1 X65.911 Y40.031 E.03179
G1 X66.592 Y39.236 E.03778
G1 X67.238 Y38.637 E.03181
G1 X67.946 Y38.111 E.03183
G1 X70.078 Y36.864 E.08919
G1 X70.869 Y36.463 E.03203
G1 X71.695 Y36.154 E.03183
G1 X72.549 Y35.938 E.03183
G1 X73.425 Y35.817 E.0319
G1 X74.03 Y35.789 E.02188
G1 X74.914 Y35.822 E.03194
G1 X75.786 Y35.951 E.03183
G1 X76.638 Y36.176 E.03183
G1 X77.461 Y36.492 E.03183
G1 X78.244 Y36.898 E.03183
G1 X78.976 Y37.386 E.0318
G1 X79.731 Y38.029 E.0358
G1 X80.37 Y38.713 E.03379
G1 X80.897 Y39.423 E.03192
G1 X81.148 Y39.828 E.01721
G1 X89.84 Y54.884 E.62769
G1 X89.952 Y54.982 E.00538
G1 X90.112 Y54.986 E.00578
G1 X91.675 Y54.446 E.05967
G1 X92.634 Y54.138 E.03637
G1 X94.212 Y53.672 E.05942
G1 X95.923 Y53.22 E.06388
G1 X97.647 Y52.82 E.06391
G1 X98.633 Y52.616 E.03637
G1 X100.252 Y52.319 E.05943
G1 X101.708 Y52.093 E.05318
G1 X101.839 Y52.024 E.00538
G1 X101.901 Y51.867 E.00606
G1 X101.901 Y34.806 E.61601
G1 X101.95 Y33.92 E.03205
G1 X102.095 Y33.05 E.03183
G1 X102.335 Y32.202 E.03183
G1 X102.668 Y31.384 E.0319
G1 X102.946 Y30.846 E.02188
G1 X103.417 Y30.096 E.03194
G1 X103.965 Y29.406 E.03183
G1 X104.585 Y28.78 E.03183
G1 X105.271 Y28.226 E.03183
G1 X106.013 Y27.751 E.03183
G1 X106.803 Y27.361 E.03179
G1 X107.79 Y27.013 E.03779
G1 X108.649 Y26.816 E.03181
G1 X109.524 Y26.716 E.03183
G1 X111.994 Y26.701 E.08918
G1 X112.88 Y26.75 E.03203
G1 X113.75 Y26.895 E.03183
G1 X114.598 Y27.135 E.03183
G1 X115.416 Y27.468 E.0319
G1 X115.954 Y27.746 E.02188
G1 X116.704 Y28.217 E.03194
G1 X117.394 Y28.765 E.03183
G1 X118.02 Y29.385 E.03183
G1 X118.574 Y30.071 E.03183
G1 X119.049 Y30.813 E.03183
G1 X119.439 Y31.603 E.0318
G1 X119.772 Y32.537 E.03581
G1 X119.984 Y33.449 E.03379
G1 X120.085 Y34.327 E.03192
G1 X120.099 Y34.803 E.0172
G1 X120.099 Y52.188 E.62769
G1 X120.148 Y52.329 E.00538
G1 X120.284 Y52.412 E.00578
G1 X121.907 Y52.726 E.05967
G1 X122.891 Y52.939 E.03637
G1 X124.612 Y53.356 E.06391
G1 X126.199 Y53.789 E.05942
G1 X127.165 Y54.076 E.03636
G1 X128.849 Y54.621 E.06391
G1 X130.398 Y55.173 E.0594
G1 X131.772 Y55.705 E.05318
G1 X131.921 Y55.711 E.00538
G1 X132.052 Y55.606 E.00606
G1 X140.583 Y40.831 E.61601
G1 X141.069 Y40.088 E.03205
G1 X141.629 Y39.407 E.03183
G1 X142.261 Y38.793 E.03183
G1 X142.959 Y38.25 E.03192
G1 X143.387 Y37.973 E.01841
G1 X144.251 Y37.51 E.03541
G1 X145.07 Y37.186 E.0318
G1 X145.921 Y36.954 E.03183
G1 X146.792 Y36.817 E.03183
G1 X147.672 Y36.777 E.03183
G1 X148.551 Y36.834 E.0318
G1 X149.526 Y37.013 E.0358
G1 X150.422 Y37.285 E.03379
G1 X151.23 Y37.636 E.03182
G1 X153.377 Y38.858 E.08919
G1 X154.119 Y39.343 E.03203
G1 X154.8 Y39.904 E.03183
G1 X155.414 Y40.536 E.03183
G1 X155.957 Y41.234 E.03192
G1 X156.234 Y41.662 E.01841
G1 X156.697 Y42.526 E.03541
G1 X157.021 Y43.345 E.0318
G1 X157.253 Y44.196 E.03183
G1 X157.39 Y45.066 E.03183
G1 X157.43 Y45.947 E.03183
G1 X157.373 Y46.826 E.0318
G1 X157.194 Y47.801 E.0358
G1 X156.922 Y48.696 E.03379
G1 X156.57 Y49.508 E.03192
G1 X156.344 Y49.927 E.01721
G1 X147.652 Y64.983 E.62769
G1 X147.624 Y65.129 E.00538
G1 X147.7 Y65.27 E.00578
G1 X148.949 Y66.353 E.05968
G1 X149.694 Y67.03 E.03637
G1 X150.887 Y68.163 E.05942
G1 X152.134 Y69.419 E.06391
G1 X152.827 Y70.151 E.03636
G1 X154.013 Y71.465 E.06391
G1 X155.079 Y72.718 E.0594
G1 X156.003 Y73.865 E.05318
G1 X156.129 Y73.945 E.00538
G1 X156.295 Y73.92 E.00606
G1 X171.07 Y65.389 E.61601
G1 X171.862 Y64.988 E.03205
G1 X172.688 Y64.679 E.03183
G1 X173.542 Y64.463 E.03183
G1 X174.418 Y64.342 E.03192
G1 X174.927 Y64.316 E.01841
G1 X175.908 Y64.347 E.03541
G1 X176.779 Y64.476 E.0318
G1 X177.631 Y64.701 E.03183
G1 X178.454 Y65.017 E.03183
G1 X179.237 Y65.423 E.03183
G1 X179.969 Y65.911 E.03179
G1 X180.764 Y66.592 E.03778
G1 X181.363 Y67.238 E.03181
G1 X181.889 Y67.946 E.03183
G1 X183.136 Y70.078 E.08919
G1 X183.537 Y70.869 E.03203
G1 X183.846 Y71.695 E.03183
G1 X184.062 Y72.549 E.03183
G1 X184.183 Y73.425 E.0319
G1 X184.211 Y74.03 E.02188
G1 X184.178 Y74.914 E.03194
G1 X184.049 Y75.786 E.03183
G1 X183.824 Y76.638 E.03183
G1 X183.508 Y77.461 E.03183
G1 X183.102 Y78.244 E.03183
G1 X182.614 Y78.976 E.0318
G1 X181.971 Y79.731 E.0358
G1 X181.287 Y80.37 E.03379
G1 X180.577 Y80.897 E.03192
G1 X180.172 Y81.148 E.01721
G1 X165.116 Y89.84 E.62769
G1 X165.018 Y89.952 E.00538
G1 X165.014 Y90.112 E.00578
G1 X165.554 Y91.675 E.05968
G1 X165.862 Y92.634 E.03637
G1 X166.328 Y94.212 E.05942
G1 X166.78 Y95.923 E.06388
G1 X167.18 Y97.647 E.0639
G1 X167.384 Y98.633 E.03637
G1 X167.681 Y100.252 E.05943
G1 X167.907 Y101.708 E.05318
G1 X167.976 Y101.839 E.00538
G1 X168.133 Y101.901 E.00606
G1 X185.194 Y101.901 E.61601
G1 X186.08 Y101.95 E.03205
G1 X186.95 Y102.095 E.03183
G1 X187.798 Y102.335 E.03183
G1 X188.616 Y102.668 E.0319
G1 X189.154 Y102.946 E.02188
G1 X189.904 Y103.417 E.03194
G1 X190.594 Y103.965 E.03183
G1 X191.22 Y104.585 E.03183
G1 X191.774 Y105.271 E.03183
G1 X192.249 Y106.013 E.03183
G1 X192.639 Y106.803 E.0318
G1 X192.972 Y107.737 E.03581
G1 X193.184 Y108.649 E.03379
G1 X193.284 Y109.524 E.03182
M73 P0 R56
G1 X193.299 Y111.994 E.08918
G1 X193.25 Y112.88 E.03203
G1 X193.105 Y113.75 E.03183
G1 X192.865 Y114.598 E.03183
G1 X192.532 Y115.417 E.03192
G1 X192.3 Y115.871 E.0184
G1 X191.783 Y116.704 E.03541
G1 X191.235 Y117.394 E.03181
G1 X190.615 Y118.02 E.03183
G1 X189.929 Y118.574 E.03183
G1 X189.187 Y119.049 E.03183
G1 X188.397 Y119.439 E.0318
G1 X187.463 Y119.772 E.03581
G1 X186.551 Y119.984 E.03379
G1 X185.673 Y120.085 E.03192
G1 X185.197 Y120.099 E.0172
G1 X167.812 Y120.099 E.62769
G1 X167.671 Y120.148 E.00538
G1 X167.588 Y120.284 E.00578
G1 X167.274 Y121.907 E.05967
G1 X167.061 Y122.891 E.03637
G1 X166.675 Y124.491 E.05941
G1 X166.211 Y126.199 E.06391
G1 X165.924 Y127.165 E.03636
G1 X165.379 Y128.849 E.06391
G1 X164.827 Y130.398 E.0594
G1 X164.295 Y131.772 E.05318
G1 X164.289 Y131.921 E.00538
G1 X164.394 Y132.052 E.00606
G1 X179.169 Y140.583 E.61601
G1 X179.912 Y141.069 E.03205
G1 X180.593 Y141.629 E.03183
G1 X181.207 Y142.261 E.03183
G1 X181.75 Y142.959 E.03192
G1 X182.027 Y143.387 E.01841
G1 X182.49 Y144.251 E.03541
G1 X182.814 Y145.07 E.0318
G1 X183.046 Y145.921 E.03183
G1 X183.183 Y146.792 E.03183
G1 X183.223 Y147.672 E.03183
G1 X183.166 Y148.551 E.0318
G1 X182.987 Y149.526 E.0358
G1 X182.715 Y150.422 E.03379
G1 X182.364 Y151.23 E.03182
G1 X181.142 Y153.377 E.08919
G1 X180.657 Y154.119 E.03203
G1 X180.096 Y154.8 E.03183
G1 X179.464 Y155.414 E.03183
G1 X178.766 Y155.957 E.03192
G1 X178.338 Y156.234 E.01841
G1 X177.474 Y156.697 E.03541
G1 X176.655 Y157.021 E.0318
G1 X175.804 Y157.253 E.03183
G1 X174.934 Y157.39 E.03183
G1 X174.053 Y157.43 E.03183
G1 X173.174 Y157.373 E.0318
G1 X172.199 Y157.194 E.0358
G1 X171.304 Y156.922 E.03379
G1 X170.492 Y156.57 E.03192
G1 X170.073 Y156.344 E.01721
G1 X155.017 Y147.652 E.62769
G1 X154.871 Y147.624 E.00538
G1 X154.73 Y147.7 E.00578
G1 X153.647 Y148.949 E.05968
G1 X152.97 Y149.694 E.03637
G1 X151.837 Y150.887 E.05942
G1 X150.58 Y152.135 E.06391
G1 X149.849 Y152.827 E.03636
G1 X148.535 Y154.013 E.06391
G1 X147.282 Y155.079 E.0594
G1 X146.135 Y156.003 E.05318
G1 X146.055 Y156.129 E.00538
G1 X146.08 Y156.295 E.00606
G1 X154.611 Y171.07 E.61601
G1 X155.012 Y171.862 E.03205
G1 X155.321 Y172.688 E.03183
G1 X155.537 Y173.542 E.03183
G1 X155.658 Y174.418 E.03192
G1 X155.684 Y174.927 E.01841
G1 X155.653 Y175.908 E.03541
G1 X155.524 Y176.779 E.0318
G1 X155.299 Y177.631 E.03183
G1 X154.983 Y178.454 E.03183
G1 X154.577 Y179.237 E.03183
G1 X154.089 Y179.969 E.03179
G1 X153.408 Y180.764 E.03778
G1 X152.762 Y181.363 E.03181
G1 X152.054 Y181.889 E.03183
G1 X149.922 Y183.136 E.08919
G1 X149.131 Y183.537 E.03203
G1 X148.305 Y183.846 E.03183
G1 X147.451 Y184.062 E.03183
G1 X146.575 Y184.183 E.0319
G1 X145.97 Y184.211 E.02188
G1 X145.086 Y184.178 E.03194
G1 X144.214 Y184.049 E.03183
G1 X143.362 Y183.824 E.03183
G1 X142.539 Y183.508 E.03183
G1 X141.756 Y183.102 E.03183
G1 X141.024 Y182.614 E.0318
G1 X140.269 Y181.971 E.0358
G1 X139.63 Y181.287 E.03379
G1 X139.103 Y180.577 E.03192
G1 X138.852 Y180.172 E.01721
G1 X130.16 Y165.116 E.62769
G1 X130.048 Y165.018 E.00538
G1 X129.888 Y165.014 E.00578
G1 X128.325 Y165.554 E.05968
G1 X127.366 Y165.862 E.03637
G1 X125.788 Y166.328 E.05942
G1 X124.077 Y166.78 E.06388
G1 X122.353 Y167.18 E.06391
G1 X121.367 Y167.384 E.03637
G1 X119.748 Y167.681 E.05943
G1 X118.292 Y167.907 E.05318
G1 X118.161 Y167.976 E.00538
G1 X118.099 Y168.133 E.00606
G1 X118.099 Y185.194 E.61601
G1 X118.05 Y186.08 E.03205
G1 X117.905 Y186.95 E.03183
G1 X117.665 Y187.798 E.03183
G1 X117.332 Y188.616 E.0319
G1 X117.054 Y189.154 E.02188
G1 X116.583 Y189.904 E.03194
G1 X116.035 Y190.594 E.03183
G1 X115.415 Y191.22 E.03183
G1 X114.729 Y191.774 E.03183
G1 X113.987 Y192.249 E.03183
G1 X113.197 Y192.639 E.0318
G1 X112.263 Y192.972 E.03581
G1 X111.351 Y193.184 E.03379
G1 X110.476 Y193.284 E.03182
G1 X108.006 Y193.299 E.08918
G1 X107.12 Y193.25 E.03203
G1 X106.25 Y193.105 E.03183
G1 X105.402 Y192.865 E.03183
G1 X104.583 Y192.532 E.03192
G1 X104.129 Y192.3 E.0184
G1 X103.296 Y191.783 E.03541
G1 X102.606 Y191.235 E.03181
G1 X101.98 Y190.615 E.03183
G1 X101.426 Y189.929 E.03183
G1 X100.951 Y189.187 E.03183
G1 X100.561 Y188.397 E.0318
G1 X100.228 Y187.463 E.03581
G1 X100.016 Y186.551 E.03379
G1 X99.915 Y185.673 E.03192
G1 X99.901 Y185.197 E.0172
G1 X99.901 Y167.812 E.62769
G1 X99.852 Y167.671 E.00538
G1 X99.716 Y167.588 E.00578
G1 X98.093 Y167.274 E.05967
G1 X97.109 Y167.061 E.03637
G1 X95.388 Y166.644 E.06391
G1 X93.801 Y166.211 E.05942
G1 X92.835 Y165.924 E.03636
G1 X91.151 Y165.379 E.06391
G1 X89.602 Y164.827 E.0594
G1 X88.228 Y164.295 E.05318
G1 X88.079 Y164.289 E.00538
G1 X87.948 Y164.394 E.00606
G1 X79.417 Y179.169 E.61601
G1 X78.931 Y179.912 E.03205
G1 X78.371 Y180.593 E.03183
G1 X77.739 Y181.207 E.03183
G1 X77.041 Y181.75 E.03192
G1 X76.613 Y182.027 E.01841
G1 X75.749 Y182.49 E.03541
G1 X74.93 Y182.814 E.0318
G1 X74.079 Y183.046 E.03183
G1 X73.208 Y183.183 E.03183
G1 X72.328 Y183.223 E.03183
G1 X71.449 Y183.166 E.0318
G1 X70.474 Y182.987 E.0358
G1 X69.578 Y182.715 E.03379
G1 X68.77 Y182.364 E.03182
G1 X66.623 Y181.142 E.08919
G1 X65.881 Y180.657 E.03203
G1 X65.2 Y180.096 E.03183
G1 X64.586 Y179.464 E.03183
G1 X64.043 Y178.766 E.03192
G1 X63.766 Y178.338 E.01841
G1 X63.303 Y177.474 E.03541
G1 X62.979 Y176.655 E.0318
G1 X62.747 Y175.804 E.03183
G1 X62.61 Y174.934 E.03183
G1 X62.57 Y174.053 E.03183
G1 X62.627 Y173.174 E.0318
G1 X62.806 Y172.199 E.0358
G1 X63.078 Y171.304 E.03379
G1 X63.43 Y170.492 E.03192
G1 X63.656 Y170.073 E.01721
G1 X72.348 Y155.017 E.62769
G1 X72.376 Y154.871 E.00538
G1 X72.3 Y154.73 E.00578
G1 X71.051 Y153.647 E.05968
G1 X70.306 Y152.97 E.03637
G1 X69.113 Y151.837 E.05942
G1 X67.865 Y150.581 E.06391
G1 X67.173 Y149.849 E.03636
G1 X65.987 Y148.535 E.06391
G1 X64.921 Y147.282 E.0594
G1 X63.997 Y146.135 E.05318
G1 X63.871 Y146.055 E.00538
G1 X63.705 Y146.08 E.00606
G1 X48.93 Y154.611 E.61601
G1 X48.138 Y155.012 E.03205
G1 X47.312 Y155.321 E.03183
G1 X46.458 Y155.537 E.03183
G1 X45.582 Y155.658 E.03192
G1 X45.073 Y155.684 E.01841
G1 X44.092 Y155.653 E.03541
G1 X43.221 Y155.524 E.0318
G1 X42.369 Y155.299 E.03183
G1 X41.546 Y154.983 E.03183
G1 X40.763 Y154.577 E.03183
G1 X40.031 Y154.089 E.03179
G1 X39.236 Y153.408 E.03778
G1 X38.637 Y152.762 E.03181
G1 X38.111 Y152.054 E.03183
G1 X36.864 Y149.922 E.08919
G1 X36.463 Y149.131 E.03203
G1 X36.154 Y148.305 E.03183
G1 X35.938 Y147.451 E.03183
G1 X35.817 Y146.575 E.0319
G1 X35.789 Y145.97 E.02188
G1 X35.822 Y145.086 E.03194
G1 X35.951 Y144.214 E.03183
G1 X36.176 Y143.362 E.03183
G1 X36.492 Y142.539 E.03183
G1 X36.898 Y141.756 E.03183
G1 X37.386 Y141.024 E.0318
G1 X38.029 Y140.269 E.0358
G1 X38.713 Y139.63 E.03379
G1 X39.423 Y139.103 E.03192
G1 X39.828 Y138.852 E.01721
G1 X54.884 Y130.16 E.62769
G1 X54.982 Y130.048 E.00538
G1 X54.986 Y129.888 E.00578
G1 X54.446 Y128.325 E.05968
G1 X54.138 Y127.366 E.03637
G1 X53.672 Y125.788 E.05942
G1 X53.22 Y124.077 E.06388
G1 X52.82 Y122.353 E.06391
G1 X52.616 Y121.367 E.03637
G1 X52.319 Y119.748 E.05943
G1 X52.093 Y118.292 E.05318
G1 X52.024 Y118.161 E.00538
G1 X51.867 Y118.099 E.00606
G1 X34.806 Y118.099 E.61601
G1 X33.92 Y118.05 E.03205
G1 X33.05 Y117.905 E.03183
G1 X32.202 Y117.665 E.03183
G1 X31.384 Y117.332 E.0319
G1 X30.846 Y117.054 E.02188
G1 X30.096 Y116.583 E.03194
G1 X29.406 Y116.035 E.03183
G1 X28.78 Y115.415 E.03183
G1 X28.226 Y114.729 E.03183
G1 X27.751 Y113.987 E.03183
G1 X27.361 Y113.197 E.0318
G1 X27.028 Y112.263 E.03581
G1 X26.816 Y111.351 E.03379
G1 X26.716 Y110.476 E.03182
G1 X26.701 Y108.006 E.08918
G1 X26.75 Y107.12 E.03203
G1 X26.895 Y106.25 E.03183
G1 X27.135 Y105.402 E.03183
G1 X27.468 Y104.583 E.03192
G1 X27.7 Y104.129 E.0184
G1 X28.217 Y103.296 E.03541
G1 X28.765 Y102.606 E.03181
G1 X29.385 Y101.98 E.03183
G1 X30.071 Y101.426 E.03183
G1 X30.813 Y100.951 E.03183
G1 X31.603 Y100.561 E.0318
G1 X32.537 Y100.228 E.03581
G1 X33.449 Y100.016 E.03379
G1 X34.327 Y99.915 E.03192
G1 X34.803 Y99.901 E.0172
G1 X52.188 Y99.901 E.62769
G1 X52.329 Y99.852 E.00538
G1 X52.412 Y99.716 E.00578
G1 X52.726 Y98.093 E.05967
G1 X52.939 Y97.109 E.03637
G1 X53.325 Y95.509 E.05941
G1 X53.789 Y93.801 E.06391
G1 X54.076 Y92.835 E.03636
G1 X54.621 Y91.151 E.06391
G1 X55.173 Y89.602 E.05941
G1 X55.705 Y88.228 E.05318
G1 X55.711 Y88.079 E.00538
G1 X55.606 Y87.948 E.00606
G1 X40.831 Y79.417 E.61601
G1 X40.088 Y78.931 E.03205
G1 X39.407 Y78.371 E.03183
G1 X38.793 Y77.739 E.03183
G1 X38.25 Y77.041 E.03192
G1 X37.973 Y76.613 E.01841
G1 X37.51 Y75.749 E.03541
G1 X37.186 Y74.93 E.0318
G1 X36.954 Y74.079 E.03183
