; HEADER_BLOCK_START
; generated by OrcaSlicer 2.1.0 on 2025-03-13 at 18:53:19
; total layer number: 138
; filament_density: 1.27
; filament_diameter: 1.75
; max_z_height: 24.00
; HEADER_BLOCK_END

; THUMBNAIL_BLOCK_START

;
; THUMBNAIL_BLOCK_END

; THUMBNAIL_BLOCK_START

;
; THUMBNAIL_BLOCK_END

; external perimeters extrusion width = 0.42mm
; perimeters extrusion width = 0.45mm
; infill extrusion width = 0.45mm
; solid infill extrusion width = 0.42mm
; top infill extrusion width = 0.42mm
; support material extrusion width = 0.42mm
; first layer extrusion width = 0.50mm

; EXECUTABLE_BLOCK_START
EXCLUDE_OBJECT_DEFINE NAME=крюк_длинный.stp_id_0_copy_0 CENTER=142.05,111.595 POLYGON=[[118.3,84.3611],[121.1,73.0611],[131.683,73.0611],[162.531,115.95],[162.795,116.396],[163.048,116.847],[163.291,117.304],[163.523,117.767],[163.745,118.235],[163.956,118.708],[164.155,119.186],[164.344,119.668],[164.522,120.154],[164.688,120.644],[164.843,121.138],[164.987,121.635],[165.119,122.136],[165.24,122.639],[165.349,123.146],[165.446,123.654],[165.531,124.165],[165.605,124.677],[165.667,125.191],[165.717,125.706],[165.756,126.223],[165.782,126.74],[165.797,127.257],[165.799,127.775],[165.79,128.292],[165.769,128.81],[165.736,129.326],[165.691,129.842],[165.634,130.357],[165.565,130.87],[165.485,131.381],[165.393,131.891],[165.289,132.398],[165.173,132.903],[165.046,133.404],[164.907,133.903],[164.757,134.399],[164.596,134.891],[164.423,135.379],[164.239,135.863],[164.044,136.342],[163.838,136.817],[163.621,137.287],[163.394,137.752],[163.156,138.212],[162.907,138.666],[162.648,139.114],[162.378,139.556],[162.099,139.992],[161.81,140.421],[161.51,140.844],[161.201,141.259],[160.883,141.668],[160.555,142.068],[160.219,142.462],[159.873,142.847],[159.518,143.224],[159.155,143.593],[158.784,143.954],[158.404,144.306],[158.016,144.649],[157.621,144.983],[157.218,145.308],[156.808,145.623],[156.39,145.929],[155.965,146.226],[155.534,146.512],[155.096,146.789],[154.653,147.055],[154.203,147.311],[153.747,147.557],[153.286,147.792],[152.819,148.016],[152.348,148.23],[151.871,148.433],[151.39,148.624],[150.905,148.805],[150.416,148.974],[149.923,149.132],[149.426,149.279],[148.927,149.414],[148.424,149.538],[147.918,149.65],[147.411,149.75],[146.901,149.839],[146.389,149.916],[145.875,149.981],[145.36,150.035],[144.844,150.076],[144.327,150.106],[143.81,150.123],[143.292,150.129],[142.774,150.123],[142.257,150.105],[141.74,150.075],[141.224,150.033],[140.709,149.98],[140.196,149.914],[139.684,149.837],[139.174,149.748],[138.666,149.647],[138.161,149.534],[137.658,149.41],[137.158,149.275],[136.662,149.128],[136.169,148.969],[135.68,148.8],[135.195,148.619],[134.714,148.427],[134.238,148.224],[133.766,148.01],[133.3,147.785],[132.839,147.55],[132.383,147.304],[131.934,147.047],[131.49,146.781],[131.052,146.504],[130.621,146.217],[130.197,145.92],[129.78,145.614],[129.369,145.298],[128.967,144.973],[128.571,144.639],[128.184,144.295],[127.804,143.943],[127.433,143.582],[127.07,143.213],[126.716,142.836],[126.371,142.45],[126.034,142.057],[125.707,141.655],[125.389,141.247],[125.08,140.831],[124.781,140.409],[124.492,139.979],[124.213,139.543],[123.944,139.101],[123.685,138.652],[123.437,138.198],[123.199,137.738],[122.971,137.273],[122.755,136.803],[122.549,136.328],[122.355,135.848],[122.264,135.614],[122.184,135.4],[122.177,135.38],[122.032,134.972],[122.024,134.949],[121.895,134.562],[121.873,134.493],[121.766,134.15],[121.731,134.035],[121.632,133.69],[121.612,133.621],[121.508,133.229],[121.502,133.205],[121.4,132.789],[121.395,132.768],[121.306,132.374],[121.291,132.306],[121.22,131.958],[121.199,131.846],[121.135,131.498],[121.123,131.429],[121.059,131.035],[121.055,131.01],[120.996,130.589],[120.993,130.57],[120.944,130.166],[120.937,130.103],[120.9,129.742],[120.89,129.635],[120.864,129.318],[118.3,97.0987],[118.3,84.3611]]
M73 P0 R28
M106 S0
M106 P2 S0
;TYPE:Custom
M140 S0
M104 S0 
START_PRINT EXTRUDER_TEMP=250 BED_TEMP=90
M106 P3 S153
G90
G21
M83 ; use relative distances for extrusion
; filament start gcode
M106 S0
M106 P2 S0
;LAYER_CHANGE
;Z:0.2
;HEIGHT:0.2
;BEFORE_LAYER_CHANGE
;0.2
G92 E0

G1 E-.6 F2400
;_SET_FAN_SPEED_CHANGING_LAYER
SET_VELOCITY_LIMIT ACCEL=500 ACCEL_TO_DECEL=250
SET_VELOCITY_LIMIT SQUARE_CORNER_VELOCITY=9
EXCLUDE_OBJECT_START NAME=крюк_длинный.stp_id_0_copy_0
G1 Z.2 F42000
G1 X120.855 Y131.083
G1 Z.2
G1 E.6 F2400
;TYPE:Support interface
;WIDTH:0.5
G1 F3600
G1 X120.7 Y131.267 E.00869
G1 X120.817 Y131.921 E.02399
G1 X121 Y132.782 E.03176
G1 X121 Y132.989 E.00747
G1 X120.656 Y132.989 E.01241
G1 X120.656 Y128.235 E.17165
G1 X121 Y128.235 E.01241
G1 X121 Y130.989 E.09945
G1 X121.877 Y130.989 E.03167
G1 X121.877 Y128.235 E.09946
G1 X122.754 Y128.235 E.03167
G1 X122.754 Y130.989 E.09946
G1 X123.631 Y130.989 E.03167
G1 X123.631 Y128.235 E.09947
G1 X124.508 Y128.235 E.03167
G1 X124.508 Y130.99 E.09947
G1 X125.385 Y130.99 E.03167
G1 X125.385 Y128.235 E.09948
G1 X126.262 Y128.235 E.03167
G1 X126.262 Y130.99 E.09948
G1 X127.139 Y130.99 E.03167
G1 X127.139 Y128.235 E.09949
G1 X127.787 Y128.235 E.02339
G1 X127.787 Y130.99 E.09949
G1 X127.328 Y130.99 E.01659
;WIPE_START
G1 X127.787 Y130.99 E-.1378
G1 X127.787 Y129.449 E-.4622
;WIPE_END
G1 Z.4 F42000
G1 X129.726 Y129.796 Z.4
G1 Z.2
G1 E.6 F2400
;TYPE:Support
G1 F3600
G1 X128.226 Y129.796 E.05415
G1 X128.226 Y127.796 E.07221
G1 X120.217 Y127.796 E.28916
G1 X120.217 Y129.796 E.07221
G1 X118.717 Y129.796 E.05415
G1 X118.717 Y123.919 E.21219
G1 X129.726 Y123.919 E.39746
G1 X129.726 Y129.727 E.20971
G1 X129.314 Y124.331 F42000
G1 F3600
G1 X129.314 Y129.385 E.18248
G1 X128.637 Y129.385 E.02445
G1 X128.637 Y127.385 E.07221
G1 X119.806 Y127.385 E.31886
G1 X119.806 Y129.385 E.07221
G1 X119.129 Y129.385 E.02445
G1 X119.129 Y124.331 E.18248
G1 X129.314 Y124.331 E.36775
G1 X128.806 Y124.838 F42000
G1 F3600
G1 X128.806 Y126.877 E.0736
G1 X119.637 Y126.877 E.33108
G1 X119.637 Y124.838 E.0736
G1 X128.806 Y124.838 E.33108
G1 X128.298 Y125.346 F42000
G1 F3600
G1 X128.298 Y126.369 E.03692
G1 X120.144 Y126.369 E.29441
G1 X120.144 Y125.346 E.03692
G1 X128.298 Y125.346 E.29441
;WIPE_START
G1 X126.298 Y125.346 E-.6
;WIPE_END
G1 Z.4 F42000
G1 X134.48 Y118.288 Z.4
G1 Z.2
G1 E.6 F2400
G1 F3600
G1 X118.717 Y118.288 E.56911
G1 X118.717 Y104.025 E.51496
G1 X116.34 Y104.025 E.08583
G1 X116.34 Y81.132 E.82659
G1 X118.717 Y81.132 E.08583
G1 X118.717 Y69.246 E.42913
G1 X134.48 Y69.246 E.56911
G1 X134.48 Y118.219 E1.76821
G1 X134.068 Y117.876 F42000
G1 F3600
G1 X119.129 Y117.876 E.53941
G1 X119.129 Y103.614 E.51496
G1 X116.752 Y103.614 E.08583
G1 X116.752 Y81.543 E.79689
G1 X119.129 Y81.543 E.08583
G1 X119.129 Y69.658 E.42913
G1 X134.068 Y69.658 E.53941
G1 X134.068 Y117.876 E1.74098
G1 X133.56 Y117.368 F42000
G1 F3600
G1 X119.637 Y117.368 E.50273
G1 X119.637 Y103.106 E.51496
G1 X117.26 Y103.106 E.08583
G1 X117.26 Y82.051 E.76021
M73 P0 R27
G1 X119.637 Y82.051 E.08583
G1 X119.637 Y70.166 E.42913
G1 X133.56 Y70.166 E.50273
G1 X133.56 Y117.368 E1.70431
G1 X133.053 Y116.861 F42000
G1 F3600
G1 X120.144 Y116.861 E.46606
G1 X120.144 Y102.598 E.51496
M73 P1 R27
G1 X117.767 Y102.598 E.08583
G1 X117.767 Y82.559 E.72354
G1 X120.144 Y82.559 E.08583
G1 X120.144 Y70.673 E.42913
G1 X133.053 Y70.673 E.46606
G1 X133.053 Y116.861 E1.66764
G1 X132.545 Y116.353 F42000
G1 F3600
G1 X120.652 Y116.353 E.42939
G1 X120.652 Y102.09 E.51496
G1 X118.275 Y102.09 E.08583
G1 X118.275 Y83.067 E.68687
G1 X120.652 Y83.067 E.08583
G1 X120.652 Y71.181 E.42913
G1 X132.545 Y71.181 E.42939
G1 X132.545 Y116.353 E1.63096
G1 X132.037 Y115.845 F42000
G1 F3600
G1 X121.16 Y115.845 E.39271
G1 X121.16 Y101.582 E.51496
G1 X118.783 Y101.582 E.08583
G1 X118.783 Y83.575 E.65019
G1 X121.16 Y83.575 E.08583
G1 X121.16 Y71.689 E.42913
G1 X132.037 Y71.689 E.39271
G1 X132.037 Y115.845 E1.59429
G1 X131.529 Y115.337 F42000
G1 F3600
G1 X121.668 Y115.337 E.35604
G1 X121.668 Y101.075 E.51496
G1 X119.291 Y101.075 E.08583
G1 X119.291 Y84.082 E.61352
G1 X121.668 Y84.082 E.08583
G1 X121.668 Y72.197 E.42913
G1 X131.529 Y72.197 E.35604
G1 X131.529 Y115.337 E1.55761
G1 X131.021 Y114.829 F42000
G1 F3600
G1 X122.176 Y114.829 E.31936
G1 X122.176 Y100.567 E.51496
G1 X119.799 Y100.567 E.08583
G1 X119.799 Y84.59 E.57684
G1 X122.176 Y84.59 E.08583
G1 X122.176 Y72.705 E.42913
G1 X131.021 Y72.705 E.31936
G1 X131.021 Y114.829 E1.52094
G1 X130.513 Y114.321 F42000
G1 F3600
G1 X122.684 Y114.321 E.28269
G1 X122.684 Y100.059 E.51496
G1 X120.307 Y100.059 E.08583
G1 X120.307 Y85.098 E.54017
G1 X122.684 Y85.098 E.08583
G1 X122.684 Y73.213 E.42913
G1 X130.513 Y73.213 E.28269
G1 X130.513 Y114.321 E1.48427
G1 X130.005 Y113.813 F42000
G1 F3600
G1 X123.192 Y113.813 E.24602
G1 X123.192 Y99.551 E.51496
G1 X120.815 Y99.551 E.08583
G1 X120.815 Y85.606 E.5035
G1 X123.192 Y85.606 E.08583
G1 X123.192 Y73.721 E.42913
G1 X130.005 Y73.721 E.24602
G1 X130.005 Y113.813 E1.44759
M73 P2 R27
G1 X129.498 Y113.306 F42000
G1 F3600
G1 X123.7 Y113.306 E.20934
G1 X123.7 Y99.043 E.51496
G1 X121.322 Y99.043 E.08583
G1 X121.322 Y86.114 E.46682
G1 X123.7 Y86.114 E.08583
G1 X123.7 Y74.228 E.42913
G1 X129.498 Y74.228 E.20934
G1 X129.498 Y113.306 E1.41092
G1 X128.99 Y112.798 F42000
G1 F3600
G1 X124.207 Y112.798 E.17267
G1 X124.207 Y98.535 E.51496
G1 X121.83 Y98.535 E.08583
G1 X121.83 Y86.622 E.43015
G1 X124.207 Y86.622 E.08583
G1 X124.207 Y74.736 E.42913
G1 X128.99 Y74.736 E.17267
G1 X128.99 Y112.798 E1.37424
G1 X128.482 Y112.29 F42000
G1 F3600
G1 X124.715 Y112.29 E.13599
G1 X124.715 Y98.027 E.51496
G1 X122.338 Y98.027 E.08583
G1 X122.338 Y87.13 E.39347
G1 X124.715 Y87.13 E.08583
G1 X124.715 Y75.244 E.42913
G1 X128.482 Y75.244 E.13599
G1 X128.482 Y112.29 E1.33757
G1 X127.974 Y111.782 F42000
G1 F3600
G1 X125.223 Y111.782 E.09932
G1 X125.223 Y97.52 E.51496
G1 X122.846 Y97.52 E.08583
G1 X122.846 Y87.637 E.3568
G1 X125.223 Y87.637 E.08583
G1 X125.223 Y75.752 E.42913
G1 X127.974 Y75.752 E.09932
G1 X127.974 Y111.782 E1.3009
G1 X127.466 Y111.274 F42000
G1 F3600
G1 X125.731 Y111.274 E.06265
G1 X125.731 Y97.012 E.51496
G1 X123.354 Y97.012 E.08583
G1 X123.354 Y88.145 E.32013
G1 X125.731 Y88.145 E.08583
G1 X125.731 Y76.26 E.42913
G1 X127.466 Y76.26 E.06265
G1 X127.466 Y111.274 E1.26422
G1 X126.958 Y110.766 F42000
G1 F3600
G1 X126.239 Y110.766 E.02597
G1 X126.239 Y96.504 E.51496
G1 X123.862 Y96.504 E.08583
G1 X123.862 Y88.653 E.28345
G1 X126.239 Y88.653 E.08583
G1 X126.239 Y76.768 E.42913
G1 X126.958 Y76.768 E.02597
G1 X126.958 Y110.766 E1.22755
G1 X126.45 Y95.996 F42000
G1 F3600
G1 X124.37 Y95.996 E.07512
G1 X124.37 Y89.161 E.24678
G1 X126.45 Y89.161 E.07512
G1 X126.45 Y95.996 E.24678
G1 X125.942 Y95.488 F42000
G1 F3600
G1 X124.878 Y95.488 E.03845
G1 X124.878 Y89.669 E.2101
G1 X125.942 Y89.669 E.03845
G1 X125.942 Y95.488 E.2101
;WIPE_START
G1 X125.942 Y93.488 E-.6
;WIPE_END
G1 Z.4 F42000
G1 X160.767 Y124.416 Z.4
G1 Z.2
G1 E.6 F2400
;TYPE:Inner wall
;WIDTH:0.499999
G1 F3600
G1 X162.325 Y119.414 E.18917
G1 X162.515 Y119.854 E.0173
G1 X162.854 Y120.753 E.03471
G1 X163.152 Y121.667 E.03468
G1 X163.405 Y122.591 E.03461
G1 X163.715 Y124.031 E.05319
G1 X163.874 Y125.139 E.04039
G1 X163.954 Y125.892 E.02734
G1 X164.012 Y126.844 E.03444
G1 X164.028 Y127.763 E.0332
G1 X164 Y128.71 E.03418
G1 X163.874 Y130.151 E.05225
G1 X163.738 Y131.086 E.03411
G1 X163.557 Y132.022 E.03444
G1 X163.334 Y132.95 E.03444
G1 X163.068 Y133.866 E.03444
G1 X162.76 Y134.768 E.03443
G1 X162.413 Y135.649 E.03418
G1 X161.807 Y136.963 E.05225
G1 X161.363 Y137.797 E.0341
G1 X160.876 Y138.617 E.03444
G1 X160.352 Y139.414 E.03444
G1 X159.792 Y140.186 E.03444
G1 X159.197 Y140.931 E.03444
G1 X158.574 Y141.642 E.0341
G1 X157.558 Y142.675 E.05232
G1 X156.858 Y143.309 E.0341
G1 X156.122 Y143.916 E.03444
G1 X155.359 Y144.488 E.03444
G1 X154.571 Y145.025 E.03444
G1 X153.759 Y145.525 E.03444
G1 X152.932 Y145.983 E.03411
G1 X151.626 Y146.611 E.05232
G1 X150.753 Y146.971 E.0341
G1 X149.856 Y147.293 E.03444
G1 X148.944 Y147.574 E.03444
G1 X148.02 Y147.813 E.03444
G1 X147.087 Y148.009 E.03444
G1 X146.155 Y148.16 E.0341
G1 X144.713 Y148.309 E.05232
G1 X143.77 Y148.352 E.0341
G1 X142.816 Y148.352 E.03444
G1 X141.863 Y148.308 E.03444
G1 X140.913 Y148.22 E.03444
G1 X139.969 Y148.088 E.03444
G1 X139.04 Y147.915 E.0341
G1 X137.633 Y147.568 E.05232
G1 X136.731 Y147.289 E.0341
G1 X135.833 Y146.966 E.03444
G1 X134.952 Y146.602 E.03444
G1 X134.087 Y146.198 E.03444
G1 X133.243 Y145.754 E.03444
G1 X132.42 Y145.273 E.03444
G1 X131.628 Y144.758 E.0341
G1 X130.459 Y143.901 E.05233
G1 X129.731 Y143.299 E.0341
G1 X129.025 Y142.659 E.03444
G1 X128.348 Y141.986 E.03444
G1 X127.704 Y141.283 E.03443
G1 X127.092 Y140.551 E.03444
G1 X126.52 Y139.799 E.0341
G1 X125.711 Y138.597 E.05232
G1 X125.23 Y137.784 E.0341
G1 X124.786 Y136.951 E.0341
G1 X124.183 Y135.641 E.05205
G1 X123.953 Y135.04 E.02325
G1 X127.151 Y135.041 E.11545
G1 X127.533 Y135.82 E.03135
G1 X127.86 Y136.427 E.02487
G1 X128.331 Y137.207 E.03293
G1 X128.902 Y138.044 E.03658
G1 X129.464 Y138.782 E.03348
G1 X130.094 Y139.52 E.03503
G1 X130.7 Y140.161 E.03188
G1 X131.659 Y141.05 E.04721
G1 X132.263 Y141.555 E.02842
G1 X133.299 Y142.312 E.04633
G1 X133.958 Y142.742 E.02841
G1 X134.651 Y143.152 E.02907
G1 X135.481 Y143.588 E.03385
G1 X136.364 Y143.99 E.03503
G1 X137.185 Y144.315 E.03188
G1 X137.668 Y144.478 E.01842
G1 X138.42 Y144.712 E.02841
G1 X139.125 Y144.902 E.02637
G1 X140.439 Y145.163 E.04838
G1 X141.236 Y145.276 E.02906
G1 X142.037 Y145.354 E.02907
G1 X142.967 Y145.397 E.03359
G1 X143.937 Y145.388 E.03503
G1 X144.905 Y145.327 E.03503
G1 X145.868 Y145.213 E.03503
G1 X146.824 Y145.047 E.03503
G1 X148.132 Y144.725 E.04865
G1 X148.902 Y144.489 E.02906
G1 X149.661 Y144.221 E.02906
G1 X150.514 Y143.869 E.03332
G1 X151.546 Y143.367 E.04143
G1 X152.26 Y142.975 E.0294
G1 X153.62 Y142.091 E.05858
G1 X154.267 Y141.611 E.02907
G1 X155.01 Y140.995 E.03485
G1 X156.016 Y140.044 E.04999
G1 X157.034 Y138.905 E.05514
G1 X157.9 Y137.76 E.05182
G1 X158.43 Y136.95 E.03497
G1 X158.916 Y136.11 E.03502
G1 X159.356 Y135.246 E.03502
M73 P3 R27
G1 X159.747 Y134.358 E.03504
G1 X160.08 Y133.48 E.03388
G1 X160.515 Y132.036 E.05446
G1 X160.816 Y130.625 E.05208
G1 X160.953 Y129.672 E.03477
G1 X161.043 Y128.57 E.03993
G1 X161.07 Y127.738 E.03006
G1 X161.048 Y126.747 E.0358
G1 X160.916 Y125.299 E.05249
G1 X160.773 Y124.456 E.03086
G1 X160.298 Y124.385 F42000
G1 F3600
G1 X162.24 Y118.148 E.23586
G1 X162.553 Y118.79 E.02577
G1 X162.942 Y119.692 E.03549
G1 X163.289 Y120.611 E.03546
G1 X163.592 Y121.545 E.03544
G1 X163.852 Y122.495 E.03556
G1 X164.166 Y123.951 E.05378
G1 X164.328 Y125.089 E.04151
G1 X164.411 Y125.863 E.0281
G1 X164.469 Y126.836 E.0352
G1 X164.485 Y127.766 E.03358
G1 X164.456 Y128.736 E.03503
G1 X164.328 Y130.204 E.0532
G1 X164.189 Y131.162 E.03496
G1 X164.004 Y132.119 E.0352
G1 X163.776 Y133.067 E.0352
G1 X163.504 Y134.003 E.0352
G1 X163.189 Y134.926 E.03519
G1 X162.834 Y135.829 E.03504
G1 X162.217 Y137.167 E.0532
G1 X161.761 Y138.021 E.03496
G1 X161.264 Y138.859 E.0352
G1 X160.728 Y139.674 E.0352
G1 X160.156 Y140.463 E.0352
G1 X159.547 Y141.225 E.0352
G1 X158.909 Y141.953 E.03496
G1 X157.874 Y143.005 E.05327
G1 X157.157 Y143.655 E.03496
G1 X156.405 Y144.275 E.0352
G1 X155.625 Y144.86 E.0352
G1 X154.819 Y145.409 E.0352
G1 X153.989 Y145.92 E.03519
G1 X153.142 Y146.389 E.03496
G1 X151.813 Y147.029 E.05327
G1 X150.918 Y147.398 E.03496
G1 X150 Y147.727 E.0352
G1 X149.068 Y148.014 E.0352
G1 X148.124 Y148.258 E.0352
G1 X147.17 Y148.458 E.0352
G1 X146.215 Y148.613 E.03496
G1 X144.747 Y148.765 E.05327
G1 X143.78 Y148.809 E.03496
G1 X142.805 Y148.809 E.0352
G1 X141.831 Y148.764 E.0352
G1 X140.861 Y148.674 E.0352
G1 X139.895 Y148.539 E.0352
G1 X138.943 Y148.362 E.03496
G1 X137.511 Y148.008 E.05327
G1 X136.586 Y147.723 E.03496
G1 X135.668 Y147.392 E.0352
G1 X134.767 Y147.021 E.0352
G1 X133.884 Y146.607 E.0352
G1 X133.021 Y146.154 E.0352
G1 X132.18 Y145.662 E.0352
G1 X131.368 Y145.135 E.03496
G1 X130.178 Y144.262 E.05328
G1 X129.432 Y143.645 E.03496
G1 X128.71 Y142.99 E.0352
G1 X128.019 Y142.303 E.0352
G1 X127.36 Y141.584 E.03519
