; HEADER_BLOCK_START
; generated by OrcaSlicer 2.1.0 on 2025-01-08 at 21:20:12
; total layer number: 25
; filament_density: 1.27
; filament_diameter: 1.75
; max_z_height: 5.00
; HEADER_BLOCK_END

; THUMBNAIL_BLOCK_START

;
; THUMBNAIL_BLOCK_END

; THUMBNAIL_BLOCK_START

;
; THUMBNAIL_BLOCK_END

; external perimeters extrusion width = 0.42mm
; perimeters extrusion width = 0.45mm
; infill extrusion width = 0.45mm
; solid infill extrusion width = 0.42mm
; top infill extrusion width = 0.42mm
; support material extrusion width = 0.42mm
; first layer extrusion width = 0.50mm

; external perimeters extrusion width = 0.42mm
; perimeters extrusion width = 0.45mm
; infill extrusion width = 0.45mm
; solid infill extrusion width = 0.42mm
; top infill extrusion width = 0.42mm
; support material extrusion width = 0.42mm
; first layer extrusion width = 0.50mm

; EXECUTABLE_BLOCK_START
EXCLUDE_OBJECT_DEFINE NAME=держать_писюны_2ч_MIR1_MIR.stp_id_0_copy_0 CENTER=131.133,150.945 POLYGON=[[100.101,173.248],[102.226,125.948],[162.166,128.639],[161.424,145.171],[160.04,175.942],[100.101,173.248]]
EXCLUDE_OBJECT_DEFINE NAME=держать_писюны_3ч_MIR.stp_id_1_copy_0 CENTER=113.091,94.5963 POLYGON=[[66.3415,89.7213],[102.713,78.5671],[102.893,78.5149],[103.076,78.4741],[103.262,78.4448],[103.449,78.4272],[103.637,78.4213],[156.841,78.4213],[157.03,78.4272],[157.217,78.445],[157.404,78.4744],[157.588,78.5156],[157.769,78.5681],[157.946,78.632],[158.119,78.7068],[158.287,78.7924],[158.449,78.8883],[158.605,78.9943],[158.754,79.1098],[158.895,79.2344],[159.028,79.3677],[159.153,79.509],[159.269,79.6579],[159.374,79.8138],[159.47,79.976],[159.556,80.144],[159.631,80.3169],[159.695,80.4943],[159.747,80.6752],[159.788,80.8592],[159.818,81.0453],[159.836,81.2329],[159.841,81.4213],[159.841,107.771],[159.836,107.96],[159.818,108.147],[159.788,108.333],[159.747,108.517],[159.695,108.698],[159.631,108.876],[159.556,109.049],[159.47,109.217],[159.374,109.379],[159.269,109.535],[159.153,109.684],[159.028,109.825],[158.895,109.958],[158.754,110.083],[158.605,110.198],[158.449,110.304],[158.287,110.4],[158.119,110.486],[157.946,110.561],[157.769,110.624],[157.588,110.677],[157.404,110.718],[157.217,110.748],[157.03,110.765],[156.841,110.771],[103.637,110.771],[103.449,110.765],[103.262,110.748],[103.076,110.719],[102.893,110.678],[102.713,110.626],[66.3415,99.4713],[66.3415,89.7213]]
M73 P0 R24
M106 S0
M106 P2 S0
;TYPE:Custom
M140 S0
M104 S0 
START_PRINT EXTRUDER_TEMP=250 BED_TEMP=80
G90
G21
M83 ; use relative distances for extrusion
; filament start gcode
M106 S0
M106 P2 S0
;LAYER_CHANGE
;Z:0.2
;HEIGHT:0.2
;BEFORE_LAYER_CHANGE
;0.2
G92 E0

G1 E-.6 F2400
;_SET_FAN_SPEED_CHANGING_LAYER
SET_VELOCITY_LIMIT ACCEL=500 ACCEL_TO_DECEL=250
SET_VELOCITY_LIMIT SQUARE_CORNER_VELOCITY=9
EXCLUDE_OBJECT_START NAME=держать_писюны_2ч_MIR1_MIR.stp_id_0_copy_0
G1 Z.2 F42000
G1 X132.926 Y166.598
G1 Z.2
G1 E.6 F2400
;TYPE:Inner wall
;WIDTH:0.499999
G1 F3600
G1 X132.633 Y166.341 E.01425
G1 X132.081 Y166.021 E.02325
G1 X131.609 Y165.832 E.01858
G1 X131.263 Y165.737 E.01307
G1 X130.464 Y165.638 E.02939
G1 X129.835 Y165.684 E.02302
G1 X129.333 Y165.794 E.01876
G1 X128.735 Y166.019 E.02331
G1 X128.287 Y166.286 E.019
G1 X127.776 Y166.677 E.02351
G1 X127.274 Y167.238 E.02745
G1 X127.016 Y167.668 E.0183
G1 X126.793 Y168.14 E.01905
G1 X126.64 Y168.652 E.01949
G1 X126.56 Y169.155 E.01858
G1 X126.551 Y169.619 E.01695
G1 X126.626 Y170.315 E.02553
G1 X126.789 Y170.869 E.02108
G1 X127.065 Y171.444 E.02328
G1 X127.58 Y172.14 E.0316
G1 X127.95 Y172.489 E.01856
G1 X128.295 Y172.742 E.01561
G1 X122.364 Y172.476 E.21664
G1 X122.99 Y172.134 E.02604
G1 X123.488 Y171.73 E.0234
G1 X124.001 Y171.107 E.02943
G1 X124.231 Y170.694 E.01725
G1 X124.475 Y170.106 E.02322
G1 X124.597 Y169.498 E.02264
G1 X124.622 Y169.04 E.01674
G1 X124.565 Y168.332 E.02592
G1 X124.416 Y167.775 E.02103
G1 X124.15 Y167.194 E.02328
G1 X123.689 Y166.537 E.02931
G1 X123.276 Y166.134 E.02103
G1 X122.809 Y165.802 E.02091
G1 X122.305 Y165.55 E.02058
G1 X121.79 Y165.387 E.01969
G1 X121.267 Y165.278 E.01949
G1 X120.694 Y165.26 E.02094
G1 X120.137 Y165.338 E.0205
G1 X119.687 Y165.45 E.01692
G1 X118.954 Y165.777 E.0293
G1 X118.48 Y166.106 E.02104
G1 X118.057 Y166.511 E.02137
G1 X117.722 Y166.949 E.02011
G1 X117.414 Y167.506 E.02323
G1 X117.234 Y168.05 E.02091
G1 X117.12 Y168.574 E.01957
G1 X117.092 Y169.12 E.01992
G1 X117.158 Y169.707 E.02156
G1 X117.322 Y170.322 E.02325
G1 X117.68 Y171.042 E.02933
G1 X118.223 Y171.714 E.03151
G1 X118.711 Y172.123 E.02324
G1 X119.058 Y172.327 E.01468
G1 X112.254 Y172.021 E.24847
G1 X112.78 Y171.778 E.02114
G1 X113.294 Y171.411 E.02303
G1 X113.857 Y170.83 E.02955
G1 X114.197 Y170.297 E.02303
G1 X114.403 Y169.838 E.01837
G1 X114.578 Y169.223 E.02333
G1 X114.641 Y168.642 E.02133
G1 X114.604 Y168.077 E.02065
G1 X114.494 Y167.492 E.02173
G1 X114.264 Y166.874 E.02405
G1 X113.97 Y166.395 E.0205
G1 X113.663 Y165.998 E.0183
G1 X113.301 Y165.649 E.01837
G1 X112.786 Y165.28 E.02312
G1 X112.288 Y165.047 E.02004
G1 X111.753 Y164.863 E.02064
G1 X111.184 Y164.771 E.02104
G1 X110.547 Y164.776 E.02324
G1 X109.985 Y164.864 E.02076
G1 X109.511 Y165.025 E.01826
G1 X108.967 Y165.277 E.02189
G1 X108.493 Y165.606 E.02103
G1 X108.037 Y166.052 E.02328
G1 X107.547 Y166.764 E.03153
G1 X107.233 Y167.568 E.03151
G1 X107.109 Y168.361 E.02929
G1 X107.138 Y168.998 E.02326
G1 X107.32 Y169.781 E.02932
G1 X107.553 Y170.308 E.02104
G1 X107.903 Y170.841 E.02328
G1 X108.509 Y171.457 E.03153
G1 X109.16 Y171.882 E.02837
G1 X101.95 Y171.558 E.26334
G1 X103.916 Y127.797 E1.59829
G1 X154.94 Y130.087 E1.86352
G1 X154.529 Y130.728 E.02777
G1 X154.296 Y131.321 E.02325
G1 X154.136 Y132.172 E.03157
G1 X154.169 Y133.035 E.03152
G1 X154.368 Y133.811 E.02921
G1 X154.647 Y134.393 E.02355
G1 X154.93 Y134.816 E.01858
G1 X155.162 Y135.089 E.01307
G1 X155.768 Y135.621 E.02942
G1 X156.264 Y135.917 E.02108
G1 X156.857 Y136.151 E.02327
G1 X157.708 Y136.31 E.03157
G1 X158.514 Y136.289 E.02943
G1 X159.136 Y136.147 E.02327
G1 X159.611 Y135.965 E.01856
G1 X160.075 Y135.702 E.01948
G1 X158.35 Y174.093 E1.40216
G1 X132.222 Y172.919 E.95428
G1 X132.347 Y172.851 E.00518
G1 X133.043 Y172.336 E.0316
G1 X133.575 Y171.73 E.02942
G1 X133.895 Y171.178 E.02326
G1 X134.179 Y170.361 E.0316
G1 X134.278 Y169.56 E.02942
G1 X134.243 Y168.984 E.02108
G1 X134.101 Y168.362 E.02328
G1 X133.919 Y167.886 E.01857
G1 X133.604 Y167.344 E.02288
G1 X133.239 Y166.873 E.02176
G1 X132.957 Y166.625 E.0137
;WIPE_START
G1 X132.633 Y166.341 E-.12921
G1 X132.081 Y166.021 E-.19116
G1 X131.609 Y165.832 E-.15278
G1 X131.263 Y165.737 E-.10749
G1 X131.199 Y165.729 E-.01937
;WIPE_END
G1 Z.4 F42000
G1 X131.685 Y173.352 Z.4
G1 Z.2
G1 E.6 F2400
G1 F3600
G1 X131.432 Y173.341 E.00925
G1 X130.627 Y173.32 E.02938
;WIDTH:0.469799
G1 X129.87 Y173.287 E.02583
;WIDTH:0.497464
G1 X129.273 Y173.245 E.02173
;WIDTH:0.499999
G1 X122.571 Y172.943 E.24477
;WIDTH:0.525036
G1 X121.706 Y172.891 E.03332
;WIDTH:0.544128
G1 X120.538 Y172.834 E.04679
;WIDTH:0.534005
G1 X119.779 Y172.817 E.02976
;WIDTH:0.499999
G1 X111.662 Y172.452 E.29645
;WIDTH:0.53068
G1 X111.249 Y172.418 E.01614
;WIDTH:0.561361
G1 X110.836 Y172.384 E.01715
;WIDTH:0.586964
G1 X110.062 Y172.337 E.0337
G1 X109.779 Y172.346 E.01229
;WIDTH:0.543482
G1 X109.496 Y172.355 E.0113
;WIDTH:0.499999
G1 X101.473 Y171.994 E.29304
G1 X103.48 Y127.32 E1.63164
G1 X156.027 Y129.679 E1.91918
G1 X155.72 Y129.909 E.014
G1 X155.341 Y130.31 E.02014
G1 X154.947 Y130.914 E.02634
G1 X154.741 Y131.426 E.02014
G1 X154.593 Y132.175 E.02785
G1 X154.616 Y132.937 E.02781
G1 X154.789 Y133.632 E.02612
G1 X155.026 Y134.138 E.02041
G1 X155.475 Y134.756 E.02787
G1 X156.014 Y135.236 E.02631
G1 X156.45 Y135.5 E.01859
G1 X156.962 Y135.706 E.02016
G1 X157.711 Y135.853 E.02785
G1 X158.433 Y135.839 E.02632
G1 X158.972 Y135.721 E.02016
G1 X159.674 Y135.421 E.02785
G1 X160.097 Y135.137 E.01856
G1 X160.579 Y134.666 E.02461
G1 X158.787 Y174.57 E1.45741
G1 X131.725 Y173.354 E.98835
;WIPE_START
G1 X131.432 Y173.341 E-.08803
G1 X130.627 Y173.32 E-.24159
G1 X129.87 Y173.287 E-.22742
G1 X129.727 Y173.277 E-.04296
;WIPE_END
G1 Z.4 F42000
G1 X160.115 Y129.829 Z.4
G1 Z.2
G1 E.6 F2400
;WIDTH:0.432058
G1 F3600
G1 X160.829 Y129.86 E.02222
G1 X160.796 Y130.595 E.02284
G1 X160.491 Y130.186 E.01583
G1 X160.144 Y129.857 E.01488
;WIPE_START
G1 X160.829 Y129.86 E-.20572
G1 X160.796 Y130.595 E-.22056
G1 X160.491 Y130.186 E-.15288
G1 X160.441 Y130.139 E-.02084
;WIPE_END
G1 Z.4 F42000
G1 X155.058 Y132.617 Z.4
G1 Z.2
G1 E.6 F2400
;WIDTH:0.499999
G1 F3600
G1 X155.05 Y132.179 E.01599
G1 X155.186 Y131.531 E.02413
G1 X155.427 Y130.989 E.02167
G1 X155.717 Y130.57 E.01858
G1 X156.14 Y130.153 E.02167
G1 X156.563 Y129.87 E.01858
G1 X157.11 Y129.636 E.02171
G1 X157.366 Y129.605 E.00942
;WIDTH:0.451582
G1 X157.623 Y129.573 E.00842
;WIDTH:0.403164
G1 X158.19 Y129.575 E.0163
;WIDTH:0.395298
G1 X158.694 Y129.64 E.01431
;WIDTH:0.443657
G1 X158.84 Y129.655 E.00469
;WIDTH:0.471828
G1 X159.081 Y129.737 E.00873
;WIDTH:0.499999
G1 X159.323 Y129.819 E.0093
G1 X159.824 Y130.138 E.02167
G1 X160.199 Y130.492 E.01879
G1 X160.577 Y131.027 E.02392
G1 X160.806 Y131.554 E.02097
G1 X160.83 Y131.874 E.01172
;WIDTH:0.455406
G1 X160.854 Y132.195 E.01058
;WIDTH:0.410812
G1 X160.878 Y132.515 E.00944
;WIDTH:0.395493
G1 X160.805 Y133.165 E.01839
;WIDTH:0.430329
G1 X160.774 Y133.313 E.0047
;WIDTH:0.465164
G1 X160.743 Y133.462 E.00512
;WIDTH:0.499999
G1 X160.712 Y133.611 E.00554
G1 X160.4 Y134.165 E.0232
G1 X159.959 Y134.658 E.02415
G1 X159.419 Y135.041 E.02414
G1 X158.808 Y135.294 E.02413
G1 X158.223 Y135.4 E.02169
G1 X157.715 Y135.396 E.01856
G1 X157.067 Y135.261 E.02413
G1 X156.587 Y135.058 E.01903
G1 X156.159 Y134.772 E.01877
G1 X155.789 Y134.424 E.01856
G1 X155.406 Y133.884 E.02415
G1 X155.188 Y133.397 E.01944
G1 X155.062 Y132.839 E.02087
G1 X155.059 Y132.657 E.00665
;WIPE_START
G1 X155.05 Y132.179 E-.14348
G1 X155.186 Y131.531 E-.1984
G1 X155.427 Y130.989 E-.17821
G1 X155.579 Y130.77 E-.07991
;WIPE_END
G1 Z.4 F42000
G1 X132.632 Y166.944 Z.4
G1 Z.2
G1 E.6 F2400
G1 F3600
G1 X132.925 Y167.206 E.01432
G1 X133.374 Y167.823 E.02786
G1 X133.675 Y168.525 E.02787
G1 X133.793 Y169.065 E.02017
G1 X133.821 Y169.574 E.01859
G1 X133.728 Y170.289 E.02631
G1 X133.47 Y171.008 E.02787
G1 X133.19 Y171.484 E.02014
G1 X132.71 Y172.022 E.02631
G1 X132.092 Y172.472 E.02787
G1 X131.586 Y172.709 E.02041
G1 X130.89 Y172.875 E.0261
;WIDTH:0.485596
G1 X130.13 Y172.885 E.02687
;WIDTH:0.492683
G1 X129.585 Y172.814 E.01971
;WIDTH:0.499999
G1 X128.902 Y172.564 E.02655
G1 X128.431 Y172.287 E.01992
G1 X127.893 Y171.807 E.02629
G1 X127.444 Y171.19 E.02787
G1 X127.209 Y170.69 E.02016
G1 X127.068 Y170.2 E.01859
G1 X127.007 Y169.588 E.02242
G1 X127.011 Y169.226 E.01321
G1 X127.091 Y168.723 E.01858
G1 X127.258 Y168.197 E.02014
G1 X127.606 Y167.566 E.02631
G1 X128.108 Y166.991 E.02786
M73 P1 R24
G1 X128.542 Y166.665 E.01978
G1 X128.914 Y166.439 E.01589
G1 X129.43 Y166.241 E.02018
G1 X129.933 Y166.131 E.01876
G1 X130.477 Y166.095 E.01992
G1 X131.192 Y166.188 E.02629
G1 X131.911 Y166.446 E.02787
G1 X132.387 Y166.726 E.02014
G1 X132.602 Y166.918 E.01053
G1 X132.344 Y167.288 F42000
G1 F3600
G1 X132.612 Y167.538 E.01339
G1 X132.995 Y168.078 E.02413
G1 X133.248 Y168.689 E.02415
G1 X133.354 Y169.249 E.02078
G1 X133.356 Y169.715 E.01702
G1 X133.276 Y170.218 E.01856
G1 X133.046 Y170.838 E.02415
G1 X132.726 Y171.339 E.02167
G1 X132.378 Y171.709 E.01856
G1 X131.838 Y172.092 E.02415
G1 X131.286 Y172.327 E.0219
G1 X130.794 Y172.435 E.01837
G1 X130.133 Y172.447 E.02411
G1 X129.549 Y172.332 E.02171
G1 X129.072 Y172.14 E.01876
G1 X128.577 Y171.823 E.02145
G1 X128.207 Y171.475 E.01856
G1 X127.824 Y170.935 E.02415
G1 X127.615 Y170.474 E.01844
G1 X127.492 Y169.983 E.01847
G1 X127.456 Y169.451 E.01947
G1 X127.526 Y168.897 E.02038
G1 X127.72 Y168.278 E.02366
G1 X128 Y167.797 E.02031
G1 X128.441 Y167.304 E.02413
G1 X128.981 Y166.921 E.02416
G1 X129.454 Y166.708 E.01891
G1 X130.03 Y166.577 E.02158
G1 X130.543 Y166.552 E.01874
G1 X131.121 Y166.639 E.0213
G1 X131.741 Y166.87 E.02415
G1 X132.192 Y167.147 E.01931
G1 X132.314 Y167.261 E.0061
G1 X132.034 Y167.622 F42000
;TYPE:Outer wall
G1 F3600
G1 X132.299 Y167.871 E.01327
G1 X132.615 Y168.332 E.02042
G1 X132.821 Y168.853 E.02043
G1 X132.897 Y169.262 E.01519
G1 X132.904 Y169.644 E.01392
G1 X132.825 Y170.146 E.01856
G1 X132.622 Y170.668 E.02043
G1 X132.394 Y171.025 E.01547
G1 X132.045 Y171.396 E.01856
G1 X131.583 Y171.713 E.02043
G1 X131.188 Y171.881 E.01568
G1 X130.696 Y171.989 E.01837
G1 X130.136 Y171.99 E.02041
G1 X129.72 Y171.908 E.01548
G1 X129.243 Y171.716 E.01876
G1 X128.89 Y171.491 E.01527
G1 X128.52 Y171.142 E.01856
G1 X128.203 Y170.68 E.02043
G1 X128.009 Y170.184 E.01946
G1 X127.946 Y169.928 E.0096
G1 X127.912 Y169.42 E.01856
G1 X127.994 Y168.866 E.02044
G1 X128.198 Y168.362 E.01984
G1 X128.425 Y167.988 E.01598
G1 X128.774 Y167.617 E.01856
G1 X129.236 Y167.3 E.02044
G1 X129.749 Y167.107 E.02001
G1 X130.17 Y167.019 E.01571
G1 X130.547 Y167.011 E.01373
G1 X131.05 Y167.091 E.01858
G1 X131.571 Y167.294 E.02041
G1 X131.928 Y167.522 E.01547
G1 X132.005 Y167.594 E.00383
;WIPE_START
G1 X132.299 Y167.871 E-.1211
G1 X132.615 Y168.332 E-.16787
G1 X132.821 Y168.853 E-.16799
G1 X132.897 Y169.262 E-.12489
G1 X132.898 Y169.323 E-.01815
;WIPE_END
G1 Z.4 F42000
G1 X120.905 Y165.729 Z.4
G1 Z.2
G1 E.6 F2400
;TYPE:Inner wall
G1 F3600
G1 X121.154 Y165.729 E.00907
G1 X121.686 Y165.832 E.01979
G1 X122.102 Y165.96 E.01587
G1 X122.59 Y166.203 E.0199
G1 X122.999 Y166.498 E.0184
G1 X123.36 Y166.854 E.01848
G1 X123.766 Y167.443 E.02613
G1 X123.992 Y167.946 E.0201
G1 X124.12 Y168.436 E.01848
G1 X124.165 Y169.057 E.02274
G1 X124.148 Y169.411 E.01292
G1 X124.034 Y169.985 E.02136
G1 X123.814 Y170.508 E.02067
G1 X123.335 Y171.226 E.03153
G1 X122.933 Y171.612 E.02034
G1 X122.333 Y171.992 E.02591
;WIDTH:0.525036
G1 X121.623 Y172.261 E.02919
;WIDTH:0.570758
G1 X121.41 Y172.33 E.00946
G1 X120.9 Y172.357 E.02151
;WIDTH:0.546104
G1 X120.346 Y172.32 E.02228
G1 X119.62 Y172.096 E.03053
;WIDTH:0.499999
G1 X118.988 Y171.759 E.02613
G1 X118.564 Y171.41 E.02006
G1 X118.081 Y170.824 E.0277
G1 X117.758 Y170.184 E.02614
G1 X117.612 Y169.654 E.02006
G1 X117.549 Y169.093 E.0206
G1 X117.59 Y168.495 E.02188
G1 X117.745 Y167.913 E.02197
G1 X117.97 Y167.413 E.02002
G1 X118.388 Y166.829 E.02618
G1 X118.784 Y166.448 E.02009
G1 X119.202 Y166.161 E.01849
G1 X119.858 Y165.874 E.02612
G1 X120.603 Y165.729 E.02771
G1 X120.865 Y165.729 E.00955
G1 X120.926 Y166.184 F42000
G1 F3600
G1 X121.223 Y166.194 E.01084
G1 X121.751 Y166.316 E.01977
G1 X122.346 Y166.591 E.0239
G1 X122.774 Y166.905 E.01937
G1 X123.112 Y167.273 E.01824
G1 X123.408 Y167.734 E.01998
G1 X123.599 Y168.217 E.01896
G1 X123.692 Y168.67 E.01687
G1 X123.711 Y169.232 E.02053
G1 X123.605 Y169.813 E.02155
G1 X123.397 Y170.321 E.02001
G1 X122.971 Y170.949 E.02771
G1 X122.524 Y171.347 E.02186
G1 X121.957 Y171.663 E.02368
G1 X121.363 Y171.84 E.0226
G1 X120.918 Y171.883 E.0163
G1 X120.456 Y171.853 E.0169
G1 X119.823 Y171.686 E.02388
G1 X119.265 Y171.396 E.02294
G1 X118.905 Y171.106 E.01688
G1 X118.483 Y170.605 E.02388
G1 X118.193 Y170.046 E.02296
G1 X118.065 Y169.594 E.01716
G1 X118.005 Y169.067 E.01935
G1 X118.054 Y168.515 E.02021
G1 X118.201 Y167.988 E.01997
G1 X118.449 Y167.503 E.01988
G1 X118.765 Y167.089 E.01901
G1 X119.155 Y166.737 E.01915
G1 X119.639 Y166.455 E.02044
G1 X120.181 Y166.256 E.02106
G1 X120.708 Y166.176 E.01946
G1 X120.886 Y166.182 E.00651
G1 X120.912 Y166.636 F42000
;TYPE:Outer wall
G1 F3600
G1 X121.162 Y166.648 E.00913
G1 X121.681 Y166.772 E.01948
G1 X122.143 Y167 E.0188
G1 X122.471 Y167.248 E.015
G1 X122.728 Y167.522 E.0137
G1 X123.008 Y167.954 E.01878
G1 X123.208 Y168.55 E.02295
G1 X123.251 Y169.093 E.01985
G1 X123.174 Y169.632 E.01987
G1 X122.98 Y170.134 E.01964
G1 X122.608 Y170.672 E.02389
G1 X122.29 Y170.954 E.01549
G1 X121.819 Y171.227 E.01989
G1 X121.304 Y171.386 E.01965
G1 X120.936 Y171.426 E.01352
G1 X120.56 Y171.408 E.01372
G1 X120.026 Y171.276 E.02007
G1 X119.542 Y171.032 E.01976
G1 X119.246 Y170.801 E.0137
