; HEADER_BLOCK_START
; generated by OrcaSlicer 2.1.0 on 2025-03-19 at 16:24:46
; total layer number: 219
; filament_density: 1.27
; filament_diameter: 1.75
; max_z_height: 34.40
; HEADER_BLOCK_END

; THUMBNAIL_BLOCK_START

;
; THUMBNAIL_BLOCK_END

; THUMBNAIL_BLOCK_START

;
; THUMBNAIL_BLOCK_END

; external perimeters extrusion width = 0.42mm
; perimeters extrusion width = 0.45mm
; infill extrusion width = 0.45mm
; solid infill extrusion width = 0.42mm
; top infill extrusion width = 0.42mm
; support material extrusion width = 0.42mm
; first layer extrusion width = 0.50mm

; EXECUTABLE_BLOCK_START
EXCLUDE_OBJECT_DEFINE NAME=КРЕПЛ_НОМЕРА.stp_id_0_copy_0 CENTER=110,110 POLYGON=[[90.4,77.0049],[129.6,77.0049],[129.6,83.0049],[102.6,142.995],[90.4,142.995],[90.4,77.0049]]
M73 P0 R36
M106 S0
M106 P2 S0
;TYPE:Custom
M140 S0
M104 S0 
START_PRINT EXTRUDER_TEMP=250 BED_TEMP=90
M106 P3 S153
G90
G21
M83 ; use relative distances for extrusion
; filament start gcode
M106 S0
M106 P2 S0
;LAYER_CHANGE
;Z:0.2
;HEIGHT:0.2
;BEFORE_LAYER_CHANGE
;0.2
G92 E0

G1 E-.6 F2400
;_SET_FAN_SPEED_CHANGING_LAYER
SET_VELOCITY_LIMIT ACCEL=500 ACCEL_TO_DECEL=250
SET_VELOCITY_LIMIT SQUARE_CORNER_VELOCITY=9
EXCLUDE_OBJECT_START NAME=КРЕПЛ_НОМЕРА.stp_id_0_copy_0
G1 Z.2 F42000
G1 X107.184 Y76.655
G1 Z.2
G1 E.6 F2400
;TYPE:Support
;WIDTH:0.5
G1 F3600
G1 X98.553 Y76.655 E.31163
G1 X98.553 Y74.782 E.06761
G1 X107.184 Y74.782 E.31163
G1 X107.184 Y76.586 E.06513
G1 X106.773 Y76.244 F42000
G1 F3600
G1 X98.965 Y76.244 E.28193
G1 X98.965 Y75.194 E.0379
G1 X106.773 Y75.194 E.28193
G1 X106.773 Y76.244 E.0379
;WIPE_START
G1 X106.773 Y75.194 E-.31493
G1 X105.823 Y75.194 E-.28507
;WIPE_END
G1 Z.4 F42000
G1 X121.447 Y76.655 Z.4
G1 Z.2
G1 E.6 F2400
G1 F3600
G1 X112.816 Y76.655 E.31163
G1 X112.816 Y74.782 E.06761
G1 X121.447 Y74.782 E.31163
G1 X121.447 Y76.586 E.06513
G1 X113.227 Y76.244 F42000
G1 F3600
G1 X113.227 Y75.194 E.0379
G1 X121.035 Y75.194 E.28193
G1 X121.035 Y76.244 E.0379
G1 X113.227 Y76.244 E.28193
;WIPE_START
G1 X115.227 Y76.244 E-.6
;WIPE_END
G1 Z.4 F42000
G1 X113.227 Y71.649 Z.4
G1 Z.2
G1 E.6 F2400
;TYPE:Brim
G1 F3600
G1 X129.592 Y71.649 E.59088
G1 X130.308 Y71.697 E.02589
G1 X131.002 Y71.84 E.02561
G1 X131.674 Y72.075 E.02568
G1 X132.144 Y72.305 E.0189
G1 X132.826 Y72.738 E.02917
G1 X133.364 Y73.199 E.02558
G1 X133.836 Y73.728 E.02561
G1 X134.232 Y74.316 E.02561
G1 X134.546 Y74.954 E.02566
G1 X134.736 Y75.498 E.02081
G1 X134.901 Y76.246 E.02763
G1 X134.956 Y77.013 E.02779
G1 X134.956 Y82.997 E.21606
G1 X134.908 Y83.713 E.02589
G1 X134.765 Y84.407 E.02561
G1 X134.53 Y85.078 E.02565
G1 X134.254 Y85.632 E.02236
G1 X133.868 Y86.23 E.02571
G1 X133.406 Y86.769 E.02561
G1 X132.877 Y87.241 E.02561
G1 X132.289 Y87.637 E.02561
G1 X131.651 Y87.951 E.02566
G1 X131.107 Y88.141 E.02081
G1 X130.359 Y88.306 E.02763
G1 X129.592 Y88.361 E.02779
G1 X108.185 Y88.361 E.77291
G1 X108.044 Y88.41 E.00538
G1 X107.956 Y88.59 E.00722
G1 X107.956 Y142.961 E1.96313
G1 X107.908 Y143.676 E.02589
G1 X107.765 Y144.371 E.02561
G1 X107.53 Y145.041 E.02565
G1 X107.254 Y145.596 E.02236
G1 X106.868 Y146.194 E.02571
G1 X106.406 Y146.733 E.02561
G1 X105.877 Y147.205 E.02561
G1 X105.289 Y147.601 E.02561
G1 X104.651 Y147.915 E.02564
G1 X104.055 Y148.12 E.02278
G1 X103.36 Y148.269 E.02566
G1 X102.592 Y148.325 E.02781
G1 X90.408 Y148.325 E.43991
G1 X89.692 Y148.277 E.02589
G1 X88.998 Y148.134 E.02561
G1 X88.327 Y147.899 E.02565
G1 X87.773 Y147.622 E.02236
G1 X87.175 Y147.236 E.02571
G1 X86.636 Y146.775 E.02561
G1 X86.164 Y146.246 E.02561
G1 X85.768 Y145.657 E.02561
G1 X85.454 Y145.02 E.02564
G1 X85.249 Y144.423 E.02278
G1 X85.099 Y143.729 E.02566
G1 X85.044 Y142.96 E.02781
G1 X85.044 Y77.013 E2.38111
G1 X85.092 Y76.297 E.02589
G1 X85.235 Y75.603 E.02561
G1 X85.47 Y74.932 E.02565
G1 X85.746 Y74.378 E.02236
G1 X86.132 Y73.78 E.02571
G1 X86.594 Y73.241 E.02561
G1 X87.123 Y72.769 E.02561
G1 X87.711 Y72.373 E.02561
G1 X88.349 Y72.059 E.02564
G1 X88.945 Y71.854 E.02278
G1 X89.64 Y71.704 E.02566
G1 X90.408 Y71.649 E.02781
G1 X113.187 Y71.649 E.82245
G1 X113.187 Y72.106 F42000
G1 F3600
G1 X129.581 Y72.106 E.59194
G1 X130.255 Y72.153 E.02438
G1 X130.889 Y72.284 E.02337
G1 X131.489 Y72.495 E.02297
G1 X131.926 Y72.709 E.01758
G1 X132.545 Y73.101 E.02646
G1 X133.036 Y73.52 E.0233
G1 X133.468 Y74.002 E.02337
G1 X133.84 Y74.554 E.02404
G1 X134.12 Y75.123 E.02289
G1 X134.293 Y75.615 E.01883
G1 X134.445 Y76.302 E.02539
G1 X134.499 Y77.035 E.02653
G1 X134.499 Y82.977 E.21456
G1 X134.452 Y83.66 E.02471
G1 X134.321 Y84.294 E.02337
G1 X134.111 Y84.891 E.02286
G1 X133.852 Y85.412 E.02099
G1 X133.505 Y85.949 E.02308
G1 X133.085 Y86.441 E.02337
G1 X132.588 Y86.884 E.02404
G1 X132.05 Y87.245 E.02337
G1 X131.482 Y87.525 E.02289
G1 X130.989 Y87.698 E.01883
G1 X130.303 Y87.85 E.02539
G1 X129.58 Y87.904 E.02617
G1 X108.196 Y87.904 E.77208
G1 X107.908 Y87.973 E.0107
G1 X107.736 Y88.076 E.00726
G1 X107.627 Y88.221 E.00654
G1 X107.552 Y88.376 E.0062
G1 X107.499 Y88.605 E.00851
G1 X107.499 Y142.941 E1.96184
G1 X107.455 Y143.606 E.02405
G1 X107.326 Y144.24 E.02337
G1 X107.111 Y144.855 E.02352
G1 X106.859 Y145.362 E.02045
G1 X106.494 Y145.927 E.02429
G1 X106.072 Y146.418 E.02337
G1 X105.588 Y146.848 E.02337
G1 X105.05 Y147.209 E.02337
G1 X104.483 Y147.488 E.02282
G1 X103.924 Y147.68 E.02136
G1 X103.285 Y147.817 E.02358
G1 X102.57 Y147.868 E.02588
G1 X90.419 Y147.868 E.43875
G1 X89.763 Y147.823 E.02371
G1 X89.129 Y147.694 E.02337
G1 X88.514 Y147.48 E.02352
G1 X88.007 Y147.228 E.02045
G1 X87.456 Y146.874 E.02362
G1 X86.964 Y146.454 E.02337
G1 X86.532 Y145.972 E.02337
G1 X86.169 Y145.435 E.02337
G1 X85.881 Y144.852 E.02349
G1 X85.689 Y144.293 E.02136
G1 X85.552 Y143.654 E.02358
G1 X85.501 Y142.939 E.02588
G1 X85.501 Y77.033 E2.37961
G1 X85.545 Y76.368 E.02405
G1 X85.674 Y75.734 E.02337
G1 X85.889 Y75.119 E.02352
G1 X86.141 Y74.611 E.02045
G1 X86.495 Y74.061 E.02362
G1 X86.915 Y73.569 E.02337
G1 X87.397 Y73.137 E.02337
G1 X87.934 Y72.774 E.02337
G1 X88.517 Y72.486 E.02349
G1 X89.076 Y72.294 E.02136
G1 X89.715 Y72.157 E.02358
G1 X90.42 Y72.106 E.02553
G1 X113.147 Y72.106 E.82059
G1 X113.147 Y72.563 F42000
G1 F3600
G1 X129.57 Y72.563 E.59298
G1 X130.202 Y72.608 E.02285
G1 X130.757 Y72.724 E.02049
G1 X131.305 Y72.915 E.02093
G1 X131.709 Y73.112 E.01626
G1 X132.265 Y73.465 E.02376
G1 X132.709 Y73.841 E.02102
G1 X133.112 Y74.291 E.02179
G1 X133.448 Y74.792 E.02178
G1 X133.694 Y75.293 E.02015
G1 X133.85 Y75.733 E.01686
G1 X133.99 Y76.359 E.02315
G1 X134.042 Y77.057 E.02526
G1 X134.042 Y82.957 E.21302
G1 X133.996 Y83.607 E.02353
G1 X133.876 Y84.18 E.02114
G1 X133.692 Y84.705 E.02009
G1 X133.45 Y85.191 E.01963
G1 X133.132 Y85.682 E.02112
G1 X132.764 Y86.114 E.02047
G1 X132.3 Y86.527 E.02245
G1 X131.813 Y86.852 E.02113
G1 X131.312 Y87.099 E.02017
G1 X130.872 Y87.254 E.01686
G1 X130.226 Y87.397 E.02387
G1 X129.568 Y87.446 E.02382
G1 X108.21 Y87.447 E.77116
G1 X107.809 Y87.527 E.01475
G1 X107.665 Y87.586 E.00562
G1 X107.513 Y87.677 E.0064
G1 X107.361 Y87.814 E.0074
G1 X107.267 Y87.94 E.00568
G1 X107.106 Y88.278 E.01351
G1 X107.042 Y88.618 E.0125
G1 X107.042 Y142.921 E1.96066
G1 X107.001 Y143.535 E.02222
G1 X106.886 Y144.109 E.02115
G1 X106.692 Y144.669 E.02139
G1 X106.465 Y145.129 E.01851
G1 X106.121 Y145.66 E.02284
G1 X105.739 Y146.103 E.02113
G1 X105.3 Y146.491 E.02114
G1 X104.829 Y146.807 E.02049
G1 X104.315 Y147.061 E.02069
G1 X103.793 Y147.241 E.01993
G1 X103.211 Y147.364 E.02148
G1 X102.549 Y147.411 E.02398
G1 X90.429 Y147.41 E.43758
G1 X89.834 Y147.37 E.02156
G1 X89.259 Y147.255 E.02115
G1 X88.7 Y147.061 E.02139
G1 X88.239 Y146.833 E.01853
G1 X87.737 Y146.511 E.02154
G1 X87.291 Y146.132 E.02114
G1 X86.9 Y145.697 E.02114
G1 X86.571 Y145.212 E.02114
G1 X86.307 Y144.684 E.02132
G1 X86.128 Y144.162 E.01992
G1 X86.005 Y143.58 E.02148
G1 X85.958 Y142.918 E.02398
G1 X85.958 Y77.053 E2.37812
G1 X85.999 Y76.439 E.02222
G1 X86.114 Y75.864 E.02115
G1 X86.308 Y75.304 E.02139
G1 X86.536 Y74.844 E.01853
G1 X86.858 Y74.342 E.02154
G1 X87.237 Y73.896 E.02114
G1 X87.672 Y73.505 E.02114
G1 X88.156 Y73.175 E.02114
G1 X88.685 Y72.912 E.02132
G1 X89.207 Y72.733 E.01992
G1 X89.789 Y72.61 E.02149
G1 X90.431 Y72.563 E.02326
G1 X113.107 Y72.563 E.81873
;WIPE_START
G1 X115.107 Y72.563 E-.6
;WIPE_END
G1 Z.4 F42000
G1 X122.413 Y73.168 Z.4
G1 Z.2
G1 E.6 F2400
G1 F3600
G1 X122.452 Y73.061 E.00413
G1 X122.55 Y73.02 E.0038
G1 X129.559 Y73.021 E.25308
G1 X130.148 Y73.064 E.02131
G1 X130.644 Y73.168 E.0183
G1 X131.121 Y73.335 E.01825
G1 X131.492 Y73.516 E.01493
G1 X131.986 Y73.829 E.02109
G1 X132.382 Y74.164 E.01874
G1 X132.743 Y74.565 E.0195
G1 X133.055 Y75.03 E.02021
G1 X133.269 Y75.463 E.01744
G1 X133.407 Y75.852 E.01489
G1 X133.534 Y76.417 E.02091
G1 X133.585 Y77.079 E.02398
G1 X133.585 Y82.936 E.21146
G1 X133.541 Y83.553 E.02233
G1 X133.437 Y84.048 E.01827
G1 X133.273 Y84.518 E.01799
G1 X133.048 Y84.971 E.01825
G1 X132.769 Y85.401 E.0185
G1 X132.429 Y85.8 E.01892
G1 X132.026 Y86.159 E.01948
G1 X131.592 Y86.451 E.01891
G1 X131.142 Y86.674 E.01813
G1 X130.738 Y86.816 E.01547
G1 X130.15 Y86.945 E.02173
G1 X129.546 Y86.989 E.02185
G1 X108.223 Y86.99 E.76987
G1 X107.627 Y87.109 E.02196
G1 X107.291 Y87.277 E.01359
G1 X106.989 Y87.55 E.01469
G1 X106.85 Y87.753 E.00888
G1 X106.697 Y88.073 E.01281
G1 X106.656 Y88.201 E.00485
G1 X106.585 Y88.629 E.01568
G1 X106.585 Y142.901 E1.95954
G1 X106.548 Y143.466 E.02042
G1 X106.446 Y143.98 E.01893
G1 X106.272 Y144.484 E.01926
G1 X106.07 Y144.896 E.01655
G1 X105.748 Y145.393 E.02137
G1 X105.406 Y145.787 E.01886
G1 X105.013 Y146.133 E.01892
G1 X104.591 Y146.415 E.0183
G1 X104.131 Y146.641 E.01853
G1 X103.663 Y146.801 E.01783
G1 X103.138 Y146.911 E.01937
G1 X102.528 Y146.954 E.0221
G1 X90.449 Y146.953 E.43609
G1 X89.903 Y146.917 E.01976
G1 X89.389 Y146.814 E.01894
G1 X88.884 Y146.641 E.01926
G1 X88.471 Y146.438 E.01661
G1 X88.017 Y146.148 E.01945
G1 X87.617 Y145.81 E.01892
G1 X87.255 Y145.407 E.01957
G1 X86.962 Y144.973 E.0189
G1 X86.734 Y144.515 E.01847
G1 X86.568 Y144.032 E.01844
G1 X86.458 Y143.507 E.01937
G1 X86.415 Y142.896 E.0221
G1 X86.415 Y77.072 E2.37664
G1 X86.452 Y76.508 E.02042
G1 X86.554 Y75.994 E.01893
G1 X86.728 Y75.489 E.01926
G1 X86.931 Y75.076 E.01661
G1 X87.232 Y74.608 E.02011
G1 X87.572 Y74.209 E.01892
G1 X87.962 Y73.86 E.0189
G1 X88.396 Y73.567 E.0189
G1 X88.854 Y73.339 E.01847
G1 X89.337 Y73.173 E.01844
G1 X89.844 Y73.066 E.01871
G1 X90.453 Y73.02 E.02206
M73 P1 R36
G1 X97.457 Y73.02 E.25289
G1 X97.561 Y73.068 E.00413
G1 X97.593 Y73.178 E.00413
G1 X97.541 Y73.266 E.00367
G1 X97.292 Y73.46 E.01143
G1 X97.133 Y73.632 E.00844
G1 X96.986 Y73.841 E.00924
G1 X96.851 Y74.116 E.01105
G1 X96.75 Y74.492 E.01405
G1 X96.73 Y75.172 E.02457
G1 X96.681 Y75.275 E.00413
G1 X96.593 Y75.308 E.00338
G1 X90.199 Y75.33 E.23086
G1 X90.06 Y75.35 E.00509
G1 X89.799 Y75.431 E.00985
G1 X89.618 Y75.516 E.00723
G1 X89.334 Y75.706 E.01235
G1 X89.233 Y75.8 E.00495
G1 X88.999 Y76.083 E.01328
G1 X88.884 Y76.271 E.00794
G1 X88.776 Y76.557 E.01104
G1 X88.72 Y76.83 E.01007
G1 X88.7 Y142.94 E2.38697
G1 X88.759 Y143.369 E.01565
G1 X88.911 Y143.751 E.01482
G1 X89.098 Y144.03 E.01216
G1 X89.19 Y144.13 E.00487
G1 X89.473 Y144.365 E.01328
G1 X89.702 Y144.5 E.00962
G1 X89.974 Y144.599 E.01046
G1 X90.256 Y144.655 E.01038
G1 X102.657 Y144.662 E.44773
G1 X103.092 Y144.579 E.016
G1 X103.199 Y144.543 E.00407
G1 X103.469 Y144.407 E.01092
G1 X103.761 Y144.179 E.01337
G1 X103.996 Y143.896 E.01328
G1 X104.129 Y143.67 E.00945
G1 X104.259 Y143.275 E.01502
G1 X104.3 Y142.945 E.01203
G1 X104.3 Y84.842 E2.09786
G1 X104.347 Y84.738 E.00413
G1 X104.437 Y84.705 E.00344
G1 X129.573 Y84.705 E.90755
G1 X129.908 Y84.666 E.01218
G1 X130.202 Y84.578 E.01107
G1 X130.469 Y84.443 E.01082
G1 X130.66 Y84.308 E.00846
G1 X130.761 Y84.215 E.00494
G1 X130.995 Y83.934 E.0132
G1 X131.167 Y83.618 E.01298
G1 X131.251 Y83.349 E.0102
G1 X131.286 Y83.15 E.00728
G1 X131.293 Y76.948 E.22393
G1 X131.212 Y76.517 E.01583
G1 X131.165 Y76.388 E.00496
G1 X131.015 Y76.101 E.0117
G1 X130.773 Y75.807 E.01375
G1 X130.415 Y75.537 E.01617
G1 X130.073 Y75.39 E.01346
G1 X129.671 Y75.315 E.01474
G1 X123.407 Y75.305 E.22618
G1 X123.303 Y75.257 E.00413
G1 X123.27 Y75.17 E.00338
G1 X123.264 Y74.605 E.0204
G1 X123.15 Y74.116 E.01811
G1 X123.004 Y73.827 E.01169
G1 X122.845 Y73.607 E.00981
G1 X122.594 Y73.36 E.0127
G1 X122.468 Y73.268 E.00563
G1 X122.432 Y73.203 E.00269
G1 X123.438 Y73.557 F42000
G1 F3600
G1 X123.562 Y73.478 E.00532
G1 X129.537 Y73.478 E.21573
G1 X130.093 Y73.52 E.02011
G1 X130.529 Y73.612 E.01612
G1 X130.937 Y73.754 E.01559
G1 X131.275 Y73.92 E.0136
G1 X131.707 Y74.193 E.01844
G1 X132.056 Y74.486 E.01647
G1 X132.387 Y74.855 E.01788
G1 X132.663 Y75.268 E.01791
G1 X132.843 Y75.634 E.01477
G1 X132.964 Y75.972 E.01293
G1 X133.082 Y76.495 E.01937
G1 X133.128 Y77.102 E.02198
G1 X133.128 Y82.914 E.20986
G1 X133.085 Y83.498 E.02113
G1 X132.997 Y83.917 E.01544
G1 X132.854 Y84.333 E.01589
G1 X132.654 Y84.737 E.0163
G1 X132.407 Y85.12 E.01643
G1 X132.095 Y85.485 E.01736
G1 X131.753 Y85.79 E.01655
G1 X131.369 Y86.049 E.01671
G1 X130.971 Y86.248 E.01607
G1 X130.604 Y86.377 E.01405
G1 X130.074 Y86.492 E.01958
G1 X129.524 Y86.532 E.0199
G1 X108.236 Y86.533 E.76864
G1 X107.546 Y86.659 E.02532
G1 X107.414 Y86.704 E.00505
G1 X107.094 Y86.865 E.01292
G1 X106.979 Y86.943 E.00501
G1 X106.604 Y87.303 E.01878
G1 X106.434 Y87.564 E.01125
G1 X106.261 Y87.938 E.01486
G1 X106.204 Y88.134 E.00739
G1 X106.128 Y88.64 E.01846
G1 X106.128 Y142.882 E1.95846
G1 X106.094 Y143.397 E.01864
G1 X106.005 Y143.851 E.01672
G1 X105.852 Y144.301 E.01714
G1 X105.675 Y144.663 E.01455
G1 X105.376 Y145.125 E.01988
G1 X105.074 Y145.471 E.01658
G1 X104.726 Y145.775 E.01669
G1 X104.354 Y146.022 E.01612
G1 X103.947 Y146.221 E.01638
G1 X103.534 Y146.361 E.01573
G1 X103.066 Y146.458 E.01727
G1 X102.506 Y146.497 E.02024
G1 X90.469 Y146.496 E.43461
G1 X89.972 Y146.463 E.01798
G1 X89.517 Y146.374 E.01674
G1 X89.068 Y146.221 E.01714
G1 X88.689 Y146.035 E.01523
G1 X88.282 Y145.773 E.01748
G1 X87.93 Y145.474 E.01669
G1 X87.611 Y145.117 E.0173
G1 X87.353 Y144.734 E.01666
G1 X87.154 Y144.33 E.01628
G1 X87.008 Y143.902 E.01631
G1 X86.911 Y143.434 E.01724
G1 X86.872 Y142.875 E.02024
G1 X86.872 Y77.092 E2.37517
G1 X86.906 Y76.577 E.01864
G1 X86.995 Y76.122 E.01672
G1 X87.148 Y75.673 E.01714
G1 X87.326 Y75.308 E.01466
G1 X87.606 Y74.874 E.01866
G1 X87.906 Y74.523 E.01668
G1 X88.251 Y74.216 E.01667
G1 X88.619 Y73.968 E.01603
G1 X89.023 Y73.765 E.01629
G1 X89.451 Y73.617 E.01637
G1 X89.899 Y73.521 E.01655
G1 X90.475 Y73.478 E.02085
G1 X96.435 Y73.478 E.21519
G1 X96.539 Y73.525 E.00413
G1 X96.56 Y73.672 E.00533
G1 X96.406 Y74.008 E.01337
G1 X96.312 Y74.361 E.01317
G1 X96.286 Y74.725 E.01318
G1 X96.231 Y74.825 E.00413
G1 X96.149 Y74.852 E.00309
G1 X90.205 Y74.873 E.21461
G1 X90.004 Y74.896 E.00732
G1 X89.669 Y74.993 E.01258
G1 X89.431 Y75.099 E.00941
G1 X89.087 Y75.322 E.01479
G1 X88.875 Y75.516 E.01041
G1 X88.653 Y75.785 E.01256
G1 X88.452 Y76.12 E.01414
G1 X88.352 Y76.386 E.01026
G1 X88.275 Y76.725 E.01256
G1 X88.243 Y142.931 E2.39042
G1 X88.306 Y143.424 E.01794
G1 X88.337 Y143.544 E.00449
G1 X88.538 Y144.015 E.0185
G1 X88.713 Y144.276 E.01133
G1 X88.905 Y144.487 E.01029
G1 X89.173 Y144.71 E.01259
G1 X89.463 Y144.889 E.0123
G1 X89.811 Y145.026 E.01349
G1 X90.156 Y145.101 E.01275
G1 X102.645 Y145.119 E.45094
G1 X103.169 Y145.03 E.01918
G1 X103.412 Y144.947 E.00927
G1 X103.758 Y144.761 E.0142
G1 X104.119 Y144.462 E.01691
G1 X104.394 Y144.121 E.0158
G1 X104.566 Y143.802 E.01308
G1 X104.713 Y143.321 E.0182
G1 X104.757 Y142.937 E.01394
G1 X104.757 Y85.299 E2.08107
G1 X104.805 Y85.195 E.00413
G1 X104.894 Y85.162 E.00344
G1 X129.564 Y85.162 E.89073
G1 X130.047 Y85.101 E.0176
G1 X130.417 Y84.981 E.01402
G1 X130.667 Y84.855 E.01012
G1 X130.918 Y84.685 E.01093
G1 X131.118 Y84.5 E.00982
G1 X131.337 Y84.237 E.0124
G1 X131.607 Y83.742 E.02036
G1 X131.685 Y83.492 E.00944
G1 X131.734 Y83.239 E.00929
G1 X131.75 Y76.961 E.22669
G1 X131.638 Y76.352 E.02236
G1 X131.566 Y76.17 E.00707
G1 X131.426 Y75.9 E.01097
G1 X131.133 Y75.526 E.01715
