; HEADER_BLOCK_START
; generated by OrcaSlicer 2.1.0 on 2025-02-17 at 19:34:47
; total layer number: 118
; filament_density: 1.27
; filament_diameter: 1.75
; max_z_height: 23.60
; HEADER_BLOCK_END

; THUMBNAIL_BLOCK_START

;
; THUMBNAIL_BLOCK_END

; THUMBNAIL_BLOCK_START

;
; THUMBNAIL_BLOCK_END

; external perimeters extrusion width = 0.42mm
; perimeters extrusion width = 0.45mm
; infill extrusion width = 0.45mm
; solid infill extrusion width = 0.42mm
; top infill extrusion width = 0.42mm
; support material extrusion width = 0.42mm
; first layer extrusion width = 0.50mm

; EXECUTABLE_BLOCK_START
EXCLUDE_OBJECT_DEFINE NAME=крепление_колёс_без_надписи_.stp_id_0_copy_0 CENTER=110,110 POLYGON=[[23.7674,118.691],[23.773,118.508],[23.7896,118.327],[23.8172,118.146],[23.8558,117.968],[23.9052,117.792],[23.9651,117.62],[24.0354,117.451],[24.1158,117.287],[24.206,117.129],[24.3057,116.976],[24.4145,116.829],[24.5321,116.69],[24.6579,116.558],[24.7915,116.433],[24.9324,116.317],[90.8088,64.0806],[168.339,64.0806],[196.233,101.069],[196.233,155.919],[23.7674,155.919],[23.7674,118.691]]
M73 P0 R68
M106 S0
M106 P2 S0
;TYPE:Custom
M140 S0
M104 S0 
START_PRINT EXTRUDER_TEMP=250 BED_TEMP=90
M106 P3 S153
G90
G21
M83 ; use relative distances for extrusion
; filament start gcode
M106 S0
M106 P2 S0
;LAYER_CHANGE
;Z:0.2
;HEIGHT:0.2
;BEFORE_LAYER_CHANGE
;0.2
G92 E0

G1 E-.6 F2400
;_SET_FAN_SPEED_CHANGING_LAYER
SET_VELOCITY_LIMIT ACCEL=500 ACCEL_TO_DECEL=250
SET_VELOCITY_LIMIT SQUARE_CORNER_VELOCITY=9
EXCLUDE_OBJECT_START NAME=крепление_колёс_без_надписи_.stp_id_0_copy_0
G1 Z.2 F42000
G1 X59.471 Y74.146
G1 Z.2
G1 E.6 F2400
;TYPE:Brim
;WIDTH:0.5
G1 F3600
G1 X83.449 Y54.914 E1.10984
G1 X84.317 Y54.281 E.03878
G1 X85.235 Y53.733 E.03859
G1 X86.2 Y53.27 E.03864
G1 X86.944 Y52.985 E.02877
G1 X87.97 Y52.676 E.03866
G1 X89.017 Y52.464 E.03859
G1 X90.081 Y52.348 E.03865
G1 X90.812 Y52.325 E.0264
G1 X168.334 Y52.325 E2.79898
G1 X169.407 Y52.374 E.03878
G1 X170.465 Y52.521 E.03859
G1 X171.506 Y52.764 E.03859
G1 X172.521 Y53.101 E.03859
G1 X173.502 Y53.531 E.03869
G1 X173.98 Y53.781 E.01946
G1 X174.977 Y54.389 E.04218
G1 X175.832 Y55.03 E.03858
G1 X176.625 Y55.746 E.03859
G1 X177.349 Y56.533 E.03859
G1 X177.999 Y57.382 E.03859
G1 X178.567 Y58.287 E.03859
G1 X179.05 Y59.24 E.03859
G1 X179.444 Y60.234 E.03859
G1 X179.745 Y61.259 E.03859
G1 X179.951 Y62.308 E.03859
G1 X180.027 Y63.047 E.0268
G1 X180.071 Y63.16 E.00438
G1 X197.798 Y87.017 E1.07314
G1 X203.771 Y92.049 E.28201
G1 X204.561 Y92.777 E.03878
G1 X205.277 Y93.571 E.03859
G1 X205.917 Y94.427 E.03859
G1 X206.477 Y95.339 E.03864
G1 X206.839 Y96.052 E.02887
G1 X207.281 Y97.118 E.04169
G1 X207.595 Y98.139 E.03858
G1 X207.814 Y99.186 E.03859
G1 X207.937 Y100.249 E.03864
G1 X207.964 Y101.053 E.02905
G1 X207.964 Y155.914 E1.98083
G1 X207.915 Y156.987 E.03878
G1 X207.768 Y158.046 E.03859
G1 X207.525 Y159.087 E.03859
G1 X207.188 Y160.101 E.03859
G1 X206.758 Y161.082 E.03867
G1 X206.462 Y161.644 E.02294
G1 X205.9 Y162.557 E.0387
G1 X205.259 Y163.413 E.03859
G1 X204.543 Y164.206 E.03859
G1 X203.757 Y164.93 E.03859
G1 X202.908 Y165.579 E.03859
G1 X202.002 Y166.148 E.03859
G1 X201.049 Y166.631 E.03859
G1 X200.055 Y167.025 E.03859
G1 X199.03 Y167.326 E.03859
G1 X197.981 Y167.532 E.03859
G1 X196.916 Y167.641 E.03867
G1 X196.26 Y167.66 E.0237
G1 X23.774 Y167.675 E6.22778
G1 X22.701 Y167.626 E.03878
G1 X21.642 Y167.479 E.03859
G1 X20.601 Y167.236 E.03859
G1 X19.587 Y166.899 E.03859
G1 X18.605 Y166.469 E.03869
G1 X18.127 Y166.219 E.0195
G1 X17.129 Y165.611 E.04218
G1 X16.274 Y164.97 E.03858
G1 X15.481 Y164.254 E.03859
G1 X14.757 Y163.467 E.03859
G1 X14.108 Y162.618 E.03859
G1 X13.539 Y161.713 E.03859
G1 X13.056 Y160.76 E.03859
G1 X12.662 Y159.766 E.03859
G1 X12.361 Y158.741 E.03859
G1 X12.155 Y157.692 E.03859
G1 X12.046 Y156.626 E.03867
G1 X12.027 Y155.974 E.02356
G1 X12.012 Y118.698 E1.34589
G1 X12.066 Y117.447 E.0452
G1 X12.168 Y116.562 E.03219
G1 X12.324 Y115.678 E.03241
G1 X12.584 Y114.625 E.03915
G1 X12.857 Y113.772 E.03234
G1 X13.194 Y112.907 E.03351
G1 X13.558 Y112.118 E.03138
G1 X13.889 Y111.49 E.02564
G1 X14.351 Y110.721 E.0324
G1 X14.97 Y109.83 E.03918
G1 X15.41 Y109.272 E.02563
G1 X16.004 Y108.599 E.03241
G1 X16.774 Y107.836 E.03915
G1 X17.453 Y107.248 E.03242
G1 X38.492 Y90.974 E.96036
G1 X59.44 Y74.171 E.96961
G1 X59.726 Y74.528 F42000
G1 F3600
G1 X83.725 Y55.279 E1.11079
G1 X84.565 Y54.666 E.03753
G1 X85.457 Y54.133 E.03753
G1 X86.376 Y53.693 E.0368
G1 X87.097 Y53.416 E.02788
G1 X88.075 Y53.122 E.03687
G1 X89.081 Y52.917 E.03708
G1 X90.108 Y52.805 E.03729
G1 X90.817 Y52.782 E.02562
G1 X168.326 Y52.782 E2.79854
G1 X169.371 Y52.831 E.03776
G1 X170.388 Y52.972 E.03708
G1 X171.388 Y53.206 E.03708
G1 X172.35 Y53.526 E.03662
G1 X173.3 Y53.942 E.03741
G1 X173.758 Y54.181 E.01869
G1 X174.715 Y54.765 E.04045
G1 X175.536 Y55.379 E.03704
G1 X176.299 Y56.067 E.03708
G1 X176.995 Y56.822 E.03708
G1 X177.626 Y57.648 E.03753
G1 X178.172 Y58.518 E.03708
G1 X178.635 Y59.434 E.03708
G1 X179.009 Y60.377 E.03662
G1 X179.299 Y61.362 E.03708
G1 X179.498 Y62.37 E.03708
G1 X179.571 Y63.084 E.02594
G1 X179.603 Y63.216 E.00489
G1 X179.712 Y63.443 E.0091
G1 X197.426 Y87.283 E1.07237
G1 X197.509 Y87.371 E.00439
G1 X203.467 Y92.39 E.28124
G1 X204.231 Y93.095 E.03754
G1 X204.927 Y93.866 E.03753
G1 X205.542 Y94.689 E.03708
G1 X206.075 Y95.558 E.03679
G1 X206.421 Y96.238 E.02758
G1 X206.848 Y97.267 E.04022
G1 X207.15 Y98.248 E.03704
G1 X207.363 Y99.265 E.03753
G1 X207.48 Y100.277 E.03679
G1 X207.507 Y101.063 E.02838
G1 X207.507 Y155.901 E1.97997
G1 X207.46 Y156.939 E.03753
G1 X207.317 Y157.969 E.03753
G1 X207.083 Y158.968 E.03708
G1 X206.758 Y159.943 E.03708
G1 X206.348 Y160.879 E.03691
G1 X206.062 Y161.421 E.02214
G1 X205.518 Y162.305 E.03746
G1 X204.902 Y163.126 E.03708
G1 X204.213 Y163.888 E.03708
G1 X203.458 Y164.583 E.03708
G1 X202.652 Y165.199 E.03662
G1 X201.782 Y165.746 E.03708
G1 X200.867 Y166.211 E.03708
G1 X199.9 Y166.594 E.03753
G1 X198.915 Y166.883 E.03708
G1 X197.92 Y167.078 E.03662
G1 X196.891 Y167.184 E.03734
G1 X196.251 Y167.203 E.02311
G1 X23.787 Y167.218 E6.22698
G1 X22.749 Y167.17 E.03753
G1 X21.719 Y167.028 E.03753
G1 X20.719 Y166.794 E.03708
G1 X19.757 Y166.474 E.03662
G1 X18.799 Y166.055 E.03775
G1 X18.348 Y165.818 E.01838
G1 X17.391 Y165.235 E.04045
G1 X16.56 Y164.613 E.03749
G1 X15.799 Y163.924 E.03708
G1 X15.103 Y163.168 E.03708
G1 X14.487 Y162.362 E.03662
G1 X13.941 Y161.493 E.03708
G1 X13.476 Y160.577 E.03708
G1 X13.093 Y159.611 E.03753
G1 X12.804 Y158.626 E.03708
G1 X12.609 Y157.63 E.03662
G1 X12.502 Y156.591 E.03771
G1 X12.484 Y155.966 E.02261
G1 X12.469 Y118.711 E1.34513
G1 X12.521 Y117.488 E.04418
G1 X12.62 Y116.632 E.03112
G1 X12.773 Y115.768 E.03167
G1 X13.026 Y114.745 E.03804
G1 X13.29 Y113.921 E.03126
G1 X13.617 Y113.082 E.03249
G1 X13.966 Y112.324 E.03015
G1 X14.286 Y111.718 E.02474
G1 X14.738 Y110.965 E.0317
G1 X15.34 Y110.099 E.03811
G1 X15.764 Y109.563 E.02467
G1 X16.334 Y108.917 E.0311
G1 X17.082 Y108.175 E.03804
G1 X17.746 Y107.6 E.03172
G1 X38.778 Y91.329 E.96011
G1 X59.695 Y74.553 E.96812
G1 X59.981 Y74.909 F42000
G1 F3600
G1 X84 Y55.644 E1.11174
G1 X84.812 Y55.051 E.03628
G1 X85.679 Y54.534 E.03647
G1 X86.552 Y54.115 E.03496
G1 X87.25 Y53.847 E.02698
G1 X88.193 Y53.565 E.03554
G1 X89.146 Y53.371 E.03511
G1 X90.135 Y53.262 E.03593
G1 X90.822 Y53.239 E.02483
G1 X168.313 Y53.239 E2.79786
G1 X169.322 Y53.286 E.03651
G1 X170.31 Y53.424 E.03601
G1 X171.257 Y53.645 E.03511
G1 X172.18 Y53.952 E.03512
G1 X173.098 Y54.352 E.03614
G1 X173.537 Y54.582 E.0179
G1 X174.453 Y55.14 E.03873
G1 X175.241 Y55.729 E.0355
G1 X175.972 Y56.388 E.03556
G1 X176.64 Y57.112 E.03555
G1 X177.253 Y57.914 E.03646
G1 X177.776 Y58.749 E.03555
G1 X178.221 Y59.628 E.03556
G1 X178.578 Y60.532 E.03512
G1 X178.853 Y61.465 E.03511
G1 X179.044 Y62.431 E.03556
G1 X179.129 Y63.196 E.02779
G1 X179.195 Y63.421 E.00847
G1 X179.352 Y63.725 E.01233
G1 X197.055 Y87.549 E1.07168
G1 X197.221 Y87.726 E.00877
G1 X203.162 Y92.731 E.28047
G1 X203.91 Y93.421 E.03674
G1 X204.577 Y94.162 E.03601
G1 X205.166 Y94.951 E.03556
G1 X205.673 Y95.776 E.03496
G1 X206.003 Y96.425 E.02629
G1 X206.415 Y97.416 E.03876
G1 X206.705 Y98.356 E.0355
G1 X206.912 Y99.344 E.03646
G1 X207.023 Y100.306 E.03495
G1 X207.05 Y101.073 E.02772
G1 X207.05 Y155.887 E1.9791
G1 X207.004 Y156.891 E.03628
G1 X206.868 Y157.879 E.03601
G1 X206.641 Y158.85 E.03601
G1 X206.329 Y159.784 E.03556
G1 X205.938 Y160.676 E.03515
G1 X205.663 Y161.199 E.02134
G1 X205.136 Y162.053 E.03622
G1 X204.545 Y162.84 E.03556
G1 X203.884 Y163.57 E.03556
G1 X203.168 Y164.229 E.03511
G1 X202.396 Y164.82 E.03512
G1 X201.562 Y165.345 E.03556
G1 X200.684 Y165.791 E.03555
G1 X199.746 Y166.163 E.03646
G1 X198.812 Y166.436 E.03511
G1 X197.858 Y166.624 E.03512
G1 X196.866 Y166.727 E.03602
G1 X196.243 Y166.745 E.02251
G1 X23.801 Y166.761 E6.22619
G1 X22.784 Y166.714 E.03674
G1 X21.797 Y166.577 E.03601
G1 X20.85 Y166.355 E.03511
G1 X19.927 Y166.049 E.03511
G1 X18.993 Y165.64 E.03682
G1 X18.569 Y165.418 E.01725
G1 X17.654 Y164.86 E.03873
G1 X16.847 Y164.255 E.03641
G1 X16.117 Y163.594 E.03555
G1 X15.458 Y162.879 E.03511
G1 X14.867 Y162.106 E.03512
G1 X14.336 Y161.262 E.03602
G1 X13.891 Y160.383 E.03556
G1 X13.528 Y159.468 E.03555
G1 X13.25 Y158.523 E.03556
G1 X13.062 Y157.569 E.03511
G1 X12.958 Y156.557 E.03675
G1 X12.941 Y155.957 E.02165
G1 X12.926 Y118.723 E1.34437
G1 X12.977 Y117.529 E.04317
G1 X13.072 Y116.702 E.03005
G1 X13.221 Y115.858 E.03092
G1 X13.467 Y114.866 E.03693
G1 X13.722 Y114.07 E.03018
G1 X14.039 Y113.258 E.03148
G1 X14.375 Y112.53 E.02893
G1 X14.683 Y111.946 E.02384
G1 X15.124 Y111.21 E.03099
G1 X15.71 Y110.368 E.03703
G1 X16.117 Y109.853 E.0237
G1 X16.663 Y109.234 E.0298
G1 X17.389 Y108.513 E.03693
G1 X18.038 Y107.951 E.03101
G1 X39.065 Y91.685 E.95985
G1 X59.95 Y74.934 E.96663
G1 X60.236 Y75.291 F42000
G1 F3600
G1 X84.276 Y56.009 E1.1127
G1 X85.059 Y55.437 E.03503
G1 X85.901 Y54.934 E.0354
G1 X86.728 Y54.538 E.03312
G1 X87.403 Y54.279 E.02608
G1 X88.298 Y54.01 E.03376
G1 X89.21 Y53.824 E.03361
G1 X90.162 Y53.719 E.03458
G1 X90.828 Y53.697 E.02404
G1 X168.299 Y53.696 E2.79717
G1 X169.274 Y53.742 E.03525
G1 X170.233 Y53.875 E.03495
G1 X171.127 Y54.084 E.03316
G1 X172.011 Y54.377 E.03361
G1 X172.896 Y54.763 E.03486
G1 X173.316 Y54.982 E.01712
G1 X174.191 Y55.516 E.03701
G1 X174.945 Y56.079 E.03397
G1 X175.646 Y56.71 E.03404
G1 X176.286 Y57.402 E.03403
G1 X176.881 Y58.18 E.03539
G1 X177.381 Y58.979 E.03403
G1 X177.806 Y59.821 E.03405
G1 X178.144 Y60.675 E.03317
G1 X178.407 Y61.568 E.03361
G1 X178.591 Y62.495 E.03413
G1 X178.693 Y63.334 E.03053
G1 X178.794 Y63.639 E.0116
G1 X178.991 Y64.005 E.015
G1 X196.683 Y87.815 E1.07104
G1 X196.933 Y88.081 E.01316
G1 X202.857 Y93.072 E.2797
G1 X203.58 Y93.738 E.03549
G1 X204.219 Y94.447 E.03449
G1 X204.791 Y95.213 E.0345
G1 X205.271 Y95.995 E.03314
G1 X205.586 Y96.612 E.025
G1 X205.983 Y97.566 E.03729
G1 X206.26 Y98.464 E.03396
G1 X206.461 Y99.424 E.0354
G1 X206.566 Y100.335 E.03312
G1 X206.593 Y101.084 E.02706
G1 X206.593 Y155.873 E1.97824
G1 X206.549 Y156.843 E.03504
G1 X206.417 Y157.801 E.03494
G1 X206.198 Y158.731 E.03448
G1 X205.899 Y159.625 E.03405
G1 X205.528 Y160.473 E.0334
G1 X205.263 Y160.976 E.02053
G1 X204.761 Y161.789 E.03452
G1 X204.188 Y162.554 E.0345
G1 X203.554 Y163.252 E.03405
G1 X202.878 Y163.874 E.03316
G1 X202.139 Y164.44 E.03361
G1 X201.342 Y164.943 E.03405
G1 X200.502 Y165.371 E.03403
G1 X199.591 Y165.732 E.03539
G1 X198.698 Y165.993 E.03359
G1 X197.796 Y166.171 E.03317
G1 X196.841 Y166.27 E.0347
G1 X196.234 Y166.288 E.02191
G1 X23.814 Y166.304 E6.22538
G1 X22.833 Y166.259 E.03548
G1 X21.874 Y166.125 E.03495
G1 X20.968 Y165.913 E.0336
G1 X20.097 Y165.624 E.03315
G1 X19.186 Y165.226 E.03588
G1 X18.791 Y165.018 E.01612
G1 X17.916 Y164.484 E.03701
G1 X17.133 Y163.898 E.03531
G1 X16.435 Y163.265 E.03403
G1 X15.813 Y162.589 E.03316
G1 X15.247 Y161.85 E.03361
G1 X14.731 Y161.031 E.03495
G1 X14.306 Y160.19 E.03404
G1 X13.959 Y159.313 E.03403
G1 X13.697 Y158.42 E.0336
G1 X13.516 Y157.507 E.0336
G1 X13.415 Y156.522 E.03579
G1 X13.398 Y155.949 E.02069
G1 X13.383 Y118.736 E1.3436
G1 X13.433 Y117.569 E.04215
G1 X13.524 Y116.772 E.02898
G1 X13.67 Y115.949 E.03018
G1 X13.909 Y114.986 E.03581
G1 X14.155 Y114.219 E.0291
G1 X14.462 Y113.433 E.03047
G1 X14.783 Y112.736 E.02772
G1 X15.079 Y112.173 E.02294
G1 X15.511 Y111.454 E.03028
G1 X16.08 Y110.637 E.03596
G1 X16.471 Y110.143 E.02273
G1 X16.993 Y109.551 E.02851
G1 X17.697 Y108.852 E.03582
G1 X18.331 Y108.303 E.03029
G1 X39.352 Y92.041 E.95958
G1 X60.204 Y75.316 E.96514
G1 X60.49 Y75.673 F42000
G1 F3600
G1 X84.551 Y56.374 E1.11365
G1 X85.307 Y55.822 E.03378
G1 X86.123 Y55.334 E.03434
G1 X86.904 Y54.96 E.03128
G1 X87.555 Y54.71 E.02519
G1 X88.404 Y54.456 E.03198
G1 X89.275 Y54.277 E.03211
G1 X90.19 Y54.175 E.03322
G1 X90.833 Y54.154 E.02324
G1 X168.291 Y54.154 E2.79671
G1 X169.238 Y54.198 E.03422
G1 X170.155 Y54.326 E.03343
G1 X171.009 Y54.526 E.03165
G1 X171.841 Y54.802 E.03167
G1 X172.694 Y55.173 E.03357
G1 X173.094 Y55.383 E.01633
G1 X173.929 Y55.892 E.0353
G1 X174.65 Y56.429 E.03245
G1 X175.32 Y57.031 E.03253
G1 X175.931 Y57.691 E.03249
G1 X176.508 Y58.446 E.0343
G1 X176.985 Y59.209 E.03249
G1 X177.39 Y60.014 E.03254
G1 X177.713 Y60.83 E.03167
G1 X177.961 Y61.671 E.03167
G1 X178.139 Y62.571 E.03311
G1 X178.263 Y63.488 E.0334
G1 X178.396 Y63.865 E.01445
G1 X178.629 Y64.285 E.01735
G1 X196.311 Y88.082 E1.07042
G1 X196.644 Y88.435 E.01754
G1 X202.552 Y93.412 E.27893
M73 P1 R68
G1 X203.259 Y94.065 E.0347
G1 X203.87 Y94.743 E.03297
G1 X204.408 Y95.465 E.03253
G1 X204.869 Y96.215 E.03177
G1 X205.173 Y96.809 E.0241
G1 X205.55 Y97.716 E.03545
G1 X205.816 Y98.573 E.03241
G1 X206.01 Y99.503 E.03432
G1 X206.11 Y100.364 E.03128
G1 X206.136 Y101.094 E.02639
G1 X206.136 Y155.86 E1.97736
G1 X206.093 Y156.795 E.03379
G1 X205.968 Y157.711 E.03341
G1 X205.756 Y158.612 E.0334
G1 X205.47 Y159.467 E.03254
G1 X205.118 Y160.27 E.03166
G1 X204.863 Y160.753 E.01972
G1 X204.38 Y161.537 E.03326
G1 X203.831 Y162.267 E.03298
G1 X203.225 Y162.934 E.03253
G1 X202.579 Y163.527 E.03167
G1 X201.883 Y164.061 E.03167
G1 X201.121 Y164.542 E.03254
G1 X200.319 Y164.951 E.03249
G1 X199.436 Y165.301 E.03431
G1 X198.595 Y165.547 E.03163
G1 X197.735 Y165.717 E.03167
G1 X196.815 Y165.813 E.03338
G1 X196.225 Y165.831 E.02131
G1 X23.828 Y165.847 E6.22457
M73 P1 R67
G1 X22.881 Y165.803 E.03422
G1 X21.952 Y165.674 E.03388
G1 X21.099 Y165.474 E.03164
G1 X20.267 Y165.198 E.03165
G1 X19.38 Y164.811 E.03493
G1 X19.013 Y164.618 E.01498
G1 X18.178 Y164.109 E.03531
G1 X17.419 Y163.541 E.03422
G1 X16.753 Y162.936 E.0325
G1 X16.159 Y162.29 E.03167
G1 X15.626 Y161.594 E.03165
G1 X15.127 Y160.8 E.03388
G1 X14.721 Y159.996 E.03251
G1 X14.39 Y159.158 E.03252
G1 X14.143 Y158.317 E.03165
G1 X13.97 Y157.446 E.03208
G1 X13.871 Y156.487 E.03482
G1 X13.855 Y155.94 E.01973
G1 X13.84 Y118.748 E1.34285
G1 X13.889 Y117.61 E.04115
G1 X13.976 Y116.842 E.02791
G1 X14.118 Y116.039 E.02942
G1 X14.35 Y115.107 E.0347
G1 X14.587 Y114.368 E.02803
G1 X14.884 Y113.608 E.02946
G1 X15.192 Y112.941 E.02651
G1 X15.476 Y112.401 E.02204
G1 X15.898 Y111.699 E.02957
G1 X16.45 Y110.906 E.03488
G1 X16.824 Y110.434 E.02177
G1 X17.323 Y109.868 E.02722
G1 X18.005 Y109.191 E.03471
G1 X18.624 Y108.654 E.02958
G1 X39.639 Y92.397 E.95932
G1 X60.459 Y75.698 E.96365
G1 X60.745 Y76.054 F42000
G1 F3600
G1 X84.827 Y56.739 E1.11461
G1 X85.554 Y56.207 E.03253
G1 X86.345 Y55.735 E.03327
G1 X87.08 Y55.383 E.02944
G1 X87.708 Y55.141 E.02429
G1 X88.522 Y54.898 E.03065
G1 X89.34 Y54.73 E.03017
G1 X90.217 Y54.632 E.03187
G1 X90.838 Y54.611 E.02243
G1 X168.277 Y54.611 E2.79602
G1 X169.19 Y54.653 E.03297
G1 X170.077 Y54.777 E.03237
G1 X170.89 Y54.969 E.03015
G1 X171.672 Y55.228 E.02974
G1 X172.492 Y55.584 E.03228
G1 X172.873 Y55.783 E.01554
G1 X173.668 Y56.268 E.0336
G1 X174.355 Y56.779 E.03092
G1 X174.994 Y57.353 E.03101
G1 X175.585 Y57.991 E.03142
G1 X176.135 Y58.712 E.03275
G1 X176.589 Y59.439 E.03095
G1 X176.975 Y60.207 E.03103
G1 X177.278 Y60.973 E.02974
G1 X177.515 Y61.775 E.03017
