; HEADER_BLOCK_START
; generated by OrcaSlicer 2.1.0 on 2025-02-20 at 17:58:37
; total layer number: 50
; filament_density: 1.27
; filament_diameter: 1.75
; max_z_height: 10.00
; HEADER_BLOCK_END

; THUMBNAIL_BLOCK_START

;
; THUMBNAIL_BLOCK_END

; THUMBNAIL_BLOCK_START

;
; THUMBNAIL_BLOCK_END

; external perimeters extrusion width = 0.42mm
; perimeters extrusion width = 0.45mm
; infill extrusion width = 0.45mm
; solid infill extrusion width = 0.42mm
; top infill extrusion width = 0.42mm
; support material extrusion width = 0.42mm
; first layer extrusion width = 0.50mm

; external perimeters extrusion width = 0.42mm
; perimeters extrusion width = 0.45mm
; infill extrusion width = 0.45mm
; solid infill extrusion width = 0.42mm
; top infill extrusion width = 0.42mm
; support material extrusion width = 0.42mm
; first layer extrusion width = 0.50mm

; EXECUTABLE_BLOCK_START
EXCLUDE_OBJECT_DEFINE NAME=крюк_старый.stp_id_0_copy_0 CENTER=156.881,123.228 POLYGON=[[133.141,95.9942],[135.941,84.6942],[146.524,84.6942],[180.547,139.965],[180.581,140.031],[180.604,140.1],[180.618,140.173],[180.62,140.247],[180.591,140.762],[180.551,141.277],[180.499,141.791],[180.435,142.303],[180.359,142.814],[180.272,143.323],[180.173,143.829],[180.062,144.334],[179.94,144.835],[179.807,145.334],[179.662,145.829],[179.505,146.321],[179.338,146.81],[179.159,147.294],[178.969,147.774],[178.768,148.25],[178.557,148.721],[178.334,149.187],[178.101,149.647],[177.858,150.103],[177.604,150.552],[177.34,150.996],[177.065,151.433],[176.781,151.864],[176.487,152.289],[176.183,152.706],[175.87,153.117],[175.547,153.52],[175.216,153.915],[174.875,154.303],[174.526,154.683],[174.167,155.055],[173.801,155.419],[173.426,155.774],[173.043,156.12],[172.652,156.458],[172.254,156.786],[171.848,157.105],[171.435,157.415],[171.015,157.715],[170.588,158.006],[170.155,158.286],[169.715,158.557],[169.27,158.818],[168.818,159.068],[168.361,159.308],[167.898,159.537],[167.43,159.755],[166.958,159.963],[166.48,160.16],[165.999,160.346],[165.513,160.52],[165.023,160.684],[164.53,160.836],[164.033,160.977],[163.533,161.107],[163.031,161.225],[162.526,161.331],[162.018,161.426],[161.508,161.509],[160.997,161.58],[160.484,161.64],[159.97,161.688],[159.455,161.724],[158.94,161.748],[158.423,161.761],[157.907,161.761],[157.391,161.75],[156.875,161.727],[156.36,161.692],[155.846,161.645],[155.333,161.586],[154.821,161.516],[154.312,161.434],[153.804,161.34],[153.299,161.235],[152.796,161.118],[152.296,160.99],[151.799,160.85],[151.305,160.699],[150.815,160.536],[150.329,160.362],[149.847,160.178],[149.369,159.982],[148.896,159.775],[148.428,159.557],[147.964,159.329],[147.507,159.09],[147.055,158.841],[146.608,158.582],[146.168,158.312],[145.734,158.032],[145.307,157.743],[144.886,157.443],[144.472,157.134],[144.066,156.816],[143.667,156.488],[143.275,156.152],[142.892,155.806],[142.516,155.452],[142.149,155.089],[141.79,154.718],[141.44,154.339],[141.098,153.952],[140.765,153.557],[140.442,153.154],[140.128,152.744],[139.823,152.328],[139.528,151.904],[139.243,151.473],[138.968,151.037],[138.703,150.594],[138.448,150.145],[138.204,149.69],[137.969,149.23],[137.746,148.764],[137.533,148.294],[137.332,147.819],[137.141,147.339],[136.961,146.855],[136.792,146.367],[136.635,145.875],[136.489,145.38],[136.354,144.882],[136.231,144.38],[136.119,143.876],[136.019,143.37],[135.931,142.861],[135.854,142.35],[135.789,141.838],[135.736,141.325],[135.695,140.81],[133.141,108.732],[133.141,95.9942]]
EXCLUDE_OBJECT_DEFINE NAME=крюк_старый.stp_id_1_copy_0 CENTER=79.0288,124.647 POLYGON=[[55.2896,97.4133],[58.0896,86.1133],[68.6723,86.1133],[102.696,141.384],[102.729,141.45],[102.753,141.519],[102.766,141.592],[102.768,141.666],[102.74,142.181],[102.699,142.696],[102.647,143.21],[102.583,143.722],[102.508,144.233],[102.42,144.742],[102.321,145.248],[102.211,145.753],[102.088,146.254],[101.955,146.753],[101.81,147.248],[101.654,147.741],[101.486,148.229],[101.307,148.713],[101.117,149.193],[100.917,149.669],[100.705,150.14],[100.483,150.606],[100.249,151.067],[100.006,151.522],[99.752,151.971],[99.4878,152.415],[99.2136,152.852],[98.9293,153.283],[98.6353,153.708],[98.3315,154.125],[98.0183,154.536],[97.6958,154.939],[97.3641,155.334],[97.0233,155.722],[96.6738,156.102],[96.3157,156.474],[95.9491,156.838],[95.5743,157.193],[95.1914,157.539],[94.8007,157.877],[94.4023,158.205],[93.9965,158.524],[93.5835,158.834],[93.1635,159.134],[92.7367,159.425],[92.3034,159.706],[91.8637,159.976],[91.4179,160.237],[90.9663,160.487],[90.5091,160.727],[90.0464,160.956],[89.5787,161.174],[89.106,161.382],[88.6287,161.579],[88.147,161.765],[87.6612,161.94],[87.1715,162.103],[86.6782,162.255],[86.1815,162.396],[85.6817,162.526],[85.1791,162.644],[84.6738,162.75],[84.1663,162.845],[83.6568,162.928],[83.1454,162.999],[82.6326,163.059],[82.1185,163.107],[81.6035,163.143],[81.0878,163.167],[80.5716,163.18],[80.0553,163.18],[79.5392,163.169],[79.0234,163.146],[78.5083,163.111],[77.9941,163.064],[77.4812,163.005],[76.9697,162.935],[76.4599,162.853],[75.9522,162.759],[75.4468,162.654],[74.9439,162.537],[74.4438,162.409],[73.9468,162.269],[73.4532,162.118],[72.9631,161.955],[72.4769,161.781],[71.9949,161.597],[71.5172,161.401],[71.0441,161.194],[70.5758,160.977],[70.1127,160.748],[69.655,160.51],[69.2028,160.26],[68.7565,160.001],[68.3163,159.731],[67.8823,159.451],[67.4549,159.162],[67.0343,158.862],[66.6206,158.553],[66.2141,158.235],[65.8151,157.907],[65.4236,157.571],[65.04,157.225],[64.6644,156.871],[64.2971,156.508],[63.9381,156.137],[63.5878,155.758],[63.2463,155.371],[62.9137,154.976],[62.5903,154.573],[62.2762,154.164],[61.9716,153.747],[61.6767,153.323],[61.3915,152.893],[61.1163,152.456],[60.8512,152.013],[60.5963,151.564],[60.3518,151.109],[60.1178,150.649],[59.8944,150.183],[59.6817,149.713],[59.4799,149.238],[59.2891,148.758],[59.1093,148.274],[58.9407,147.786],[58.7833,147.294],[58.6372,146.799],[58.5025,146.301],[58.3793,145.799],[58.2677,145.295],[58.1676,144.789],[58.0792,144.28],[58.0025,143.769],[57.9375,143.257],[57.8843,142.744],[57.8429,142.229],[55.2896,110.151],[55.2896,97.4133]]
M73 P0 R29
M106 S0
M106 P2 S0
;TYPE:Custom
M140 S0
M104 S0 
START_PRINT EXTRUDER_TEMP=250 BED_TEMP=90
M106 P3 S153
G90
G21
M83 ; use relative distances for extrusion
; filament start gcode
M106 S0
M106 P2 S0
;LAYER_CHANGE
;Z:0.2
;HEIGHT:0.2
;BEFORE_LAYER_CHANGE
;0.2
G92 E0

G1 E-.6 F2400
;_SET_FAN_SPEED_CHANGING_LAYER
SET_VELOCITY_LIMIT ACCEL=500 ACCEL_TO_DECEL=250
SET_VELOCITY_LIMIT SQUARE_CORNER_VELOCITY=9
EXCLUDE_OBJECT_START NAME=крюк_старый.stp_id_0_copy_0
G1 Z.2 F42000
G1 X139.577 Y86.673
G1 Z.2
G1 E.6 F2400
;TYPE:Inner wall
;WIDTH:0.499999
G1 F3600
G1 X139.345 Y86.754 E.0089
G1 X138.83 Y87.045 E.02133
G1 X138.322 Y87.439 E.02323
G1 X137.713 Y88.114 E.03283
G1 X137.713 Y86.465 E.05952
G1 X139.96 Y86.452 E.08117
;WIDTH:0.473764
G1 X140.358 Y86.439 E.01352
;WIDTH:0.478376
G1 X140.128 Y86.481 E.00801
;WIDTH:0.499999
G1 X139.615 Y86.66 E.01962
;WIPE_START
G1 X139.345 Y86.754 E-.08596
G1 X138.83 Y87.045 E-.17719
G1 X138.322 Y87.439 E-.19301
G1 X138.001 Y87.795 E-.14383
;WIPE_END
G1 Z.4 F42000
G1 X141.898 Y86.422 Z.4
G1 Z.2
G1 E.6 F2400
;WIDTH:0.457047
G1 F3600
G1 X142.179 Y86.444 E.00921
;WIDTH:0.499999
G1 X142.459 Y86.465 E.01016
G1 X144.753 Y86.465 E.0828
G1 X144.753 Y88.125 E.05991
G1 X144.438 Y87.73 E.01824
G1 X143.775 Y87.145 E.03191
G1 X143.059 Y86.725 E.02997
G1 X142.455 Y86.503 E.02323
G1 X142.177 Y86.463 E.01016
;WIDTH:0.457047
G1 X141.938 Y86.428 E.0079
;WIPE_START
G1 X142.179 Y86.444 E-.07245
G1 X142.459 Y86.465 E-.08442
G1 X143.937 Y86.465 E-.44313
;WIPE_END
G1 Z.4 F42000
G1 X139.718 Y87.101 Z.4
G1 Z.2
G1 E.6 F2400
;WIDTH:0.499999
G1 F3600
G1 X139.56 Y87.158 E.00608
G1 X139.098 Y87.416 E.0191
G1 X138.648 Y87.76 E.02045
G1 X138.11 Y88.341 E.02858
G1 X137.701 Y89.017 E.02854
;WIDTH:0.545271
G1 X137.612 Y89.199 E.00805
;WIDTH:0.590542
G1 X137.523 Y89.382 E.00878
;WIDTH:0.635813
G1 X137.435 Y89.564 E.00951
;WIDTH:0.681084
G1 X137.346 Y89.747 E.01023
G1 X137.327 Y89.663 E.00436
;WIDTH:0.642526
G1 X137.307 Y89.578 E.0041
;WIDTH:0.603968
G1 X137.288 Y89.494 E.00384
;WIDTH:0.565409
G1 X137.272 Y89.213 E.01159
;WIDTH:0.532704
G1 X137.255 Y88.933 E.01087
;WIDTH:0.499999
G1 X137.255 Y86.008 E.10559
G1 X145.21 Y86.008 E.2872
G1 X145.21 Y89.613 E.13015
;WIDTH:0.533838
G1 X145.193 Y89.8 E.00728
;WIDTH:0.567676
G1 X145.176 Y89.987 E.00779
;WIDTH:0.601514
G1 X145.159 Y90.174 E.00829
G1 X145.082 Y89.921 E.01169
;WIDTH:0.567676
G1 X145.005 Y89.667 E.01098
;WIDTH:0.533838
G1 X144.927 Y89.414 E.01027
;WIDTH:0.499999
G1 X144.594 Y88.696 E.02858
G1 X144.123 Y88.061 E.02855
G1 X143.534 Y87.533 E.02857
G1 X142.886 Y87.148 E.0272
G1 X142.356 Y86.949 E.02045
G1 X141.617 Y86.801 E.0272
G1 X141.052 Y86.788 E.02042
G1 X140.269 Y86.905 E.02857
G1 X139.756 Y87.088 E.01967
G1 X140.358 Y86.439 F42000
;WIDTH:0.447528
G1 F3600
G1 X140.682 Y86.419 E.01038
;WIDTH:0.408007
G1 X141.006 Y86.4 E.00936
;WIDTH:0.378716
G1 X141.637 Y86.405 E.01676
;WIDTH:0.414094
G1 X141.898 Y86.422 E.00767
;WIPE_START
G1 X141.637 Y86.405 E-.10174
G1 X141.006 Y86.4 E-.24572
G1 X140.682 Y86.419 E-.12627
G1 X140.358 Y86.439 E-.12627
;WIPE_END
G1 Z.4 F42000
G1 X144.785 Y107.431 Z.4
G1 Z.2
G1 E.6 F2400
;WIDTH:0.499999
G1 F3600
G1 X144.836 Y107.675 E.00901
G1 X145.106 Y108.168 E.02029
G1 X145.243 Y108.234 E.00549
G1 X145.243 Y113.196 E.17916
G1 X144.836 Y114.079 E.0351
G1 X144.753 Y114.588 E.01864
G1 X144.759 Y124.781 E.36802
G1 X144.686 Y125.287 E.01847
G1 X144.424 Y125.724 E.01837
G1 X143.812 Y126.38 E.03242
G1 X143.436 Y126.816 E.02078
G1 X143.043 Y127.288 E.02217
G1 X142.425 Y128.111 E.03717
G1 X141.634 Y129.316 E.05205
G1 X141.113 Y130.239 E.03825
G1 X140.656 Y131.162 E.03717
G1 X140.098 Y132.491 E.05205
G1 X139.754 Y133.493 E.03825
G1 X139.474 Y134.479 E.037
G1 X139.164 Y135.9 E.05253
G1 X138.96 Y137.391 E.05432
G1 X138.888 Y138.448 E.03825
G1 X138.872 Y139.477 E.03717
G1 X138.941 Y140.926 E.05236
G1 X139.066 Y141.914 E.03598
G1 X139.143 Y142.488 E.02091
G1 X139.449 Y143.949 E.05387
G1 X139.695 Y144.84 E.03339
G1 X140.22 Y146.348 E.05765
G1 X140.616 Y147.276 E.03642
G1 X141.021 Y148.108 E.0334
G1 X141.714 Y149.328 E.05069
G1 X142.097 Y149.936 E.02592
G1 X142.972 Y151.147 E.05396
G1 X143.613 Y151.923 E.03633
G1 X144.295 Y152.666 E.03643
G1 X145.012 Y153.369 E.03624
G1 X146.088 Y154.291 E.05116
G1 X146.78 Y154.818 E.0314
G1 X147.806 Y155.527 E.04505
G1 X148.672 Y156.046 E.03643
G1 X149.563 Y156.519 E.03643
G1 X150.482 Y156.945 E.03658
G1 X151.38 Y157.309 E.03498
G1 X152.871 Y157.798 E.05665
G1 X154.321 Y158.15 E.05387
G1 X155.232 Y158.312 E.03341
G1 X156.61 Y158.467 E.05007
G1 X157.488 Y158.519 E.03176
G1 X158.351 Y158.531 E.03118
G1 X159.791 Y158.464 E.05204
G1 X160.844 Y158.343 E.03826
G1 X161.806 Y158.182 E.0352
G1 X162.318 Y158.063 E.01901
G1 X163.311 Y157.827 E.03683
G1 X164.295 Y157.524 E.03717
G1 X165.638 Y157.016 E.05184
G1 X166.887 Y156.429 E.04985
G1 X167.65 Y156.02 E.03127
G1 X168.37 Y155.594 E.03018
G1 X169.227 Y155.024 E.03717
G1 X170.56 Y153.993 E.06084
G1 X171.221 Y153.413 E.03175
G1 X171.903 Y152.752 E.03428
G1 X172.6 Y152.001 E.037
G1 X173.513 Y150.886 E.05204
G1 X174.128 Y150.023 E.03826
G1 X174.669 Y149.172 E.03642
G1 X175.165 Y148.293 E.03642
G1 X175.579 Y147.466 E.0334
G1 X176.017 Y146.46 E.03962
G1 X176.372 Y145.508 E.0367
G1 X176.8 Y144.117 E.05252
G1 X176.982 Y143.913 E.00987
G1 X178.553 Y142.838 E.06875
G1 X178.336 Y143.934 E.04035
G1 X178.103 Y144.847 E.03401
G1 X177.668 Y146.215 E.05185
G1 X177.14 Y147.551 E.05184
G1 X176.742 Y148.41 E.03419
G1 X176.305 Y149.249 E.03417
G1 X175.828 Y150.072 E.03435
G1 X175.318 Y150.864 E.03401
G1 X174.474 Y152.025 E.05184
G1 X173.548 Y153.129 E.05203
G1 X172.906 Y153.812 E.03383
G1 X172.222 Y154.474 E.03435
G1 X171.51 Y155.104 E.03435
G1 X170.78 Y155.691 E.03383
G1 X169.608 Y156.53 E.05203
G1 X168.385 Y157.282 E.05184
G1 X167.556 Y157.729 E.03401
G1 X166.707 Y158.138 E.03401
G1 X165.371 Y158.689 E.05218
G1 X164.481 Y158.997 E.03401
G1 X163.569 Y159.267 E.03435
G1 X162.646 Y159.495 E.03435
G1 X161.713 Y159.681 E.03434
G1 X160.772 Y159.823 E.03434
G1 X159.831 Y159.921 E.03419
G1 X158.392 Y159.989 E.052
G1 X157.45 Y159.979 E.03401
G1 X156.5 Y159.926 E.03435
G1 X155.554 Y159.829 E.03435
G1 X154.622 Y159.69 E.03401
G1 X153.208 Y159.395 E.05218
G1 X152.298 Y159.15 E.03401
G1 X151.392 Y158.861 E.03435
G1 X150.5 Y158.531 E.03434
G1 X149.624 Y158.16 E.03435
G1 X148.766 Y157.749 E.03434
G1 X147.931 Y157.301 E.03419
G1 X146.703 Y156.549 E.052
G1 X145.93 Y156.012 E.03401
G1 X145.174 Y155.434 E.03434
G1 X144.446 Y154.822 E.03435
G1 X143.747 Y154.177 E.03434
G1 X143.077 Y153.501 E.03435
G1 X142.44 Y152.795 E.03435
G1 X141.836 Y152.06 E.03434
G1 X141.271 Y151.306 E.03401
G1 X140.473 Y150.101 E.05218
G1 X139.999 Y149.288 E.03401
G1 X139.558 Y148.445 E.03435
G1 X139.156 Y147.583 E.03435
G1 X138.794 Y146.703 E.03434
G1 X138.473 Y145.807 E.03435
G1 X138.197 Y144.907 E.034
G1 X137.853 Y143.508 E.05203
G1 X137.61 Y142.107 E.05133
G1 X137.463 Y140.688 E.05151
G1 X137.413 Y139.233 E.05255
G1 X137.413 Y126.336 E.46568
G1 X137.453 Y125.733 E.02181
G1 X137.691 Y124.992 E.02811
G1 X137.713 Y124.731 E.00946
G1 X137.713 Y114.591 E.36611
G1 X137.674 Y114.238 E.0128
G1 X137.558 Y113.902 E.01286
G1 X137.223 Y113.196 E.02821
G1 X137.223 Y108.234 E.17916
G1 X137.36 Y108.168 E.00549
G1 X137.573 Y107.82 E.01475
G1 X137.674 Y107.515 E.01158
G1 X137.713 Y107.166 E.0127
G1 X137.713 Y103.588 E.12918
G1 X137.674 Y103.238 E.0127
G1 X137.558 Y102.902 E.01286
G1 X137.223 Y102.196 E.02821
G1 X137.223 Y97.26 E.1782
G1 X137.319 Y97.216 E.00384
G1 X137.551 Y96.865 E.01519
G1 X137.669 Y96.536 E.01262
G1 X137.713 Y96.166 E.01348
G1 X137.713 Y93.301 E.10343
G1 X137.929 Y93.549 E.0119
G1 X138.571 Y94.155 E.03188
G1 X139.323 Y94.621 E.03191
G1 X140.153 Y94.925 E.03191
G1 X140.704 Y95.028 E.02025
G1 X141.165 Y95.053 E.01666
G1 X141.908 Y95.008 E.02688
G1 X142.762 Y94.784 E.03188
G1 X143.554 Y94.392 E.0319
G1 X144.251 Y93.849 E.0319
G1 X144.753 Y93.278 E.02746
G1 X144.76 Y96.313 E.10956
G1 X144.874 Y96.776 E.01725
G1 X145.146 Y97.216 E.01868
G1 X145.243 Y97.26 E.00384
G1 X145.243 Y102.196 E.1782
G1 X144.836 Y103.079 E.0351
G1 X144.753 Y103.588 E.01864
G1 X144.753 Y107.276 E.13316
G1 X144.777 Y107.392 E.00426
G1 X145.234 Y107.313 F42000
G1 F3600
G1 X145.269 Y107.53 E.00792
G1 X145.462 Y107.882 E.01449
G1 X145.7 Y107.996 E.00952
G1 X145.7 Y113.299 E.19147
G1 X145.269 Y114.224 E.03685
G1 X145.21 Y114.588 E.01331
G1 X145.216 Y124.807 E.36898
G1 X145.156 Y125.312 E.01834
G1 X145.035 Y125.616 E.01181
G1 X144.778 Y126.015 E.01715
G1 X144.146 Y126.692 E.03344
G1 X143.786 Y127.11 E.01993
G1 X143.407 Y127.563 E.0213
G1 X142.807 Y128.362 E.03609
G1 X142.025 Y129.554 E.05148
G1 X141.522 Y130.444 E.03688
G1 X141.078 Y131.339 E.03609
G1 X140.525 Y132.653 E.05148
G1 X140.194 Y133.619 E.03688
G1 X139.921 Y134.576 E.03592
G1 X139.615 Y135.98 E.05188
G1 X139.415 Y137.437 E.0531
G1 X139.345 Y138.456 E.03688
G1 X139.329 Y139.455 E.03609
G1 X139.396 Y140.886 E.05171
G1 X139.591 Y142.396 E.05495
G1 X139.89 Y143.827 E.0528
G1 X140.047 Y144.396 E.02132
G1 X140.295 Y145.184 E.02983
G1 X140.641 Y146.17 E.03773
G1 X141.027 Y147.076 E.03556
G1 X141.432 Y147.908 E.0334
G1 X141.679 Y148.358 E.01856
G1 X142.102 Y149.087 E.0304
G1 X142.468 Y149.669 E.02484
G1 X143.325 Y150.857 E.05288
G1 X143.95 Y151.614 E.03546
G1 X144.616 Y152.34 E.03557
G1 X145.315 Y153.027 E.03538
G1 X146.373 Y153.934 E.05029
G1 X147.041 Y154.443 E.03032
G1 X148.042 Y155.136 E.04398
G1 X148.887 Y155.643 E.03557
G1 X149.757 Y156.104 E.03556
G1 X150.654 Y156.522 E.03572
G1 X151.507 Y156.867 E.03323
G1 X152.98 Y157.354 E.05602
G1 X154.4 Y157.7 E.05279
G1 X155.791 Y157.923 E.05086
G1 X156.642 Y158.011 E.03088
G1 X157.496 Y158.062 E.0309
G1 X158.33 Y158.075 E.0301
G1 X159.754 Y158.008 E.05147
G1 X160.769 Y157.892 E.03689
G1 X161.717 Y157.734 E.03468
G1 X163.178 Y157.389 E.0542
G1 X164.133 Y157.096 E.03609
G1 X165.431 Y156.606 E.0501
G1 X166.676 Y156.023 E.04964
G1 X167.419 Y155.626 E.0304
