; HEADER_BLOCK_START
; generated by OrcaSlicer 2.1.0 on 2025-01-09 at 18:01:55
; total layer number: 125
; filament_density: 1.27
; filament_diameter: 1.75
; max_z_height: 25.00
; HEADER_BLOCK_END

; THUMBNAIL_BLOCK_START

;
; THUMBNAIL_BLOCK_END

; THUMBNAIL_BLOCK_START

;
; THUMBNAIL_BLOCK_END

; external perimeters extrusion width = 0.42mm
; perimeters extrusion width = 0.45mm
; infill extrusion width = 0.45mm
; solid infill extrusion width = 0.42mm
; top infill extrusion width = 0.42mm
; support material extrusion width = 0.42mm
; first layer extrusion width = 0.50mm

; EXECUTABLE_BLOCK_START
EXCLUDE_OBJECT_DEFINE NAME=крюк_старый.stp_id_0_copy_0 CENTER=110,110 POLYGON=[[87.5108,93.7494],[87.5167,93.2331],[87.5345,92.7171],[87.5641,92.2017],[87.6055,91.6871],[87.6587,91.1735],[87.7237,90.6613],[87.8004,90.1508],[87.8888,89.6421],[87.9889,89.1356],[88.1006,88.6315],[88.2238,88.1302],[88.3584,87.6317],[88.5045,87.1365],[88.6619,86.6448],[88.8305,86.1568],[89.0103,85.6729],[89.2011,85.1931],[89.4029,84.7179],[89.6156,84.2475],[89.839,83.782],[90.073,83.3218],[90.3175,82.8671],[90.5724,82.4181],[90.8375,81.975],[91.1127,81.5382],[91.3979,81.1078],[91.6928,80.6841],[91.9974,80.2672],[92.3115,79.8574],[92.6349,79.455],[92.9675,79.0601],[93.309,78.6729],[93.6593,78.2936],[94.0183,77.9225],[94.3856,77.5597],[94.7612,77.2055],[95.1448,76.8599],[95.5363,76.5233],[95.9353,76.1957],[96.3418,75.8774],[96.7555,75.5684],[97.1761,75.2691],[97.6035,74.9795],[98.0375,74.6997],[98.4777,74.43],[98.924,74.1705],[99.3762,73.9212],[99.8339,73.6825],[100.297,73.4542],[100.765,73.2367],[101.238,73.03],[101.716,72.8341],[102.198,72.6493],[102.684,72.4756],[103.174,72.3131],[103.668,72.1619],[104.165,72.022],[104.665,71.8936],[105.168,71.7767],[105.673,71.6714],[106.181,71.5777],[106.691,71.4957],[107.202,71.4253],[107.715,71.3668],[108.23,71.32],[108.745,71.285],[109.26,71.2619],[109.777,71.2506],[110.293,71.2512],[110.809,71.2636],[111.325,71.2878],[111.84,71.3238],[112.354,71.3717],[112.867,71.4314],[113.378,71.5028],[113.888,71.5859],[114.395,71.6807],[114.9,71.7871],[115.403,71.9051],[115.903,72.0345],[116.399,72.1754],[116.893,72.3277],[117.382,72.4912],[117.868,72.666],[118.35,72.8518],[118.827,73.0487],[119.3,73.2564],[119.768,73.4749],[120.23,73.7041],[120.688,73.9439],[121.139,74.1941],[121.585,74.4546],[122.025,74.7252],[122.458,75.0059],[122.885,75.2964],[123.305,75.5967],[123.718,75.9065],[124.124,76.2257],[124.522,76.5541],[124.913,76.8916],[125.295,77.238],[125.67,77.593],[126.037,77.9566],[126.395,78.3284],[126.745,78.7084],[127.085,79.0964],[127.417,79.492],[127.74,79.8951],[128.053,80.3055],[128.356,80.7231],[128.651,81.1474],[128.935,81.5784],[129.209,82.0158],[129.473,82.4594],[129.727,82.909],[129.971,83.3642],[130.204,83.8249],[130.426,84.2909],[130.638,84.7618],[130.839,85.2374],[131.028,85.7176],[131.207,86.2019],[131.375,86.6903],[131.531,87.1823],[131.676,87.6778],[131.81,88.1765],[131.932,88.6782],[132.042,89.1825],[132.141,89.6892],[132.229,90.198],[132.304,90.7088],[132.368,91.2211],[132.42,91.7347],[132.461,92.2495],[132.489,92.765],[132.487,92.8387],[132.474,92.9113],[132.45,92.9812],[132.417,93.0468],[132.374,93.1068],[92.4442,147.878],[92.3553,147.998],[92.2578,148.112],[92.1521,148.217],[92.0388,148.314],[91.9185,148.403],[91.792,148.482],[91.6599,148.552],[91.523,148.612],[91.382,148.661],[91.2377,148.699],[91.091,148.727],[90.9426,148.744],[90.7934,148.749],[87.5108,148.749],[87.5108,93.7494]]
M73 P0 R24
M106 S0
M106 P2 S0
;TYPE:Custom
M140 S0
M104 S0 
START_PRINT EXTRUDER_TEMP=250 BED_TEMP=80
G90
G21
M83 ; use relative distances for extrusion
; filament start gcode
M106 S0
M106 P2 S0
;LAYER_CHANGE
;Z:0.2
;HEIGHT:0.2
;BEFORE_LAYER_CHANGE
;0.2
G92 E0

G1 E-.6 F2400
;_SET_FAN_SPEED_CHANGING_LAYER
SET_VELOCITY_LIMIT ACCEL=500 ACCEL_TO_DECEL=250
SET_VELOCITY_LIMIT SQUARE_CORNER_VELOCITY=9
EXCLUDE_OBJECT_START NAME=крюк_старый.stp_id_0_copy_0
G1 Z.2 F42000
G1 X88.565 Y75.977
G1 Z.2
G1 E.6 F2400
;TYPE:Brim
;WIDTH:0.5
G1 F3600
G1 X89.29 Y75.132 E.04059
G1 X89.808 Y74.571 E.02788
G1 X90.62 Y73.75 E.0421
G1 X91.559 Y72.881 E.04669
G1 X92.137 Y72.384 E.0278
G1 X93.137 Y71.586 E.04668
G1 X94.171 Y70.835 E.04665
G1 X95.134 Y70.199 E.04211
G1 X95.784 Y69.8 E.02781
G1 X96.898 Y69.172 E.04668
G1 X98.04 Y68.597 E.04664
G1 X99.207 Y68.074 E.04665
G1 X100.278 Y67.649 E.04207
G1 X101.487 Y67.229 E.04669
G1 X102.216 Y67.006 E.02781
G1 X103.452 Y66.676 E.04667
G1 X104.578 Y66.428 E.04207
G1 X105.839 Y66.208 E.04669
G1 X106.593 Y66.104 E.0278
G1 X107.864 Y65.976 E.0466
G1 X109.018 Y65.911 E.04216
G1 X110.296 Y65.895 E.04665
G1 X111.574 Y65.937 E.04664
G1 X112.848 Y66.038 E.04663
G1 X114.24 Y66.216 E.05121
G1 X115.499 Y66.439 E.04663
G1 X116.747 Y66.72 E.04669
G1 X117.363 Y66.881 E.02323
G1 X118.47 Y67.209 E.04211
G1 X119.679 Y67.625 E.04664
G1 X120.982 Y68.145 E.05121
G1 X122.145 Y68.675 E.04663
G1 X123.283 Y69.258 E.04664
G1 X124.393 Y69.893 E.04665
G1 X125.369 Y70.509 E.04212
G1 X125.896 Y70.866 E.02323
G1 X127.029 Y71.696 E.05126
G1 X128.023 Y72.5 E.04663
G1 X128.979 Y73.349 E.04665
G1 X129.808 Y74.152 E.04212
G1 X130.251 Y74.61 E.02324
G1 X131.108 Y75.56 E.04668
G1 X131.998 Y76.647 E.05126
G1 X132.383 Y77.153 E.02323
G1 X133.051 Y78.093 E.04204
G1 X133.746 Y79.168 E.04672
G1 X134.45 Y80.382 E.05121
G1 X135.037 Y81.517 E.04663
G1 X135.573 Y82.679 E.04669
G1 X135.819 Y83.267 E.02324
G1 X136.231 Y84.345 E.04211
G1 X136.672 Y85.678 E.05123
G1 X136.983 Y86.789 E.0421
G1 X137.135 Y87.407 E.02323
G1 X137.421 Y88.783 E.05126
G1 X137.62 Y90.046 E.04666
G1 X137.749 Y91.193 E.0421
G1 X137.8 Y91.827 E.02321
G1 X137.843 Y92.895 E.03899
G1 X137.771 Y93.708 E.02981
G1 X137.572 Y94.551 E.03158
G1 X137.213 Y95.429 E.03462
G1 X136.818 Y96.097 E.02832
G1 X136.279 Y96.771 E.0315
G1 X135.578 Y97.413 E.03467
G1 X134.858 Y97.89 E.03151
G1 X134.155 Y98.226 E.02843
G1 X133.248 Y98.504 E.0346
G1 X132.394 Y98.627 E.0315
G1 X131.618 Y98.629 E.02833
G1 X130.677 Y98.492 E.03469
G1 X129.852 Y98.237 E.03151
G1 X129.146 Y97.904 E.02848
G1 X128.684 Y97.621 E.01977
G1 X124.576 Y94.805 E.1817
G1 X124.167 Y94.487 E.01889
G1 X123.776 Y94.136 E.01917
G1 X123.313 Y93.646 E.02462
G1 X122.984 Y93.236 E.01918
G1 X122.684 Y92.802 E.01925
G1 X122.489 Y92.477 E.01382
G1 X122.245 Y92.01 E.01922
G1 X121.983 Y91.389 E.02459
G1 X121.589 Y90.087 E.04963
G1 X121.269 Y89.198 E.03447
G1 X120.878 Y88.331 E.0347
G1 X120.579 Y87.769 E.02325
G1 X120.081 Y86.964 E.03452
G1 X119.518 Y86.196 E.03475
G1 X118.898 Y85.475 E.0347
G1 X118.452 Y85.02 E.02325
G1 X117.745 Y84.388 E.03459
G1 X117.234 Y83.988 E.02368
G1 X116.712 Y83.623 E.02324
G1 X115.902 Y83.131 E.03459
G1 X115.336 Y82.837 E.02325
G1 X114.466 Y82.453 E.0347
G1 X113.586 Y82.145 E.03404
G1 X112.958 Y81.969 E.02379
G1 X112.044 Y81.778 E.03404
G1 X111.414 Y81.688 E.02324
G1 X110.47 Y81.615 E.03454
G1 X109.82 Y81.608 E.02372
G1 X109.183 Y81.635 E.02325
G1 X108.238 Y81.737 E.0347
G1 X107.303 Y81.912 E.0347
G1 X106.388 Y82.159 E.03459
G1 X105.783 Y82.366 E.0233
G1 X104.907 Y82.731 E.03464
G1 X104.06 Y83.164 E.0347
G1 X103.265 Y83.652 E.03404
G1 X102.496 Y84.211 E.03471
G1 X102.007 Y84.617 E.02318
G1 X101.529 Y85.059 E.02374
G1 X100.877 Y85.747 E.03459
G1 X100.472 Y86.235 E.02313
G1 X100.093 Y86.743 E.02314
G1 X99.741 Y87.269 E.02308
G1 X99.416 Y87.815 E.02319
G1 X99.121 Y88.376 E.02314
G1 X98.856 Y88.952 E.02314
G1 X98.62 Y89.541 E.02315
G1 X98.416 Y90.141 E.02312
G1 X98.244 Y90.751 E.02313
G1 X98.103 Y91.37 E.02314
G1 X97.995 Y91.995 E.02313
G1 X97.92 Y92.624 E.02314
G1 X97.878 Y93.257 E.02313
G1 X97.869 Y93.889 E.02307
G1 X97.893 Y94.527 E.02331
G1 X97.988 Y95.454 E.03399
G1 X98.162 Y96.406 E.0353
G1 X98.313 Y97.009 E.0227
G1 X98.5 Y97.615 E.02314
G1 X98.842 Y98.515 E.03513
G1 X99.106 Y99.092 E.02314
G1 X99.401 Y99.656 E.02324
G1 X99.894 Y100.466 E.03459
G1 X100.259 Y100.985 E.02313
G1 X100.642 Y101.475 E.0227
G1 X101.274 Y102.182 E.03459
G1 X101.978 Y102.876 E.03608
G1 X102.243 Y103.161 E.01419
G1 X102.59 Y103.588 E.02007
G1 X102.987 Y104.171 E.02575
G1 X103.184 Y104.513 E.01438
G1 X103.428 Y105.006 E.02007
G1 X103.685 Y105.662 E.02571
G1 X103.841 Y106.189 E.02007
G1 X103.929 Y106.573 E.01439
G1 X104.034 Y107.271 E.02575
G1 X104.069 Y107.818 E.02
G1 X104.063 Y108.366 E.01998
G1 X103.988 Y109.129 E.02799
G1 X98.004 Y148.202 E1.44222
G1 X97.877 Y148.729 E.01978
G1 X97.761 Y149.105 E.01437
G1 X97.503 Y149.762 E.02575
G1 X97.332 Y150.117 E.01437
G1 X97.063 Y150.595 E.02003
G1 X96.667 Y151.177 E.02568
G1 X96.32 Y151.603 E.02004
G1 X96.052 Y151.891 E.01436
G1 X95.535 Y152.372 E.02575
G1 X95.228 Y152.618 E.01436
G1 X94.778 Y152.932 E.02003
G1 X94.169 Y153.284 E.02567
G1 X93.673 Y153.518 E.02
G1 X93.158 Y153.714 E.02008
G1 X92.782 Y153.83 E.01436
G1 X92.096 Y153.988 E.02571
G1 X91.554 Y154.065 E.01995
G1 X90.791 Y154.106 E.02789
G1 X87.519 Y154.106 E.1194
G1 X86.803 Y154.057 E.02616
G1 X86.108 Y153.915 E.02588
G1 X85.437 Y153.679 E.02595
G1 X84.967 Y153.449 E.0191
G1 X84.285 Y153.016 E.02948
G1 X83.747 Y152.556 E.02585
G1 X83.275 Y152.026 E.02588
G1 X82.879 Y151.438 E.02588
G1 X82.565 Y150.8 E.02593
G1 X82.375 Y150.256 E.02103
G1 X82.21 Y149.509 E.02792
G1 X82.154 Y148.741 E.02808
G1 X82.161 Y93.173 E2.02746
G1 X82.187 Y92.411 E.02781
G1 X82.266 Y91.26 E.0421
G1 X82.427 Y89.865 E.05123
G1 X82.611 Y88.726 E.04211
G1 X82.734 Y88.1 E.02328
G1 X82.899 Y87.355 E.02785
G1 X83.187 Y86.237 E.04213
G1 X83.403 Y85.505 E.02782
G1 X83.809 Y84.292 E.04668
G1 X84.271 Y83.1 E.04665
G1 X84.734 Y82.044 E.04207
G1 X85.298 Y80.895 E.04669
G1 X85.659 Y80.224 E.0278
G1 X86.305 Y79.12 E.04668
G1 X87.002 Y78.048 E.04665
G1 X87.671 Y77.109 E.04207
G1 X88.458 Y76.102 E.04665
G1 X88.539 Y76.007 E.00455
G1 X88.886 Y76.305 F42000
G1 F3600
G1 X89.63 Y75.438 E.04165
G1 X90.137 Y74.888 E.0273
G1 X90.94 Y74.077 E.04165
G1 X91.862 Y73.224 E.04582
G1 X92.43 Y72.735 E.02737
G1 X93.416 Y71.948 E.04602
G1 X94.429 Y71.213 E.04568
G1 X95.377 Y70.586 E.04148
G1 X96.018 Y70.193 E.02739
G1 X97.116 Y69.574 E.04601
G1 X98.239 Y69.008 E.04587
G1 X99.382 Y68.496 E.04568
G1 X100.44 Y68.076 E.04156
G1 X101.627 Y67.665 E.04582
G1 X102.344 Y67.445 E.02739
G1 X103.563 Y67.12 E.04602
G1 X104.67 Y66.876 E.04134
G1 X105.912 Y66.659 E.046
G1 X106.65 Y66.557 E.02719
G1 X107.903 Y66.432 E.04594
G1 X109.037 Y66.368 E.04143
G1 X110.295 Y66.352 E.04591
G1 X111.551 Y66.394 E.04588
G1 X112.804 Y66.493 E.04585
G1 X114.168 Y66.668 E.05017
G1 X115.412 Y66.888 E.04608
G1 X116.641 Y67.165 E.04599
G1 X117.243 Y67.322 E.02267
G1 X118.328 Y67.643 E.04129
G1 X119.523 Y68.055 E.04611
G1 X120.806 Y68.567 E.05041
G1 X121.949 Y69.088 E.04584
G1 X123.068 Y69.662 E.04587
G1 X124.16 Y70.286 E.0459
G1 X125.116 Y70.891 E.04129
G1 X125.63 Y71.239 E.02264
G1 X126.748 Y72.057 E.05052
G1 X127.729 Y72.851 E.04608
G1 X128.67 Y73.686 E.0459
G1 X129.483 Y74.474 E.04129
G1 X129.915 Y74.921 E.02268
G1 X130.764 Y75.86 E.0462
G1 X131.641 Y76.932 E.05052
G1 X132.016 Y77.426 E.02264
G1 X132.67 Y78.347 E.04122
G1 X133.354 Y79.404 E.04594
G1 X134.047 Y80.599 E.05041
G1 X134.628 Y81.721 E.04608
G1 X135.155 Y82.866 E.04599
G1 X135.396 Y83.439 E.02268
G1 X135.799 Y84.495 E.04126
G1 X136.235 Y85.814 E.0507
G1 X136.541 Y86.903 E.04126
G1 X136.689 Y87.506 E.02264
G1 X136.97 Y88.862 E.05052
G1 X137.167 Y90.11 E.04612
G1 X137.294 Y91.235 E.04127
G1 X137.344 Y91.851 E.02258
G1 X137.385 Y92.875 E.03736
G1 X137.316 Y93.645 E.02821
G1 X137.137 Y94.401 E.02834
G1 X136.798 Y95.234 E.03284
G1 X136.435 Y95.844 E.02589
G1 X135.951 Y96.45 E.02829
G1 X135.286 Y97.057 E.03285
G1 X134.64 Y97.486 E.0283
G1 X133.998 Y97.794 E.026
G1 X133.138 Y98.058 E.03282
G1 X132.37 Y98.169 E.02829
G1 X131.66 Y98.172 E.0259
G1 X130.768 Y98.041 E.03291
G1 X130.027 Y97.812 E.0283
G1 X129.37 Y97.504 E.02646
G1 X128.93 Y97.235 E.01883
G1 X124.849 Y94.438 E.1805
G1 X124.465 Y94.139 E.01777
G1 X124.1 Y93.812 E.01788
G1 X123.654 Y93.341 E.02367
G1 X123.348 Y92.959 E.01787
G1 X123.071 Y92.557 E.01781
G1 X122.657 Y91.81 E.03115
G1 X122.412 Y91.227 E.02309
G1 X122.027 Y89.958 E.04837
G1 X121.7 Y89.049 E.03526
G1 X121.296 Y88.147 E.03603
G1 X120.984 Y87.558 E.02434
G1 X120.472 Y86.728 E.03558
G1 X119.89 Y85.93 E.03605
G1 X119.247 Y85.18 E.03604
G1 X118.781 Y84.703 E.02433
G1 X118.053 Y84.05 E.03568
G1 X117.518 Y83.63 E.0248
G1 X116.945 Y83.23 E.0255
G1 X116.109 Y82.724 E.03568
G1 X115.517 Y82.417 E.02433
G1 X114.613 Y82.02 E.03602
G1 X113.741 Y81.715 E.0337
G1 X113.085 Y81.53 E.02488
G1 X112.142 Y81.331 E.03513
G1 X111.483 Y81.236 E.02432
G1 X110.509 Y81.16 E.03562
G1 X109.797 Y81.151 E.02599
G1 X109.13 Y81.181 E.02437
G1 X108.148 Y81.288 E.03604
G1 X107.179 Y81.472 E.036
G1 X106.236 Y81.728 E.03565
G1 X105.604 Y81.946 E.02439
G1 X104.694 Y82.327 E.03598
G1 X103.857 Y82.755 E.03432
G1 X103.03 Y83.26 E.03534
G1 X102.23 Y83.839 E.03603
G1 X101.718 Y84.264 E.02429
G1 X101.195 Y84.748 E.02601
G1 X100.523 Y85.458 E.03567
G1 X100.104 Y85.964 E.02397
G1 X99.711 Y86.492 E.02401
G1 X99.347 Y87.038 E.02395
G1 X99.01 Y87.605 E.02406
G1 X98.705 Y88.188 E.02401
G1 X98.43 Y88.786 E.02401
G1 X98.186 Y89.397 E.02402
G1 X97.975 Y90.02 E.02399
G1 X97.797 Y90.654 E.024
G1 X97.652 Y91.295 E.02401
G1 X97.541 Y91.944 E.024
G1 X97.464 Y92.597 E.02401
G1 X97.421 Y93.254 E.024
G1 X97.412 Y93.91 E.02394
G1 X97.439 Y94.579 E.02442
G1 X97.533 Y95.496 E.03364
G1 X97.72 Y96.522 E.03805
G1 X97.878 Y97.147 E.02353
G1 X98.061 Y97.745 E.02284
G1 X98.428 Y98.71 E.03765
G1 X98.703 Y99.307 E.02398
G1 X98.994 Y99.864 E.02295
G1 X99.523 Y100.732 E.03708
G1 X99.883 Y101.245 E.02284
G1 X100.28 Y101.753 E.02354
G1 X100.93 Y102.484 E.0357
G1 X101.891 Y103.454 E.04983
G1 X102.219 Y103.857 E.01894
G1 X102.602 Y104.419 E.02482
G1 X102.783 Y104.732 E.0132
G1 X103.007 Y105.185 E.01845
G1 X103.254 Y105.816 E.02471
G1 X103.398 Y106.301 E.01844
G1 X103.478 Y106.653 E.0132
G1 X103.579 Y107.326 E.02481
G1 X103.611 Y107.825 E.01827
G1 X103.606 Y108.335 E.0186
G1 X103.534 Y109.076 E.02716
G1 X97.553 Y148.119 E1.44114
G1 X97.437 Y148.604 E.01818
G1 X97.331 Y148.949 E.01319
G1 X97.082 Y149.584 E.02488
G1 X96.925 Y149.909 E.01318
G1 X96.677 Y150.349 E.01841
G1 X96.296 Y150.908 E.02468
G1 X95.978 Y151.299 E.01842
G1 X95.732 Y151.564 E.01318
G1 X95.233 Y152.029 E.02488
G1 X94.95 Y152.254 E.01318
G1 X94.537 Y152.543 E.01841
G1 X93.951 Y152.881 E.02468
G1 X93.489 Y153.098 E.01864
G1 X93.013 Y153.28 E.01857
G1 X92.668 Y153.387 E.01318
G1 X92.018 Y153.537 E.02435
G1 X91.504 Y153.61 E.01894
G1 X90.775 Y153.649 E.02663
G1 X87.539 Y153.649 E.11809
G1 X86.874 Y153.604 E.0243
G1 X86.24 Y153.475 E.02362
G1 X85.622 Y153.259 E.02388
G1 X85.197 Y153.053 E.01722
G1 X84.566 Y152.653 E.02728
G1 X84.074 Y152.235 E.02354
G1 X83.632 Y151.737 E.02429
G1 X83.271 Y151.2 E.02362
G1 X82.991 Y150.631 E.02313
G1 X82.818 Y150.139 E.01903
G1 X82.666 Y149.452 E.02566
G1 X82.612 Y148.73 E.02644
G1 X82.618 Y93.183 E2.02667
G1 X82.644 Y92.432 E.02741
G1 X82.721 Y91.305 E.04122
G1 X82.88 Y89.925 E.0507
G1 X83.061 Y88.809 E.04126
G1 X83.181 Y88.192 E.02294
G1 X83.344 Y87.459 E.02738
G1 X83.627 Y86.361 E.04138
G1 X83.839 Y85.64 E.02741
G1 X84.24 Y84.444 E.04602
G1 X84.692 Y83.277 E.04568
G1 X85.15 Y82.234 E.04156
G1 X85.703 Y81.107 E.04581
G1 X86.059 Y80.446 E.02737
G1 X86.696 Y79.358 E.04601
G1 X87.378 Y78.308 E.04568
G1 X88.039 Y77.38 E.04156
G1 X88.81 Y76.394 E.04568
G1 X88.86 Y76.335 E.00283
G1 X89.207 Y76.633 F42000
G1 F3600
G1 X89.97 Y75.744 E.04271
G1 X90.466 Y75.206 E.02671
G1 X91.26 Y74.404 E.04119
G1 X92.164 Y73.566 E.04495
G1 X92.724 Y73.085 E.02694
G1 X93.695 Y72.31 E.04535
G1 X94.687 Y71.59 E.04471
G1 X95.621 Y70.972 E.04085
G1 X96.251 Y70.586 E.02698
G1 X97.334 Y69.976 E.04535
G1 X98.433 Y69.423 E.04488
G1 X99.557 Y68.919 E.04494
G1 X100.603 Y68.504 E.04105
G1 X101.766 Y68.1 E.04494
G1 X102.473 Y67.884 E.02696
G1 X103.674 Y67.564 E.04537
G1 X104.761 Y67.324 E.04061
G1 X105.985 Y67.11 E.04531
G1 X106.706 Y67.011 E.02657
G1 X107.941 Y66.887 E.04529
G1 X109.055 Y66.825 E.04071
G1 X110.293 Y66.809 E.04517
G1 X111.529 Y66.851 E.04511
G1 X112.76 Y66.949 E.04507
G1 X114.096 Y67.119 E.04913
G1 X115.325 Y67.337 E.04553
