; HEADER_BLOCK_START
; generated by OrcaSlicer 2.1.0 on 2025-02-20 at 18:08:26
; total layer number: 50
; filament_density: 1.27
; filament_diameter: 1.75
; max_z_height: 10.00
; HEADER_BLOCK_END

; THUMBNAIL_BLOCK_START

;
; THUMBNAIL_BLOCK_END

; THUMBNAIL_BLOCK_START

;
; THUMBNAIL_BLOCK_END

; external perimeters extrusion width = 0.42mm
; perimeters extrusion width = 0.45mm
; infill extrusion width = 0.45mm
; solid infill extrusion width = 0.42mm
; top infill extrusion width = 0.42mm
; support material extrusion width = 0.42mm
; first layer extrusion width = 0.50mm

; external perimeters extrusion width = 0.42mm
; perimeters extrusion width = 0.45mm
; infill extrusion width = 0.45mm
; solid infill extrusion width = 0.42mm
; top infill extrusion width = 0.42mm
; support material extrusion width = 0.42mm
; first layer extrusion width = 0.50mm

; EXECUTABLE_BLOCK_START
EXCLUDE_OBJECT_DEFINE NAME=крюк_старый.stp_id_0_copy_0 CENTER=156.881,123.228 POLYGON=[[133.141,137.723],[135.695,105.645],[135.736,105.131],[135.789,104.617],[135.854,104.105],[135.931,103.594],[136.019,103.086],[136.119,102.579],[136.231,102.075],[136.354,101.574],[136.489,101.075],[136.635,100.58],[136.792,100.088],[136.961,99.6005],[137.141,99.1165],[137.332,98.6367],[137.533,98.1615],[137.746,97.6911],[137.969,97.2256],[138.204,96.7654],[138.448,96.3107],[138.703,95.8617],[138.968,95.4186],[139.243,94.9818],[139.528,94.5514],[139.823,94.1277],[140.128,93.7108],[140.442,93.301],[140.765,92.8986],[141.098,92.5037],[141.44,92.1165],[141.79,91.7372],[142.149,91.3661],[142.516,91.0033],[142.892,90.6491],[143.275,90.3035],[143.667,89.9669],[144.066,89.6393],[144.472,89.321],[144.886,89.012],[145.307,88.7127],[145.734,88.4231],[146.168,88.1433],[146.608,87.8736],[147.055,87.6141],[147.507,87.3648],[147.964,87.1261],[148.428,86.8978],[148.896,86.6803],[149.369,86.4736],[149.847,86.2777],[150.329,86.0929],[150.815,85.9192],[151.305,85.7567],[151.799,85.6055],[152.296,85.4657],[152.796,85.3372],[153.299,85.2203],[153.804,85.115],[154.312,85.0213],[154.821,84.9393],[155.333,84.869],[155.846,84.8104],[156.36,84.7636],[156.875,84.7287],[157.391,84.7055],[157.907,84.6942],[158.423,84.6948],[158.94,84.7072],[159.455,84.7314],[159.97,84.7675],[160.484,84.8153],[160.997,84.875],[161.508,84.9464],[162.018,85.0295],[162.526,85.1243],[163.031,85.2307],[163.533,85.3487],[164.033,85.4781],[164.53,85.619],[165.023,85.7713],[165.513,85.9349],[165.999,86.1096],[166.48,86.2954],[166.958,86.4923],[167.43,86.7],[167.898,86.9185],[168.361,87.1478],[168.818,87.3875],[169.27,87.6377],[169.715,87.8982],[170.155,88.1688],[170.588,88.4495],[171.015,88.74],[171.435,89.0403],[171.848,89.3501],[172.254,89.6693],[172.652,89.9977],[173.043,90.3352],[173.426,90.6816],[173.801,91.0366],[174.167,91.4002],[174.526,91.772],[174.875,92.152],[175.216,92.54],[175.547,92.9356],[175.87,93.3387],[176.183,93.7492],[176.487,94.1667],[176.781,94.591],[177.065,95.022],[177.34,95.4595],[177.604,95.903],[177.858,96.3526],[178.101,96.8078],[178.334,97.2685],[178.557,97.7345],[178.768,98.2054],[178.969,98.681],[179.159,99.1612],[179.338,99.6455],[179.505,100.134],[179.662,100.626],[179.807,101.121],[179.94,101.62],[180.062,102.122],[180.173,102.626],[180.272,103.133],[180.359,103.642],[180.435,104.152],[180.499,104.665],[180.551,105.178],[180.591,105.693],[180.62,106.209],[180.618,106.282],[180.604,106.355],[180.581,106.425],[180.547,106.49],[146.524,161.761],[135.941,161.761],[133.141,150.461],[133.141,137.723]]
EXCLUDE_OBJECT_DEFINE NAME=крюк_старый.stp_id_1_copy_0 CENTER=79.0288,124.647 POLYGON=[[55.2896,139.143],[57.8429,107.064],[57.8843,106.55],[57.9375,106.036],[58.0025,105.524],[58.0792,105.013],[58.1676,104.505],[58.2677,103.998],[58.3793,103.494],[58.5025,102.993],[58.6372,102.494],[58.7833,101.999],[58.9407,101.507],[59.1093,101.02],[59.2891,100.536],[59.4799,100.056],[59.6817,99.5806],[59.8944,99.1101],[60.1178,98.6447],[60.3518,98.1844],[60.5963,97.7297],[60.8512,97.2807],[61.1163,96.8377],[61.3915,96.4009],[61.6767,95.9705],[61.9716,95.5467],[62.2762,95.1299],[62.5903,94.7201],[62.9137,94.3177],[63.2463,93.9227],[63.5878,93.5355],[63.9381,93.1563],[64.2971,92.7852],[64.6644,92.4224],[65.04,92.0682],[65.4236,91.7226],[65.8151,91.386],[66.2141,91.0584],[66.6206,90.74],[67.0343,90.4311],[67.4549,90.1318],[67.8823,89.8421],[68.3163,89.5624],[68.7565,89.2927],[69.2028,89.0331],[69.655,88.7839],[70.1127,88.5451],[70.5758,88.3169],[71.0441,88.0994],[71.5172,87.8926],[71.9949,87.6968],[72.4769,87.512],[72.9631,87.3383],[73.4532,87.1758],[73.9468,87.0246],[74.4438,86.8847],[74.9439,86.7563],[75.4468,86.6394],[75.9522,86.5341],[76.4599,86.4404],[76.9697,86.3583],[77.4812,86.288],[77.9941,86.2295],[78.5083,86.1827],[79.0234,86.1477],[79.5392,86.1246],[80.0553,86.1133],[80.5716,86.1138],[81.0878,86.1262],[81.6035,86.1505],[82.1185,86.1865],[82.6326,86.2344],[83.1454,86.294],[83.6568,86.3654],[84.1663,86.4486],[84.6738,86.5434],[85.1791,86.6498],[85.6817,86.7677],[86.1815,86.8972],[86.6782,87.0381],[87.1715,87.1904],[87.6612,87.3539],[88.147,87.5287],[88.6287,87.7145],[89.106,87.9113],[89.5787,88.1191],[90.0464,88.3376],[90.5091,88.5668],[90.9663,88.8066],[91.4179,89.0568],[91.8637,89.3173],[92.3034,89.5879],[92.7367,89.8686],[93.1635,90.1591],[93.5835,90.4593],[93.9965,90.7692],[94.4023,91.0884],[94.8007,91.4168],[95.1914,91.7543],[95.5743,92.1006],[95.9491,92.4557],[96.3157,92.8192],[96.6738,93.1911],[97.0233,93.5711],[97.3641,93.959],[97.6958,94.3547],[98.0183,94.7578],[98.3315,95.1682],[98.6353,95.5857],[98.9293,96.0101],[99.2136,96.4411],[99.4878,96.8785],[99.752,97.3221],[100.006,97.7716],[100.249,98.2269],[100.483,98.6876],[100.705,99.1535],[100.917,99.6244],[101.117,100.1],[101.307,100.58],[101.486,101.065],[101.654,101.553],[101.81,102.045],[101.955,102.54],[102.088,103.039],[102.211,103.541],[102.321,104.045],[102.42,104.552],[102.508,105.061],[102.583,105.571],[102.647,106.084],[102.699,106.597],[102.74,107.112],[102.768,107.628],[102.766,107.701],[102.753,107.774],[102.729,107.844],[102.696,107.91],[68.6723,163.18],[58.0896,163.18],[55.2896,151.88],[55.2896,139.143]]
M73 P0 R29
M106 S0
M106 P2 S0
;TYPE:Custom
M140 S0
M104 S0 
START_PRINT EXTRUDER_TEMP=250 BED_TEMP=90
M106 P3 S153
G90
G21
M83 ; use relative distances for extrusion
; filament start gcode
M106 S0
M106 P2 S0
;LAYER_CHANGE
;Z:0.2
;HEIGHT:0.2
;BEFORE_LAYER_CHANGE
;0.2
G92 E0

G1 E-.6 F2400
;_SET_FAN_SPEED_CHANGING_LAYER
SET_VELOCITY_LIMIT ACCEL=500 ACCEL_TO_DECEL=250
SET_VELOCITY_LIMIT SQUARE_CORNER_VELOCITY=9
EXCLUDE_OBJECT_START NAME=крюк_старый.stp_id_0_copy_0
G1 Z.2 F42000
G1 X142.288 Y159.99
G1 Z.2
G1 E.6 F2400
;TYPE:Inner wall
;WIDTH:0.499999
G1 F3600
G1 X142.762 Y159.85 E.01785
G1 X143.554 Y159.459 E.03189
G1 X144.251 Y158.916 E.03188
G1 X144.753 Y158.339 E.02761
G1 X144.753 Y159.99 E.05959
G1 X142.328 Y159.99 E.08754
;WIPE_START
G1 X142.762 Y159.85 E-.13685
G1 X143.554 Y159.459 E-.26495
G1 X144.075 Y159.053 E-.1982
;WIPE_END
G1 Z.4 F42000
G1 X137.713 Y158.341 Z.4
G1 Z.2
G1 E.6 F2400
G1 F3600
G1 X137.929 Y158.616 E.01262
G1 X138.571 Y159.222 E.0319
G1 X139.322 Y159.687 E.03189
G1 X140.147 Y159.99 E.0317
G1 X137.713 Y159.99 E.08789
G1 X137.713 Y158.381 E.05808
G1 X137.505 Y157.013 F42000
;WIDTH:0.568497
G1 F3600
G1 X137.636 Y157.287 E.01257
;WIDTH:0.534248
G1 X137.806 Y157.645 E.01539
;WIDTH:0.499999
G1 X138.255 Y158.295 E.02855
G1 X138.826 Y158.843 E.02857
G1 X139.496 Y159.264 E.02856
G1 X140.236 Y159.542 E.02855
G1 X141.018 Y159.665 E.02857
G1 X141.808 Y159.629 E.02857
G1 X142.575 Y159.434 E.02859
G1 X143.287 Y159.088 E.02856
G1 X143.914 Y158.607 E.02855
G1 X144.432 Y158.009 E.02857
G1 X144.806 Y157.355 E.02721
G1 X144.996 Y156.821 E.02046
;WIDTH:0.547545
G1 X145.079 Y156.534 E.0119
;WIDTH:0.59509
G1 X145.162 Y156.247 E.01302
G1 X145.166 Y156.282 E.00152
;WIDTH:0.586837
G1 X145.188 Y156.562 E.01208
;WIDTH:0.543418
G1 X145.21 Y156.843 E.01112
;WIDTH:0.499999
G1 X145.21 Y160.447 E.13014
G1 X137.255 Y160.447 E.2872
G1 X137.255 Y157.522 E.10559
;WIDTH:0.534248
G1 X137.273 Y157.242 E.0109
;WIDTH:0.568497
G1 X137.29 Y156.962 E.01166
;WIDTH:0.606388
G1 X137.309 Y156.879 E.00376
;WIDTH:0.644278
G1 X137.328 Y156.797 E.00402
;WIDTH:0.682168
G1 X137.347 Y156.714 E.00427
G1 X137.386 Y156.786 E.00412
;WIDTH:0.644278
G1 X137.426 Y156.857 E.00388
;WIDTH:0.606388
G1 X137.465 Y156.929 E.00363
;WIDTH:0.568497
G1 X137.488 Y156.977 E.00223
;WIPE_START
G1 X137.636 Y157.287 E-.10284
G1 X137.806 Y157.645 E-.11893
G1 X138.255 Y158.295 E-.23719
G1 X138.594 Y158.621 E-.14104
;WIPE_END
G1 Z.4 F42000
G1 X141.827 Y160.04 Z.4
G1 Z.2
G1 E.6 F2400
;WIDTH:0.400022
G1 F3600
G1 X141.024 Y160.056 E.02265
;WIDTH:0.394006
G1 X140.712 Y160.043 E.00865
;WIPE_START
G1 X141.024 Y160.056 E-.16785
G1 X141.827 Y160.04 E-.43215
;WIPE_END
G1 Z.4 F42000
G1 X146.108 Y137.732 Z.4
G1 Z.2
G1 E.6 F2400
;WIDTH:0.499999
G1 F3600
G1 X145.818 Y137.782 E.01062
G1 X145.447 Y137.971 E.01504
G1 X145.203 Y138.177 E.01154
G1 X144.973 Y138.48 E.01373
G1 X144.795 Y138.924 E.01727
G1 X144.753 Y139.29 E.01329
G1 X144.753 Y142.867 E.12918
G1 X144.796 Y143.237 E.01344
G1 X144.908 Y143.554 E.01212
G1 X147.347 Y148.69 E.2053
M73 P0 R28
G1 X146.353 Y148.69 E.03591
G1 X145.818 Y148.782 E.01958
G1 X145.447 Y148.971 E.01504
G1 X145.045 Y149.368 E.02042
G1 X144.833 Y149.788 E.01696
G1 X144.753 Y150.29 E.01834
G1 X144.753 Y153.192 E.10478
G1 X144.476 Y152.834 E.01632
G1 X144.009 Y152.391 E.02323
G1 X143.274 Y151.902 E.03188
G1 X142.456 Y151.57 E.03188
G1 X141.641 Y151.411 E.02999
G1 X141.051 Y151.396 E.02129
G1 X140.464 Y151.46 E.02133
G1 X139.753 Y151.659 E.02668
G1 X139.037 Y151.987 E.02841
G1 X138.322 Y152.506 E.03191
G1 X137.713 Y153.181 E.03283
G1 X137.701 Y150.096 E.11139
G1 X137.603 Y149.709 E.0144
G1 X137.421 Y149.368 E.01395
G1 X137.018 Y148.971 E.02042
G1 X136.647 Y148.782 E.01504
G1 X136.113 Y148.69 E.01958
G1 X135.118 Y148.69 E.03591
G1 X137.558 Y143.554 E.2053
G1 X137.669 Y143.237 E.01212
G1 X137.713 Y142.867 E.01344
G1 X137.713 Y139.15 E.13421
G1 X137.622 Y138.758 E.01453
G1 X137.421 Y138.368 E.01583
G1 X137.018 Y137.971 E.02042
G1 X136.647 Y137.782 E.01504
G1 X136.113 Y137.69 E.01958
G1 X135.118 Y137.69 E.03591
G1 X137.558 Y132.554 E.2053
G1 X137.669 Y132.237 E.01212
G1 X137.713 Y131.867 E.01344
G1 X137.713 Y122.471 E.33927
G1 X137.691 Y121.463 E.03638
G1 X137.453 Y120.722 E.02811
G1 X137.413 Y120.361 E.01312
G1 X137.418 Y106.727 E.49227
G1 X137.501 Y105.284 E.05219
G1 X137.609 Y104.352 E.03386
G1 X137.854 Y102.943 E.05166
G1 X138.194 Y101.557 E.05151
G1 X138.632 Y100.19 E.05185
G1 X138.97 Y99.31 E.03401
G1 X139.348 Y98.448 E.03401
G1 X140.003 Y97.16 E.05218
G1 X140.478 Y96.346 E.03401
G1 X140.994 Y95.547 E.03434
G1 X141.546 Y94.772 E.03435
G1 X142.128 Y94.031 E.03401
G1 X143.078 Y92.955 E.05184
G1 X144.103 Y91.942 E.05203
G1 X144.806 Y91.323 E.03383
G1 X145.549 Y90.728 E.03435
G1 X146.317 Y90.168 E.03435
G1 X147.103 Y89.648 E.03401
G1 X148.344 Y88.927 E.05185
G1 X149.632 Y88.292 E.05185
G1 X150.5 Y87.925 E.03401
G1 X151.392 Y87.594 E.03435
G1 X152.298 Y87.305 E.03434
G1 X153.203 Y87.062 E.03383
G1 X154.623 Y86.766 E.05237
G1 X155.554 Y86.627 E.034
G1 X156.5 Y86.53 E.03435
G1 X157.453 Y86.476 E.03445
G1 X158.156 Y86.466 E.02538
G1 X159.357 Y86.5 E.0434
G1 X160.3 Y86.577 E.03415
G1 X161.243 Y86.698 E.03434
G1 X162.18 Y86.862 E.03434
G1 X163.109 Y87.069 E.03435
G1 X164.027 Y87.318 E.03435
G1 X164.933 Y87.609 E.03434
G1 X165.824 Y87.941 E.03435
G1 X166.699 Y88.314 E.03434
G1 X167.556 Y88.726 E.03435
G1 X168.393 Y89.178 E.03434
G1 X169.209 Y89.667 E.03434
G1 X170.002 Y90.193 E.03434
G1 X170.761 Y90.75 E.03401
G1 X171.877 Y91.669 E.05218
G1 X172.568 Y92.309 E.03401
G1 X173.235 Y92.986 E.03434
G1 X173.871 Y93.694 E.03435
G1 X174.474 Y94.43 E.03434
G1 X175.037 Y95.185 E.03401
G1 X175.93 Y96.56 E.0592
G1 X176.459 Y97.502 E.039
G1 X177.15 Y98.929 E.05725
G1 X177.51 Y99.809 E.03435
G1 X177.828 Y100.706 E.03434
G1 X178.153 Y101.803 E.04132
G1 X178.338 Y102.531 E.02713
G1 X178.556 Y103.619 E.04006
G1 X177.643 Y102.994 E.03995
G1 X176.849 Y102.42 E.03537
G1 X176.699 Y102.012 E.01571
G1 X176.341 Y100.857 E.04367
G1 X176.016 Y99.991 E.0334
G1 X175.434 Y98.7 E.05112
G1 X175.029 Y97.919 E.03175
G1 X174.598 Y97.168 E.03127
G1 X173.845 Y96.041 E.04894
G1 X173.182 Y95.146 E.04022
G1 X172.528 Y94.372 E.03659
G1 X171.551 Y93.361 E.05075
G1 X170.922 Y92.78 E.03091
G1 X169.993 Y91.996 E.0439
G1 X169.142 Y91.371 E.03813
G1 X168.299 Y90.817 E.03642
G1 X167.428 Y90.307 E.03643
G1 X166.559 Y89.858 E.0353
G1 X165.293 Y89.309 E.04984
G1 X164.196 Y88.898 E.04229
G1 X163.264 Y88.615 E.03517
G1 X162.757 Y88.489 E.01884
G1 X161.899 Y88.298 E.03175
G1 X161.042 Y88.149 E.0314
G1 X159.793 Y87.993 E.04547
G1 X158.746 Y87.932 E.03784
G1 X157.521 Y87.939 E.04424
G1 X156.232 Y88.017 E.04662
G1 X154.879 Y88.206 E.04934
G1 X154.238 Y88.322 E.0235
G1 X153.256 Y88.552 E.03642
G1 X152.368 Y88.807 E.03339
G1 X150.846 Y89.357 E.0584
G1 X149.488 Y89.974 E.05389
G1 X148.595 Y90.453 E.03658
G1 X147.719 Y90.985 E.037
G1 X146.479 Y91.853 E.05463
G1 X145.744 Y92.454 E.03428
G1 X145.101 Y93.011 E.03074
G1 X144.577 Y93.505 E.026
G1 X143.597 Y94.55 E.05173
G1 X143.255 Y94.964 E.01939
G1 X142.72 Y95.645 E.03126
G1 X142.208 Y96.36 E.03175
G1 X141.729 Y97.097 E.03175
G1 X141.258 Y97.902 E.03367
G1 X140.675 Y99.063 E.04689
G1 X140.325 Y99.855 E.03127
G1 X140.011 Y100.662 E.03127
G1 X139.603 Y101.951 E.0488
G1 X139.429 Y102.588 E.02385
G1 X139.214 Y103.573 E.03642
G1 X139.05 Y104.569 E.03642
G1 X138.938 Y105.587 E.037
G1 X138.87 Y107.032 E.05222
G1 X138.891 Y108.091 E.03826
G1 X138.965 Y109.097 E.03642
G1 X139.091 Y110.098 E.03642
G1 X139.269 Y111.091 E.03643
G1 X139.499 Y112.073 E.03642
G1 X139.78 Y113.042 E.03642
G1 X140.119 Y114.014 E.03717
G1 X140.677 Y115.343 E.05205
G1 X141.153 Y116.29 E.03825
G1 X141.663 Y117.184 E.03717
G1 X142.454 Y118.387 E.05199
G1 X143.043 Y119.168 E.03529
G1 X144.065 Y120.355 E.0566
G1 X144.412 Y120.721 E.01818
G1 X144.677 Y121.154 E.01835
G1 X144.759 Y121.651 E.01818
G1 X144.753 Y131.866 E.36884
G1 X144.796 Y132.237 E.01347
G1 X144.908 Y132.554 E.01212
G1 X147.347 Y137.69 E.2053
G1 X146.353 Y137.69 E.03591
G1 X146.147 Y137.725 E.00752
G1 X146.189 Y138.175 F42000
G1 F3600
G1 X145.971 Y138.213 E.00801
G1 X145.706 Y138.348 E.01074
G1 X145.418 Y138.632 E.01459
G1 X145.275 Y138.91 E.01131
G1 X145.21 Y139.29 E.0139
G1 X145.21 Y142.951 E.1322
G1 X145.32 Y143.358 E.01522
G1 X147.973 Y148.941 E.22319
G1 X147.987 Y149.147 E.00744
G1 X146.353 Y149.147 E.059
G1 X145.971 Y149.213 E.01399
G1 X145.706 Y149.348 E.01074
G1 X145.418 Y149.632 E.01459
G1 X145.267 Y149.931 E.01211
G1 X145.21 Y150.29 E.0131
G1 X145.21 Y154.68 E.15852
;WIDTH:0.533838
G1 X145.193 Y154.867 E.00728
;WIDTH:0.567676
G1 X145.176 Y155.054 E.00779
;WIDTH:0.601514
G1 X145.159 Y155.241 E.00829
G1 X145.082 Y154.988 E.01169
;WIDTH:0.567676
G1 X145.005 Y154.734 E.01098
;WIDTH:0.533838
G1 X144.927 Y154.481 E.01027
;WIDTH:0.499999
G1 X144.594 Y153.763 E.02858
G1 X144.15 Y153.154 E.02719
G1 X143.742 Y152.762 E.02045
G1 X143.087 Y152.319 E.02855
G1 X142.356 Y152.016 E.02855
G1 X141.618 Y151.868 E.02721
G1 X141.09 Y151.851 E.01906
G1 X140.564 Y151.906 E.0191
G1 X139.926 Y152.082 E.02389
G1 X139.292 Y152.367 E.02508
G1 X138.648 Y152.827 E.02857
G1 X138.111 Y153.407 E.02856
G1 X137.701 Y154.083 E.02855
;WIDTH:0.54531
G1 X137.612 Y154.266 E.00805
;WIDTH:0.590621
G1 X137.523 Y154.448 E.00878
;WIDTH:0.635932
G1 X137.435 Y154.631 E.00951
;WIDTH:0.681242
G1 X137.346 Y154.813 E.01023
G1 X137.327 Y154.729 E.00436
;WIDTH:0.642668
G1 X137.307 Y154.645 E.0041
;WIDTH:0.604094
G1 X137.288 Y154.56 E.00384
;WIDTH:0.56552
G1 X137.272 Y154.28 E.0116
;WIDTH:0.53276
G1 X137.255 Y153.999 E.01087
;WIDTH:0.499999
G1 X137.255 Y150.29 E.13394
G1 X137.205 Y149.954 E.01226
G1 X137.056 Y149.644 E.01241
G1 X136.76 Y149.348 E.01514
G1 X136.495 Y149.213 E.01074
G1 X136.113 Y149.147 E.01399
G1 X134.479 Y149.147 E.059
G1 X134.479 Y148.971 E.00637
G1 X137.185 Y143.272 E.22777
G1 X137.255 Y142.867 E.01484
G1 X137.255 Y139.29 E.12918
G1 X137.191 Y138.91 E.0139
