; HEADER_BLOCK_START
; generated by OrcaSlicer 2.1.0 on 2025-03-08 at 16:15:26
; total layer number: 138
; filament_density: 1.27
; filament_diameter: 1.75
; max_z_height: 24.00
; HEADER_BLOCK_END

; THUMBNAIL_BLOCK_START

;
; THUMBNAIL_BLOCK_END

; THUMBNAIL_BLOCK_START

;
; THUMBNAIL_BLOCK_END

; external perimeters extrusion width = 0.42mm
; perimeters extrusion width = 0.45mm
; infill extrusion width = 0.45mm
; solid infill extrusion width = 0.42mm
; top infill extrusion width = 0.42mm
; support material extrusion width = 0.42mm
; first layer extrusion width = 0.50mm

; EXECUTABLE_BLOCK_START
EXCLUDE_OBJECT_DEFINE NAME=крюк_длинный.stp_id_0_copy_0 CENTER=99.824,110.091 POLYGON=[[76.0743,126.27],[76.0769,125.753],[76.0914,125.235],[76.1178,124.718],[76.1561,124.202],[76.2063,123.687],[76.2683,123.173],[76.3421,122.66],[76.4277,122.15],[76.525,121.641],[76.634,121.135],[76.7547,120.632],[76.8868,120.131],[77.0305,119.634],[77.1855,119.14],[77.3519,118.649],[77.5295,118.163],[77.7182,117.681],[77.918,117.203],[78.1287,116.731],[78.3503,116.263],[78.5826,115.8],[78.8254,115.343],[79.0787,114.891],[79.3423,114.446],[110.191,71.5567],[120.774,71.5567],[123.574,82.8567],[123.574,95.5943],[121.01,127.814],[120.984,128.13],[120.974,128.238],[120.937,128.598],[120.93,128.662],[120.88,129.065],[120.878,129.084],[120.818,129.506],[120.814,129.531],[120.75,129.925],[120.739,129.993],[120.675,130.342],[120.653,130.454],[120.582,130.802],[120.568,130.869],[120.479,131.263],[120.474,131.285],[120.372,131.701],[120.365,131.725],[120.261,132.116],[120.242,132.186],[120.142,132.53],[120.108,132.646],[120.001,132.989],[119.979,133.058],[119.85,133.444],[119.842,133.468],[119.697,133.875],[119.689,133.896],[119.609,134.11],[119.519,134.344],[119.324,134.823],[119.119,135.299],[118.902,135.769],[118.675,136.234],[118.437,136.694],[118.189,137.148],[117.93,137.596],[117.661,138.039],[117.381,138.475],[117.092,138.904],[116.793,139.327],[116.485,139.743],[116.167,140.151],[115.839,140.552],[115.503,140.946],[115.157,141.331],[114.803,141.709],[114.44,142.078],[114.069,142.439],[113.69,142.791],[113.302,143.134],[112.907,143.469],[112.504,143.794],[112.094,144.11],[111.677,144.416],[111.252,144.713],[110.821,144.999],[110.384,145.276],[109.94,145.543],[109.49,145.799],[109.035,146.045],[108.574,146.281],[108.107,146.505],[107.636,146.719],[107.159,146.922],[106.679,147.114],[106.194,147.295],[105.705,147.465],[105.212,147.623],[104.715,147.77],[104.216,147.906],[103.713,148.03],[103.208,148.142],[102.7,148.243],[102.19,148.332],[101.678,148.41],[101.164,148.475],[100.649,148.529],[100.133,148.571],[99.6166,148.601],[99.0992,148.619],[98.5815,148.625],[98.0639,148.619],[97.5465,148.601],[97.0296,148.572],[96.5135,148.53],[95.9986,148.477],[95.485,148.412],[94.973,148.335],[94.463,148.246],[93.9551,148.146],[93.4497,148.034],[92.947,147.91],[92.4472,147.775],[91.9507,147.628],[91.4578,147.47],[90.9685,147.3],[90.4834,147.12],[90.0024,146.928],[89.5261,146.725],[89.0545,146.512],[88.588,146.287],[88.1267,146.052],[87.671,145.807],[87.221,145.551],[86.7771,145.284],[86.3394,145.008],[85.9082,144.721],[85.4837,144.425],[85.0661,144.119],[84.6556,143.803],[84.2526,143.479],[83.8571,143.144],[83.4694,142.801],[83.0897,142.449],[82.7182,142.089],[82.3551,141.72],[82.0006,141.342],[81.6549,140.957],[81.3181,140.564],[80.9905,140.163],[80.6721,139.755],[80.3633,139.339],[80.064,138.917],[79.7746,138.488],[79.4952,138.052],[79.2258,137.61],[78.9667,137.162],[78.7179,136.707],[78.4797,136.248],[78.2521,135.783],[78.0353,135.313],[77.8293,134.838],[77.6343,134.358],[77.4505,133.874],[77.2777,133.386],[77.1163,132.894],[76.9662,132.399],[76.8276,131.9],[76.7005,131.398],[76.585,130.893],[76.4811,130.386],[76.3889,129.877],[76.3084,129.365],[76.2397,128.852],[76.1829,128.338],[76.1379,127.822],[76.1048,127.305],[76.0836,126.788],[76.0743,126.27]]
M73 P0 R28
M106 S0
M106 P2 S0
;TYPE:Custom
M140 S0
M104 S0 
START_PRINT EXTRUDER_TEMP=250 BED_TEMP=90
M106 P3 S153
G90
G21
M83 ; use relative distances for extrusion
; filament start gcode
M106 S0
M106 P2 S0
;LAYER_CHANGE
;Z:0.2
;HEIGHT:0.2
;BEFORE_LAYER_CHANGE
;0.2
G92 E0

G1 E-.6 F2400
;_SET_FAN_SPEED_CHANGING_LAYER
SET_VELOCITY_LIMIT ACCEL=500 ACCEL_TO_DECEL=250
SET_VELOCITY_LIMIT SQUARE_CORNER_VELOCITY=9
EXCLUDE_OBJECT_START NAME=крюк_длинный.stp_id_0_copy_0
G1 Z.2 F42000
G1 X123.156 Y79.627
G1 Z.2
G1 E.6 F2400
;TYPE:Support
;WIDTH:0.5
G1 F3600
G1 X125.533 Y79.627 E.08583
G1 X125.533 Y102.521 E.82659
G1 X123.156 Y102.521 E.08583
G1 X123.156 Y116.783 E.51496
G1 X107.394 Y116.783 E.56911
G1 X107.394 Y67.742 E1.77069
G1 X123.156 Y67.742 E.56911
G1 X123.156 Y79.559 E.42666
G1 X107.805 Y116.372 F42000
G1 F3600
G1 X107.805 Y68.153 E1.74098
G1 X122.745 Y68.153 E.53941
G1 X122.745 Y80.039 E.42913
G1 X125.122 Y80.039 E.08583
G1 X125.122 Y102.109 E.79689
G1 X122.745 Y102.109 E.08583
G1 X122.745 Y116.372 E.51496
G1 X107.805 Y116.372 E.53941
G1 X108.313 Y115.864 F42000
G1 F3600
G1 X108.313 Y68.661 E1.70431
G1 X122.237 Y68.661 E.50273
G1 X122.237 Y80.547 E.42913
M73 P0 R27
G1 X124.614 Y80.547 E.08583
G1 X124.614 Y101.602 E.76021
G1 X122.237 Y101.602 E.08583
G1 X122.237 Y115.864 E.51496
G1 X108.313 Y115.864 E.50273
G1 X108.821 Y115.356 F42000
G1 F3600
G1 X108.821 Y69.169 E1.66764
G1 X121.729 Y69.169 E.46606
G1 X121.729 Y81.054 E.42913
G1 X124.106 Y81.054 E.08583
G1 X124.106 Y101.094 E.72354
G1 X121.729 Y101.094 E.08583
G1 X121.729 Y115.356 E.51496
G1 X108.821 Y115.356 E.46606
G1 X109.329 Y114.848 F42000
G1 F3600
G1 X109.329 Y69.677 E1.63096
G1 X121.221 Y69.677 E.42939
G1 X121.221 Y81.562 E.42913
G1 X123.598 Y81.562 E.08583
G1 X123.598 Y100.586 E.68687
G1 X121.221 Y100.586 E.08583
G1 X121.221 Y114.848 E.51496
G1 X109.329 Y114.848 E.42939
G1 X109.837 Y114.34 F42000
G1 F3600
G1 X109.837 Y70.185 E1.59429
G1 X120.713 Y70.185 E.39271
G1 X120.713 Y82.07 E.42913
M73 P1 R27
G1 X123.09 Y82.07 E.08583
G1 X123.09 Y100.078 E.65019
G1 X120.713 Y100.078 E.08583
G1 X120.713 Y114.34 E.51496
G1 X109.837 Y114.34 E.39271
G1 X110.345 Y113.833 F42000
G1 F3600
G1 X110.345 Y70.693 E1.55761
G1 X120.205 Y70.693 E.35604
G1 X120.205 Y82.578 E.42913
G1 X122.583 Y82.578 E.08583
G1 X122.583 Y99.57 E.61352
G1 X120.205 Y99.57 E.08583
G1 X120.205 Y113.833 E.51496
G1 X110.345 Y113.833 E.35604
G1 X110.852 Y113.325 F42000
G1 F3600
G1 X110.852 Y71.2 E1.52094
G1 X119.698 Y71.2 E.31936
G1 X119.698 Y83.086 E.42913
G1 X122.075 Y83.086 E.08583
G1 X122.075 Y99.062 E.57684
G1 X119.698 Y99.062 E.08583
G1 X119.698 Y113.325 E.51496
G1 X110.852 Y113.325 E.31936
G1 X111.36 Y112.817 F42000
G1 F3600
G1 X111.36 Y71.708 E1.48427
G1 X119.19 Y71.708 E.28269
G1 X119.19 Y83.594 E.42913
G1 X121.567 Y83.594 E.08583
G1 X121.567 Y98.554 E.54017
G1 X119.19 Y98.554 E.08583
G1 X119.19 Y112.817 E.51496
G1 X111.36 Y112.817 E.28269
G1 X111.868 Y112.309 F42000
G1 F3600
G1 X111.868 Y72.216 E1.44759
G1 X118.682 Y72.216 E.24602
G1 X118.682 Y84.102 E.42913
G1 X121.059 Y84.102 E.08583
G1 X121.059 Y98.047 E.5035
G1 X118.682 Y98.047 E.08583
G1 X118.682 Y112.309 E.51496
G1 X111.868 Y112.309 E.24602
G1 X112.376 Y111.801 F42000
G1 F3600
G1 X112.376 Y72.724 E1.41092
G1 X118.174 Y72.724 E.20934
G1 X118.174 Y84.609 E.42913
G1 X120.551 Y84.609 E.08583
G1 X120.551 Y97.539 E.46682
G1 X118.174 Y97.539 E.08583
G1 X118.174 Y111.801 E.51496
G1 X112.376 Y111.801 E.20934
G1 X112.884 Y111.293 F42000
G1 F3600
G1 X112.884 Y73.232 E1.37424
G1 X117.666 Y73.232 E.17267
G1 X117.666 Y85.117 E.42913
G1 X120.043 Y85.117 E.08583
G1 X120.043 Y97.031 E.43015
G1 X117.666 Y97.031 E.08583
G1 X117.666 Y111.293 E.51496
G1 X112.884 Y111.293 E.17267
G1 X113.392 Y110.785 F42000
G1 F3600
G1 X113.392 Y73.74 E1.33757
G1 X117.158 Y73.74 E.13599
G1 X117.158 Y85.625 E.42913
G1 X119.535 Y85.625 E.08583
G1 X119.535 Y96.523 E.39347
M73 P2 R27
G1 X117.158 Y96.523 E.08583
G1 X117.158 Y110.785 E.51496
G1 X113.392 Y110.785 E.13599
G1 X113.9 Y110.278 F42000
G1 F3600
G1 X113.9 Y74.248 E1.3009
G1 X116.65 Y74.248 E.09932
G1 X116.65 Y86.133 E.42913
G1 X119.028 Y86.133 E.08583
G1 X119.028 Y96.015 E.3568
G1 X116.65 Y96.015 E.08583
G1 X116.65 Y110.278 E.51496
G1 X113.9 Y110.278 E.09932
G1 X114.408 Y109.77 F42000
G1 F3600
G1 X114.408 Y74.756 E1.26422
G1 X116.143 Y74.756 E.06265
G1 X116.143 Y86.641 E.42913
G1 X118.52 Y86.641 E.08583
G1 X118.52 Y95.507 E.32013
G1 X116.143 Y95.507 E.08583
G1 X116.143 Y109.77 E.51496
G1 X114.408 Y109.77 E.06265
G1 X114.915 Y109.262 F42000
G1 F3600
G1 X114.915 Y75.263 E1.22755
G1 X115.635 Y75.263 E.02597
G1 X115.635 Y87.149 E.42913
G1 X118.012 Y87.149 E.08583
G1 X118.012 Y94.999 E.28345
G1 X115.635 Y94.999 E.08583
G1 X115.635 Y109.262 E.51496
G1 X114.915 Y109.262 E.02597
G1 X115.423 Y94.491 F42000
G1 F3600
G1 X115.423 Y87.657 E.24678
G1 X117.504 Y87.657 E.07512
G1 X117.504 Y94.491 E.24678
G1 X115.423 Y94.491 E.07512
G1 X115.931 Y93.984 F42000
G1 F3600
G1 X115.931 Y88.165 E.2101
G1 X116.996 Y88.165 E.03845
G1 X116.996 Y93.984 E.2101
G1 X115.931 Y93.984 E.03845
;WIPE_START
G1 X116.996 Y93.984 E-.31948
G1 X116.996 Y93.049 E-.28052
;WIPE_END
G1 Z.4 F42000
G1 X123.156 Y128.292 Z.4
G1 Z.2
G1 E.6 F2400
G1 F3600
G1 X121.656 Y128.292 E.05415
G1 X121.656 Y126.292 E.07221
G1 X113.648 Y126.292 E.28916
G1 X113.648 Y128.292 E.07221
G1 X112.148 Y128.292 E.05415
G1 X112.148 Y122.415 E.21219
G1 X123.156 Y122.415 E.39746
G1 X123.156 Y128.223 E.20971
;WIPE_START
G1 X123.156 Y126.223 E-.6
;WIPE_END
G1 Z.4 F42000
G1 X112.559 Y122.826 Z.4
G1 Z.2
G1 E.6 F2400
G1 F3600
G1 X122.745 Y122.826 E.36775
G1 X122.745 Y127.88 E.18248
G1 X122.068 Y127.88 E.02445
G1 X122.068 Y125.88 E.07221
G1 X113.236 Y125.88 E.31886
G1 X113.236 Y127.88 E.07221
G1 X112.559 Y127.88 E.02445
G1 X112.559 Y122.826 E.18248
G1 X113.067 Y123.334 F42000
G1 F3600
G1 X122.237 Y123.334 E.33108
G1 X122.237 Y125.372 E.0736
G1 X113.067 Y125.372 E.33108
G1 X113.067 Y123.334 E.0736
G1 X113.575 Y123.842 F42000
G1 F3600
G1 X121.729 Y123.842 E.29441
G1 X121.729 Y124.865 E.03692
G1 X113.575 Y124.865 E.29441
G1 X113.575 Y123.842 E.03692
;WIPE_START
G1 X113.575 Y124.865 E-.3068
G1 X114.553 Y124.865 E-.2932
;WIPE_END
G1 Z.4 F42000
G1 X114.546 Y129.486 Z.4
G1 Z.2
G1 E.6 F2400
;TYPE:Support interface
G1 F3600
G1 X114.087 Y129.486 E.01658
G1 X114.086 Y126.73 E.09949
G1 X114.734 Y126.73 E.02339
G1 X114.734 Y129.486 E.09949
G1 X115.611 Y129.485 E.03167
G1 X115.611 Y126.73 E.09948
G1 X116.489 Y126.73 E.03167
G1 X116.489 Y129.485 E.09948
G1 X117.366 Y129.485 E.03167
G1 X117.366 Y126.73 E.09947
G1 X118.243 Y126.73 E.03167
G1 X118.243 Y129.485 E.09947
G1 X119.12 Y129.485 E.03167
G1 X119.12 Y126.73 E.09946
G1 X119.997 Y126.73 E.03167
G1 X119.997 Y129.485 E.09946
G1 X120.874 Y129.485 E.03167
G1 X120.874 Y126.73 E.09945
G1 X121.218 Y126.73 E.01241
G1 X121.218 Y131.484 E.17165
G1 X120.874 Y131.484 E.01241
G1 X120.874 Y131.278 E.00747
G1 X121.056 Y130.417 E.03176
G1 X121.173 Y129.763 E.02399
G1 X121.019 Y129.578 E.00869
;WIPE_START
G1 X121.173 Y129.763 E-.07222
G1 X121.056 Y130.417 E-.19933
G1 X120.874 Y131.278 E-.26393
G1 X120.874 Y131.484 E-.06204
G1 X120.882 Y131.484 E-.00248
;WIPE_END
G1 Z.4 F42000
G1 X79.552 Y117.919 Z.4
G1 Z.2
G1 E.6 F2400
;TYPE:Inner wall
;WIDTH:0.499999
G1 F3600
G1 X81.107 Y122.912 E.18883
G1 X80.919 Y124.168 E.04586
G1 X80.821 Y125.318 E.04166
G1 X80.811 Y125.834 E.01865
G1 X80.816 Y126.639 E.02906
G1 X80.855 Y127.443 E.02906
G1 X80.931 Y128.257 E.0295
G1 X81.078 Y129.237 E.03581
G1 X81.358 Y130.53 E.04774
G1 X81.812 Y132.028 E.05655
G1 X82.168 Y132.954 E.03581
G1 X82.872 Y134.433 E.05913
G1 X83.461 Y135.476 E.04325
G1 X84.025 Y136.329 E.03693
G1 X84.603 Y137.108 E.03502
G1 X85.473 Y138.124 E.04829
G1 X85.884 Y138.565 E.02176
G1 X86.557 Y139.218 E.03387
G1 X86.957 Y139.566 E.01914
G1 X87.578 Y140.078 E.02906
G1 X88.22 Y140.563 E.02906
G1 X88.883 Y141.02 E.02906
G1 X89.708 Y141.526 E.03494
G1 X90.562 Y141.987 E.03503
G1 X91.066 Y142.226 E.02015
G1 X91.803 Y142.549 E.02905
G1 X92.538 Y142.835 E.02849
G1 X93.208 Y143.066 E.02558
G1 X94.66 Y143.459 E.05434
G1 X95.612 Y143.647 E.03503
G1 X96.594 Y143.784 E.03581
G1 X97.381 Y143.843 E.02848
G1 X98.147 Y143.888 E.02768
G1 X98.994 Y143.89 E.03061
G1 X99.963 Y143.841 E.03503
G1 X100.928 Y143.739 E.03503
G1 X101.434 Y143.658 E.01851
G1 X102.205 Y143.511 E.02833
G1 X103.303 Y143.255 E.04072
G1 X104.586 Y142.842 E.04865
G1 X105.337 Y142.554 E.02905
G1 X106.061 Y142.24 E.0285
G1 X107.201 Y141.655 E.04626
G1 X107.881 Y141.259 E.02842
G1 X108.563 Y140.822 E.02926
G1 X109.367 Y140.241 E.03581
G1 X110.477 Y139.32 E.05206
G1 X111.393 Y138.424 E.04626
G1 X111.927 Y137.846 E.02842
G1 X112.477 Y137.192 E.03086
G1 X112.961 Y136.535 E.02946
G1 X113.414 Y135.895 E.02832
G1 X113.841 Y135.22 E.02884
G1 X114.266 Y134.464 E.03131
G1 X114.721 Y133.536 E.03732
M73 P3 R27
G1 X117.92 Y133.535 E.11551
G1 X117.691 Y134.137 E.02325
G1 X117.092 Y135.438 E.05171
G1 X116.401 Y136.701 E.05199
G1 X115.901 Y137.502 E.0341
G1 X115.359 Y138.287 E.03444
G1 X114.782 Y139.047 E.03444
G1 X114.17 Y139.779 E.03444
G1 X113.532 Y140.475 E.0341
G1 X112.494 Y141.483 E.05225
G1 X111.778 Y142.103 E.03418
G1 X111.029 Y142.694 E.03444
G1 X110.254 Y143.249 E.03444
G1 X109.454 Y143.768 E.03444
G1 X108.639 Y144.245 E.0341
G1 X107.35 Y144.903 E.05225
G1 X106.483 Y145.285 E.03418
G1 X105.594 Y145.628 E.03444
G1 X104.689 Y145.931 E.03444
G1 X103.771 Y146.191 E.03444
G1 X102.843 Y146.409 E.03444
G1 X101.905 Y146.584 E.03444
G1 X100.96 Y146.715 E.03444
G1 X100.011 Y146.803 E.03444
G1 X99.058 Y146.847 E.03444
G1 X98.104 Y146.848 E.03444
G1 X97.16 Y146.805 E.0341
G1 X95.719 Y146.655 E.05232
G1 X94.787 Y146.504 E.0341
G1 X93.853 Y146.308 E.03444
G1 X92.939 Y146.072 E.03411
G1 X91.561 Y145.63 E.05225
G1 X90.677 Y145.29 E.03418
G1 X89.804 Y144.907 E.03444
G1 X88.949 Y144.483 E.03444
G1 X88.115 Y144.021 E.03444
G1 X87.303 Y143.521 E.03444
G1 X86.514 Y142.984 E.03444
G1 X85.752 Y142.411 E.03444
G1 X85.016 Y141.804 E.03444
G1 X84.316 Y141.17 E.0341
G1 X83.299 Y140.137 E.05232
G1 X82.677 Y139.427 E.0341
G1 X82.082 Y138.682 E.03444
G1 X81.522 Y137.91 E.03444
G1 X81.003 Y137.12 E.0341
G1 X80.277 Y135.866 E.05233
G1 X79.852 Y135.022 E.0341
G1 X79.467 Y134.16 E.0341
G1 X78.952 Y132.805 E.05233
G1 X78.668 Y131.905 E.0341
G1 X78.423 Y130.983 E.03444
G1 X78.223 Y130.06 E.0341
G1 X77.997 Y128.628 E.05233
G1 X77.905 Y127.688 E.0341
G1 X77.854 Y126.736 E.03444
G1 X77.848 Y125.782 E.03444
G1 X77.886 Y124.829 E.03444
G1 X77.968 Y123.879 E.03444
G1 X78.093 Y122.933 E.03444
G1 X78.261 Y121.994 E.03444
G1 X78.473 Y121.064 E.03444
G1 X78.724 Y120.154 E.0341
G1 X79.187 Y118.79 E.05199
G1 X79.536 Y117.956 E.03266
G1 X79.637 Y116.655 F42000
G1 F3600
G1 X81.576 Y122.881 E.23542
G1 X81.375 Y124.208 E.04847
G1 X81.278 Y125.336 E.04087
G1 X81.272 Y126.623 E.04646
G1 X81.31 Y127.402 E.02816
G1 X81.384 Y128.19 E.0286
G1 X81.525 Y129.141 E.03468
G1 X81.805 Y130.433 E.04774
G1 X82.24 Y131.866 E.05407
G1 X82.584 Y132.763 E.03469
G1 X83.27 Y134.208 E.05778
G1 X83.851 Y135.237 E.04265
G1 X84.393 Y136.057 E.0355
G1 X84.956 Y136.817 E.03412
G1 X85.809 Y137.814 E.04739
G1 X86.202 Y138.237 E.02086
G1 X86.864 Y138.879 E.0333
G1 X87.858 Y139.718 E.04696
G1 X88.481 Y140.188 E.02816
G1 X89.122 Y140.631 E.02816
G1 X89.926 Y141.124 E.03404
G1 X90.757 Y141.574 E.03413
G1 X91.262 Y141.813 E.02015
G1 X91.976 Y142.126 E.02815
G1 X92.688 Y142.403 E.02759
G1 X93.347 Y142.631 E.02519
G1 X94.75 Y143.011 E.05247
G1 X95.677 Y143.195 E.03413
G1 X96.628 Y143.328 E.03468
G1 X97.415 Y143.387 E.02848
G1 X98.149 Y143.431 E.02655
G1 X98.972 Y143.434 E.02971
G1 X99.916 Y143.386 E.03413
G1 X100.856 Y143.287 E.03413
G1 X101.362 Y143.207 E.01851
G1 X102.102 Y143.065 E.0272
G1 X103.17 Y142.817 E.03959
G1 X104.429 Y142.412 E.04774
G1 X105.157 Y142.134 E.02815
G1 X105.859 Y141.83 E.0276
G1 X106.977 Y141.257 E.04536
G1 X107.636 Y140.874 E.02752
G1 X108.297 Y140.45 E.02836
G1 X109.076 Y139.889 E.03469
G1 X110.162 Y138.988 E.05094
G1 X111.061 Y138.11 E.04536
G1 X111.578 Y137.551 E.02752
G1 X112.109 Y136.921 E.02974
G1 X112.593 Y136.264 E.02946
G1 X113.028 Y135.649 E.02719
G1 X113.443 Y134.994 E.02799
G1 X113.905 Y134.161 E.03442
