; HEADER_BLOCK_START
; generated by OrcaSlicer 2.1.0 on 2025-03-05 at 17:45:21
; total layer number: 225
; filament_density: 1.27
; filament_diameter: 1.75
; max_z_height: 31.00
; HEADER_BLOCK_END

; THUMBNAIL_BLOCK_START

;
; THUMBNAIL_BLOCK_END

; THUMBNAIL_BLOCK_START

;
; THUMBNAIL_BLOCK_END

; external perimeters extrusion width = 0.42mm
; perimeters extrusion width = 0.45mm
; infill extrusion width = 0.45mm
; solid infill extrusion width = 0.42mm
; top infill extrusion width = 0.42mm
; support material extrusion width = 0.42mm
; first layer extrusion width = 0.50mm

; EXECUTABLE_BLOCK_START
EXCLUDE_OBJECT_DEFINE NAME=крепеж_под_серву.stp_id_0_copy_0 CENTER=108.045,112.743 POLYGON=[[94.6945,84.2427],[94.7002,84.112],[94.7173,83.9822],[94.7456,83.8545],[94.785,83.7297],[94.8351,83.6088],[94.8955,83.4927],[94.9658,83.3824],[95.0455,83.2785],[95.1339,83.1821],[95.2303,83.0937],[95.3342,83.014],[95.4445,82.9437],[95.5606,82.8833],[95.6815,82.8332],[95.8063,82.7938],[95.934,82.7655],[96.0638,82.7484],[96.1945,82.7427],[120.095,82.7427],[121.389,96.612],[121.395,96.7427],[121.395,128.743],[121.389,128.873],[120.095,142.743],[96.1945,142.743],[96.0638,142.737],[95.934,142.72],[95.8063,142.692],[95.6815,142.652],[95.5606,142.602],[95.4445,142.542],[95.3342,142.471],[95.2303,142.392],[95.1339,142.303],[95.0455,142.207],[94.9658,142.103],[94.8955,141.993],[94.8351,141.877],[94.785,141.756],[94.7456,141.631],[94.7173,141.503],[94.7002,141.373],[94.6945,141.243],[94.6945,84.2427]]
M73 P0 R33
M106 S0
M106 P2 S0
;TYPE:Custom
M140 S0
M104 S0 
START_PRINT EXTRUDER_TEMP=250 BED_TEMP=90
M106 P3 S153
G90
G21
M83 ; use relative distances for extrusion
; filament start gcode
M106 S0
M106 P2 S0
;LAYER_CHANGE
;Z:0.2
;HEIGHT:0.2
;BEFORE_LAYER_CHANGE
;0.2
G92 E0

G1 E-.6 F2400
;_SET_FAN_SPEED_CHANGING_LAYER
SET_VELOCITY_LIMIT ACCEL=500 ACCEL_TO_DECEL=250
SET_VELOCITY_LIMIT SQUARE_CORNER_VELOCITY=9
EXCLUDE_OBJECT_START NAME=крепеж_под_серву.stp_id_0_copy_0
G1 Z.2 F42000
G1 X124.245 Y93.287
G1 Z.2
G1 E.6 F2400
;TYPE:Support
;WIDTH:0.5
G1 F3600
G1 X116.884 Y93.287 E.2658
G1 X117.579 Y92.593 E.03547
G1 X119.276 Y92.593 E.06127
G1 X119.481 Y92.388 E.01047
G1 X119.481 Y84.656 E.27915
G1 X124.245 Y84.656 E.17204
G1 X124.245 Y93.219 E.30916
G1 X119.574 Y92.876 F42000
G1 F3600
G1 X119.892 Y92.558 E.01624
G1 X119.892 Y85.068 E.27045
G1 X123.834 Y85.068 E.14233
G1 X123.834 Y92.876 E.28193
G1 X119.574 Y92.876 E.15382
G1 X120.4 Y92.368 F42000
G1 F3600
G1 X120.4 Y85.576 E.24525
G1 X123.326 Y85.576 E.10566
G1 X123.326 Y92.368 E.24525
G1 X120.4 Y92.368 E.10566
G1 X120.908 Y91.86 F42000
G1 F3600
G1 X120.908 Y86.084 E.20858
G1 X122.818 Y86.084 E.06899
G1 X122.818 Y91.86 E.20858
G1 X120.908 Y91.86 E.06899
G1 X121.416 Y91.352 F42000
G1 F3600
G1 X121.416 Y86.591 E.1719
G1 X122.31 Y86.591 E.03231
G1 X122.31 Y91.352 E.1719
G1 X121.416 Y91.352 E.03231
;WIPE_START
G1 X122.31 Y91.352 E-.26848
G1 X122.31 Y90.247 E-.33152
;WIPE_END
G1 Z.4 F42000
G1 X124.245 Y140.829 Z.4
G1 Z.2
G1 E.6 F2400
G1 F3600
G1 X119.481 Y140.829 E.17204
G1 X119.481 Y133.098 E.27915
G1 X119.276 Y132.893 E.01047
G1 X117.579 Y132.893 E.06127
G1 X116.884 Y132.198 E.03547
G1 X124.245 Y132.198 E.2658
G1 X124.245 Y140.76 E.30916
G1 X119.574 Y132.609 F42000
G1 F3600
G1 X123.834 Y132.609 E.15381
G1 X123.834 Y140.418 E.28193
G1 X119.892 Y140.418 E.14233
G1 X119.892 Y132.927 E.27045
G1 X119.574 Y132.609 E.01624
G1 X120.4 Y133.117 F42000
G1 F3600
G1 X123.326 Y133.117 E.10566
G1 X123.326 Y139.91 E.24525
G1 X120.4 Y139.91 E.10566
G1 X120.4 Y133.117 E.24525
G1 X120.908 Y133.625 F42000
G1 F3600
G1 X122.818 Y133.625 E.06899
G1 X122.818 Y139.402 E.20858
M73 P0 R32
G1 X120.908 Y139.402 E.06899
G1 X120.908 Y133.625 E.20858
G1 X121.416 Y134.133 F42000
G1 F3600
G1 X122.31 Y134.133 E.03231
G1 X122.31 Y138.894 E.1719
G1 X121.416 Y138.894 E.03231
G1 X121.416 Y134.133 E.1719
;WIPE_START
G1 X121.416 Y136.133 E-.6
;WIPE_END
G1 Z.4 F42000
G1 X121.416 Y141.286 Z.4
G1 Z.2
G1 E.6 F2400
;TYPE:Brim
G1 F3600
G1 X123.573 Y141.286 E.07789
G1 X123.573 Y142.734 E.05229
G1 X123.525 Y143.383 E.02348
G1 X123.385 Y144.004 E.023
G1 X122.981 Y144.931 E.03651
G1 X122.631 Y145.466 E.02308
G1 X122.205 Y145.946 E.02317
G1 X121.712 Y146.357 E.02317
G1 X121.166 Y146.69 E.02308
G1 X120.38 Y147.001 E.03052
G1 X119.701 Y147.147 E.0251
G1 X119.123 Y147.185 E.02091
G1 X96.201 Y147.185 E.82761
G1 X95.5 Y147.143 E.02536
G1 X94.99 Y147.06 E.01866
G1 X94.488 Y146.933 E.0187
G1 X94.011 Y146.767 E.01825
G1 X93.404 Y146.488 E.02411
G1 X93.074 Y146.298 E.01374
G1 X92.644 Y146.006 E.01876
G1 X92.243 Y145.679 E.01871
G1 X91.872 Y145.318 E.01867
G1 X91.45 Y144.818 E.02365
G1 X91.157 Y144.392 E.01867
G1 X90.902 Y143.941 E.01871
G1 X90.686 Y143.468 E.01876
G1 X90.555 Y143.111 E.01373
G1 X90.383 Y142.476 E.02374
G1 X90.316 Y142.102 E.01373
G1 X90.264 Y141.587 E.0187
G1 X90.252 Y84.25 E2.07021
G1 X90.296 Y83.539 E.02569
G1 X90.378 Y83.035 E.01846
G1 X90.504 Y82.536 E.01858
G1 X90.674 Y82.048 E.01866
G1 X90.95 Y81.452 E.0237
G1 X91.139 Y81.122 E.01372
G1 X91.43 Y80.694 E.01871
G1 X91.85 Y80.191 E.02366
G1 X92.22 Y79.828 E.01871
G1 X92.518 Y79.576 E.0141
G1 X92.936 Y79.276 E.01856
G1 X93.377 Y79.013 E.01853
G1 X93.969 Y78.734 E.02365
G1 X94.458 Y78.561 E.01871
G1 X94.834 Y78.46 E.01406
G1 X95.469 Y78.346 E.02331
G1 X96.197 Y78.301 E.02633
G1 X119.122 Y78.3 E.82772
G1 X119.771 Y78.349 E.02348
G1 X120.392 Y78.489 E.023
G1 X121.319 Y78.892 E.03651
G1 X121.854 Y79.242 E.02308
G1 X122.334 Y79.669 E.02317
G1 X122.745 Y80.161 E.02317
G1 X123.078 Y80.707 E.02308
G1 X123.389 Y81.493 E.03052
G1 X123.535 Y82.172 E.0251
G1 X123.573 Y82.75 E.02091
G1 X123.573 Y84.199 E.05232
G1 X119.459 Y84.199 E.14853
G1 X119.45 Y82.68 E.05487
G1 X119.435 Y82.626 E.002
G1 X119.326 Y82.49 E.00632
G1 X119.241 Y82.443 E.0035
G1 X119.131 Y82.414 E.00413
G1 X96.174 Y82.415 E.82886
G1 X95.856 Y82.447 E.01153
G1 X95.584 Y82.52 E.01019
G1 X95.178 Y82.725 E.01642
G1 X94.891 Y82.961 E.01341
G1 X94.683 Y83.215 E.01184
G1 X94.525 Y83.502 E.01183
G1 X94.402 Y83.889 E.01465
G1 X94.366 Y84.238 E.0127
G1 X94.367 Y141.263 E2.05893
G1 X94.399 Y141.585 E.01167
G1 X94.485 Y141.891 E.01148
G1 X94.619 Y142.169 E.01117
G1 X94.779 Y142.398 E.01007
G1 X95.001 Y142.627 E.0115
G1 X95.166 Y142.754 E.00753
G1 X95.4 Y142.889 E.00976
G1 X95.567 Y142.96 E.00656
G1 X95.863 Y143.04 E.01104
G1 X96.19 Y143.071 E.01188
G1 X119.131 Y143.071 E.82829
G1 X119.247 Y143.047 E.00429
G1 X119.384 Y142.938 E.00632
G1 X119.431 Y142.853 E.0035
G1 X119.459 Y142.743 E.00413
G1 X119.459 Y141.286 E.05259
G1 X121.376 Y141.286 E.06919
G1 X121.376 Y141.743 F42000
G1 F3600
G1 X122.979 Y141.743 E.05788
G1 X123.083 Y141.791 E.00413
G1 X123.116 Y141.88 E.00344
G1 X123.116 Y142.712 E.03004
G1 X123.072 Y143.305 E.02146
G1 X122.943 Y143.873 E.02104
G1 X122.571 Y144.723 E.03349
G1 X122.261 Y145.195 E.0204
G1 X121.878 Y145.623 E.02072
G1 X121.436 Y145.99 E.02072
G1 X120.951 Y146.283 E.02049
G1 X120.258 Y146.558 E.0269
G1 X119.627 Y146.694 E.02329
G1 X119.103 Y146.728 E.01896
G1 X96.219 Y146.728 E.82626
G1 X95.558 Y146.688 E.02393
G1 X95.089 Y146.613 E.01714
G1 X94.625 Y146.496 E.01727
G1 X94.188 Y146.345 E.01669
G1 X93.609 Y146.078 E.02303
G1 X93.312 Y145.907 E.01235
G1 X92.913 Y145.636 E.01744
G1 X92.552 Y145.341 E.01684
G1 X92.212 Y145.011 E.0171
G1 X91.81 Y144.534 E.02251
G1 X91.542 Y144.144 E.0171
G1 X91.312 Y143.738 E.01684
G1 X91.111 Y143.299 E.01744
G1 X90.993 Y142.978 E.01235
G1 X90.828 Y142.37 E.02273
G1 X90.769 Y142.033 E.01235
G1 X90.721 Y141.557 E.0173
G1 X90.709 Y84.268 E2.06847
G1 X90.75 Y83.597 E.02426
G1 X90.825 Y83.134 E.01695
G1 X90.941 Y82.673 E.01715
G1 X91.096 Y82.226 E.0171
G1 X91.359 Y81.657 E.02262
G1 X91.53 Y81.361 E.01235
G1 X91.792 Y80.975 E.01684
G1 X92.191 Y80.496 E.02251
G1 X92.524 Y80.17 E.01682
G1 X92.804 Y79.934 E.01322
G1 X93.182 Y79.662 E.01682
G1 X93.585 Y79.42 E.01698
G1 X94.137 Y79.161 E.02202
G1 X94.589 Y79 E.01731
G1 X94.928 Y78.908 E.01268
G1 X95.516 Y78.802 E.02159
G1 X96.216 Y78.758 E.02531
G1 X119.11 Y78.758 E.82662
G1 X119.693 Y78.801 E.02109
G1 X120.237 Y78.922 E.02012
G1 X121.091 Y79.291 E.03359
G1 X121.583 Y79.613 E.02124
G1 X121.997 Y79.981 E.01999
G1 X122.366 Y80.42 E.02072
G1 X122.671 Y80.922 E.02122
G1 X122.945 Y81.615 E.0269
G1 X123.079 Y82.226 E.02257
G1 X123.116 Y82.77 E.01968
G1 X123.116 Y83.605 E.03016
G1 X123.068 Y83.709 E.00413
G1 X122.979 Y83.742 E.00344
G1 X120.05 Y83.742 E.10575
G1 X119.946 Y83.695 E.00413
G1 X119.913 Y83.606 E.00342
G1 X119.907 Y82.689 E.03312
G1 X119.875 Y82.507 E.00667
G1 X119.784 Y82.331 E.00714
G1 X119.692 Y82.215 E.00534
G1 X119.539 Y82.087 E.0072
G1 X119.348 Y81.999 E.00759
G1 X119.118 Y81.957 E.00845
G1 X96.122 Y81.961 E.83029
G1 X95.821 Y81.991 E.01094
G1 X95.476 Y82.076 E.01283
G1 X94.977 Y82.314 E.01995
G1 X94.881 Y82.377 E.00415
G1 X94.609 Y82.601 E.01272
G1 X94.337 Y82.917 E.01504
G1 X94.086 Y83.375 E.01889
G1 X93.947 Y83.853 E.01796
G1 X93.909 Y84.245 E.01422
G1 X93.91 Y141.255 E2.05842
G1 X93.962 Y141.718 E.01681
G1 X94.078 Y142.098 E.01433
G1 X94.203 Y142.358 E.01044
G1 X94.399 Y142.652 E.01275
G1 X94.667 Y142.939 E.01419
G1 X94.946 Y143.154 E.01269
G1 X95.165 Y143.281 E.00916
G1 X95.382 Y143.378 E.00857
G1 X95.734 Y143.479 E.01321
G1 X96.142 Y143.526 E.01483
G1 X119.12 Y143.528 E.82965
M73 P1 R32
G1 X119.327 Y143.496 E.00758
G1 X119.544 Y143.395 E.00865
G1 X119.658 Y143.304 E.00525
G1 X119.824 Y143.086 E.00992
G1 X119.9 Y142.86 E.00857
G1 X119.916 Y142.734 E.0046
G1 X119.916 Y141.88 E.03082
G1 X119.964 Y141.776 E.00413
G1 X120.053 Y141.743 E.00344
G1 X121.336 Y141.743 E.0463
G1 X121.336 Y142.2 F42000
G1 F3600
G1 X122.522 Y142.2 E.04282
G1 X122.626 Y142.248 E.00413
G1 X122.659 Y142.337 E.00344
G1 X122.659 Y142.69 E.01275
G1 X122.62 Y143.227 E.01942
G1 X122.502 Y143.742 E.01907
G1 X122.162 Y144.514 E.03047
G1 X121.891 Y144.923 E.01772
G1 X121.552 Y145.3 E.01827
G1 X121.162 Y145.622 E.01827
G1 X120.736 Y145.877 E.01792
G1 X120.135 Y146.115 E.02333
G1 X119.554 Y146.24 E.02148
G1 X119.084 Y146.271 E.017
G1 X96.237 Y146.271 E.82491
G1 X95.614 Y146.234 E.02252
G1 X95.187 Y146.166 E.01562
G1 X94.762 Y146.059 E.01583
G1 X94.366 Y145.923 E.01513
G1 X93.814 Y145.668 E.02194
G1 X93.551 Y145.517 E.01095
G1 X93.182 Y145.265 E.01613
G1 X92.852 Y144.995 E.01542
G1 X92.551 Y144.704 E.01511
G1 X92.17 Y144.252 E.02136
G1 X91.933 Y143.906 E.01511
G1 X91.723 Y143.535 E.01541
G1 X91.536 Y143.129 E.01613
G1 X91.431 Y142.844 E.01096
G1 X91.274 Y142.264 E.02171
G1 X91.221 Y141.965 E.01096
G1 X91.178 Y141.527 E.0159
G1 X91.166 Y84.286 E2.06675
G1 X91.205 Y83.654 E.02284
G1 X91.272 Y83.232 E.01544
G1 X91.378 Y82.81 E.01571
G1 X91.518 Y82.403 E.01553
G1 X91.769 Y81.862 E.02153
G1 X91.92 Y81.599 E.01096
G1 X92.153 Y81.256 E.01498
G1 X92.533 Y80.802 E.02137
G1 X92.828 Y80.512 E.01494
G1 X93.089 Y80.292 E.01233
G1 X93.428 Y80.047 E.01509
G1 X93.795 Y79.828 E.01543
G1 X94.306 Y79.587 E.0204
G1 X94.721 Y79.438 E.01591
G1 X95.023 Y79.356 E.0113
G1 X95.579 Y79.256 E.02042
G1 X96.235 Y79.215 E.02372
G1 X119.088 Y79.215 E.82514
G1 X119.616 Y79.254 E.0191
G1 X120.107 Y79.364 E.01817
G1 X120.883 Y79.702 E.03057
G1 X121.312 Y79.984 E.01854
G1 X121.674 Y80.308 E.01755
G1 X121.999 Y80.697 E.01828
G1 X122.255 Y81.117 E.01777
G1 X122.503 Y81.739 E.02417
G1 X122.626 Y82.301 E.02078
G1 X122.658 Y82.781 E.01737
G1 X122.659 Y83.148 E.01326
G1 X122.611 Y83.252 E.00413
G1 X122.522 Y83.285 E.00344
G1 X120.504 Y83.285 E.07284
G1 X120.4 Y83.237 E.00413
G1 X120.367 Y83.149 E.00342
G1 X120.364 Y82.696 E.01636
G1 X120.326 Y82.434 E.00955
G1 X120.277 Y82.29 E.00548
G1 X120.136 Y82.04 E.01037
G1 X119.982 Y81.863 E.0085
G1 X119.719 Y81.667 E.01183
G1 X119.419 Y81.548 E.01165
G1 X119.108 Y81.5 E.01138
G1 X96.071 Y81.507 E.83175
G1 X95.703 Y81.549 E.01339
G1 X95.379 Y81.629 E.01206
G1 X94.786 Y81.9 E.02353
G1 X94.636 Y81.992 E.00636
G1 X94.326 Y82.243 E.01437
G1 X93.999 Y82.609 E.01773
G1 X93.691 Y83.145 E.02233
G1 X93.511 Y83.715 E.02159
G1 X93.452 Y84.252 E.01951
G1 X93.453 Y141.248 E2.05788
G1 X93.507 Y141.758 E.0185
G1 X93.67 Y142.304 E.02059
G1 X93.827 Y142.619 E.01271
G1 X94.013 Y142.897 E.01207
G1 X94.327 Y143.245 E.01692
G1 X94.725 Y143.555 E.01822
G1 X95.189 Y143.792 E.0188
G1 X95.599 Y143.915 E.01546
G1 X96.083 Y143.979 E.01762
G1 X119.111 Y143.985 E.83146
G1 X119.389 Y143.949 E.01012
G1 X119.528 Y143.907 E.00524
G1 X119.836 Y143.746 E.01254
G1 X120.029 Y143.571 E.00942
G1 X120.181 Y143.372 E.00905
G1 X120.261 Y143.221 E.00617
G1 X120.33 Y143.016 E.00779
G1 X120.369 Y142.796 E.00805
G1 X120.373 Y142.336 E.01662
G1 X120.422 Y142.233 E.00413
G1 X120.51 Y142.2 E.0034
G1 X121.296 Y142.2 E.02835
G1 X121.296 Y142.657 F42000
G1 F3600
G1 X122.055 Y142.657 E.02743
G1 X122.159 Y142.705 E.00413
G1 X122.192 Y142.804 E.00378
G1 X122.167 Y143.148 E.01245
G1 X122.061 Y143.609 E.01707
G1 X121.753 Y144.304 E.02744
G1 X121.521 Y144.65 E.01503
G1 X121.227 Y144.975 E.01582
G1 X120.889 Y145.252 E.01581
G1 X120.523 Y145.47 E.01536
G1 X120.013 Y145.672 E.01982
G1 X119.48 Y145.787 E.01966
G1 X119.065 Y145.814 E.01504
G1 X96.255 Y145.814 E.82358
G1 X95.671 Y145.779 E.02113
G1 X95.284 Y145.719 E.01411
G1 X94.898 Y145.622 E.01439
G1 X94.543 Y145.5 E.01355
G1 X94.013 Y145.256 E.02106
G1 X93.452 Y144.895 E.0241
G1 X93.161 Y144.657 E.01358
G1 X92.891 Y144.396 E.01355
G1 X92.53 Y143.969 E.0202
G1 X92.318 Y143.659 E.01355
G1 X92.133 Y143.332 E.01357
G1 X91.871 Y142.717 E.02413
G1 X91.718 Y142.152 E.02113
G1 X91.635 Y141.498 E.02382
G1 X91.624 Y84.304 E2.06505
G1 X91.659 Y83.711 E.02144
G1 X91.719 Y83.33 E.01393
G1 X91.815 Y82.946 E.01427
G1 X91.941 Y82.581 E.01395
G1 X92.181 Y82.062 E.02064
G1 X92.523 Y81.526 E.02296
G1 X92.874 Y81.107 E.01974
G1 X93.132 Y80.854 E.01306
G1 X93.374 Y80.649 E.01145
G1 X93.685 Y80.427 E.01378
G1 X94.004 Y80.235 E.01346
G1 X94.474 Y80.012 E.01878
G1 X95.111 Y79.806 E.02417
G1 X95.642 Y79.71 E.01948
G1 X96.254 Y79.672 E.02214
G1 X119.066 Y79.672 E.82367
G1 X119.539 Y79.706 E.01709
G1 X119.976 Y79.806 E.01621
G1 X120.675 Y80.112 E.02754
G1 X121.024 Y80.341 E.01509
G1 X121.337 Y80.619 E.01512
G1 X121.619 Y80.955 E.01584
G1 X121.838 Y81.312 E.01511
G1 X122.06 Y81.862 E.02143
G1 X122.173 Y82.376 E.01896
G1 X122.193 Y82.682 E.01108
G1 X122.153 Y82.789 E.00413
G1 X122.057 Y82.828 E.00376
G1 X120.959 Y82.828 E.03965
G1 X120.855 Y82.78 E.00413
G1 X120.823 Y82.709 E.00283
G1 X120.779 Y82.376 E.01213
G1 X120.712 Y82.152 E.00844
G1 X120.539 Y81.825 E.01336
G1 X120.333 Y81.571 E.01181
G1 X119.998 Y81.305 E.01545
G1 X119.881 Y81.24 E.00482
G1 X119.477 Y81.095 E.01552
G1 X119.098 Y81.043 E.01379
G1 X96.078 Y81.05 E.83115
G1 X95.658 Y81.094 E.01527
G1 X95.28 Y81.183 E.01401
G1 X94.602 Y81.481 E.02675
G1 X94.402 Y81.599 E.00838
G1 X94.046 Y81.882 E.01641
G1 X93.666 Y82.296 E.02028
G1 X93.253 Y83.014 E.02991
G1 X93.055 Y83.677 E.02501
G1 X92.995 Y84.26 E.02114
G1 X92.996 Y141.24 E2.05734
G1 X93.072 Y141.899 E.02396
G1 X93.266 Y142.518 E.02341
G1 X93.415 Y142.816 E.01204
G1 X93.628 Y143.143 E.01409
G1 X93.982 Y143.544 E.01931
G1 X94.436 Y143.908 E.02101
G1 X94.972 Y144.194 E.02193
G1 X95.459 Y144.35 E.01845
G1 X96.015 Y144.431 E.02031
G1 X119.103 Y144.442 E.83361
G1 X119.437 Y144.404 E.01216
G1 X119.75 Y144.306 E.01184
G1 X120.035 Y144.157 E.01158
G1 X120.33 Y143.915 E.01378
G1 X120.54 Y143.654 E.0121
G1 X120.661 Y143.443 E.0088
G1 X120.781 Y143.086 E.01358
G1 X120.827 Y142.775 E.01138
G1 X120.89 Y142.679 E.00413
G1 X120.963 Y142.657 E.00276
G1 X121.256 Y142.657 E.01057
G1 X121.35 Y143.114 F42000
G1 F3600
G1 X121.533 Y143.114 E.00661
G1 X121.637 Y143.162 E.00413
G1 X121.667 Y143.282 E.00447
G1 X121.62 Y143.476 E.00719
G1 X121.355 Y144.072 E.02355
G1 X121.166 Y144.36 E.01245
G1 X120.918 Y144.635 E.01337
G1 X120.634 Y144.871 E.01333
G1 X120.311 Y145.062 E.01356
G1 X119.89 Y145.229 E.01635
G1 X119.427 Y145.331 E.01711
G1 X119.054 Y145.356 E.01348
G1 X96.272 Y145.357 E.82258
G1 X95.726 Y145.325 E.01975
G1 X95.381 Y145.271 E.0126
G1 X95.033 Y145.185 E.01295
G1 X94.72 Y145.078 E.01195
G1 X94.226 Y144.849 E.01966
G1 X93.715 Y144.52 E.02195
G1 X93.461 Y144.311 E.01187
G1 X93.23 Y144.089 E.01156
