; HEADER_BLOCK_START
; generated by OrcaSlicer 2.1.0 on 2025-02-26 at 19:34:53
; total layer number: 155
; filament_density: 1.27
; filament_diameter: 1.75
; max_z_height: 31.00
; HEADER_BLOCK_END

; THUMBNAIL_BLOCK_START

;
; THUMBNAIL_BLOCK_END

; THUMBNAIL_BLOCK_START

;
; THUMBNAIL_BLOCK_END

; external perimeters extrusion width = 0.42mm
; perimeters extrusion width = 0.45mm
; infill extrusion width = 0.45mm
; solid infill extrusion width = 0.42mm
; top infill extrusion width = 0.42mm
; support material extrusion width = 0.42mm
; first layer extrusion width = 0.50mm

; EXECUTABLE_BLOCK_START
EXCLUDE_OBJECT_DEFINE NAME=крепеж_под_серву.stp_id_0_copy_0 CENTER=110,110 POLYGON=[[89,89.5],[105.05,80.201],[105.166,80.1405],[105.287,80.0905],[105.412,80.0511],[105.54,80.0228],[105.669,80.0057],[105.8,80],[129.7,80],[130.994,93.8693],[131,94],[131,126],[130.994,126.131],[129.7,140],[105.8,140],[105.669,139.994],[105.54,139.977],[105.412,139.949],[105.287,139.91],[105.166,139.859],[105.05,139.799],[89,130.5],[89,89.5]]
M73 P0 R36
M106 S0
M106 P2 S0
;TYPE:Custom
M140 S0
M104 S0 
START_PRINT EXTRUDER_TEMP=250 BED_TEMP=90
M106 P3 S153
G90
G21
M83 ; use relative distances for extrusion
; filament start gcode
M106 S0
M106 P2 S0
;LAYER_CHANGE
;Z:0.2
;HEIGHT:0.2
;BEFORE_LAYER_CHANGE
;0.2
G92 E0

G1 E-.6 F2400
;_SET_FAN_SPEED_CHANGING_LAYER
SET_VELOCITY_LIMIT ACCEL=500 ACCEL_TO_DECEL=250
SET_VELOCITY_LIMIT SQUARE_CORNER_VELOCITY=9
EXCLUDE_OBJECT_START NAME=крепеж_под_серву.stp_id_0_copy_0
G1 Z.2 F42000
G1 X86.158 Y85.736
G1 Z.2
G1 E.6 F2400
;TYPE:Brim
;WIDTH:0.5
G1 F3600
G1 X86.687 Y85.264 E.02561
G1 X87.275 Y84.868 E.02561
G1 X87.912 Y84.554 E.02564
G1 X88.509 Y84.349 E.02278
G1 X89.204 Y84.199 E.02566
G1 X89.972 Y84.144 E.02781
G1 X98.715 Y84.144 E.31567
G1 X98.856 Y84.095 E.00538
G1 X98.944 Y83.915 E.00722
G1 X98.944 Y81.503 E.08708
G1 X98.954 Y81.144 E.01299
G1 X99.01 Y80.557 E.02128
G1 X99.118 Y79.969 E.0216
G1 X99.277 Y79.392 E.0216
G1 X99.486 Y78.832 E.02159
G1 X99.742 Y78.292 E.02159
G1 X100.045 Y77.776 E.02159
G1 X100.391 Y77.288 E.02159
G1 X100.78 Y76.832 E.02164
G1 X101.105 Y76.505 E.01664
G1 X101.559 Y76.115 E.02163
G1 X102.044 Y75.765 E.0216
G1 X102.558 Y75.46 E.02155
G1 X103.223 Y75.148 E.02654
G1 X103.785 Y74.948 E.02155
G1 X104.365 Y74.797 E.02163
G1 X104.819 Y74.716 E.01664
G1 X105.417 Y74.656 E.02171
G1 X105.799 Y74.644 E.0138
G1 X128.728 Y74.644 E.82788
G1 X129.444 Y74.692 E.02589
G1 X130.138 Y74.835 E.02561
G1 X130.809 Y75.07 E.02565
G1 X131.363 Y75.346 E.02236
G1 X131.961 Y75.732 E.02571
G1 X132.5 Y76.194 E.02561
G1 X132.972 Y76.723 E.02561
G1 X133.368 Y77.311 E.02561
G1 X133.682 Y77.949 E.02564
G1 X133.887 Y78.545 E.02278
G1 X134.037 Y79.24 E.02566
G1 X134.092 Y80.008 E.02781
G1 X134.092 Y88.81 E.31779
G1 X134.158 Y88.97 E.00626
G1 X134.587 Y89.405 E.02204
G1 X134.968 Y89.866 E.02159
G1 X135.307 Y90.358 E.02159
G1 X135.603 Y90.878 E.02159
G1 X135.852 Y91.422 E.02158
G1 X136.056 Y91.999 E.02212
G1 X136.203 Y92.565 E.02112
G1 X136.284 Y93.019 E.01663
G1 X136.344 Y93.613 E.02158
G1 X136.345 Y126.374 E1.18286
G1 X136.29 Y126.944 E.02068
G1 X136.211 Y127.398 E.01662
G1 X136.06 Y127.99 E.02204
G1 X135.864 Y128.547 E.02133
G1 X135.62 Y129.088 E.02146
G1 X135.327 Y129.61 E.02159
G1 X134.99 Y130.104 E.02159
G1 X134.605 Y130.575 E.02198
G1 X134.158 Y131.029 E.02301
G1 X134.092 Y131.19 E.00625
G1 X134.092 Y139.992 E.31783
G1 X134.044 Y140.708 E.02589
G1 X133.901 Y141.402 E.02561
G1 X133.666 Y142.073 E.02565
G1 X133.39 Y142.627 E.02236
G1 X133.004 Y143.225 E.02571
G1 X132.542 Y143.764 E.02561
G1 X132.013 Y144.236 E.02561
G1 X131.425 Y144.632 E.02561
G1 X130.788 Y144.946 E.02564
G1 X130.191 Y145.151 E.02278
G1 X129.496 Y145.301 E.02566
G1 X128.728 Y145.356 E.02781
G1 X105.807 Y145.356 E.82758
G1 X104.989 Y145.307 E.02958
G1 X104.401 Y145.211 E.02153
G1 X103.821 Y145.063 E.02159
G1 X103.257 Y144.866 E.02159
G1 X102.712 Y144.62 E.02159
G1 X102.19 Y144.327 E.02159
G1 X101.697 Y143.991 E.02155
G1 X101.135 Y143.522 E.02642
G1 X100.72 Y143.103 E.0213
G1 X100.332 Y142.635 E.02195
G1 X99.993 Y142.142 E.02161
G1 X99.697 Y141.622 E.02159
G1 X99.448 Y141.077 E.02163
G1 X99.289 Y140.644 E.01664
G1 X99.127 Y140.068 E.02162
G1 X99.018 Y139.494 E.02111
G1 X98.956 Y138.884 E.02213
G1 X98.944 Y138.501 E.01383
G1 X98.944 Y136.085 E.08723
G1 X98.895 Y135.944 E.00538
G1 X98.715 Y135.856 E.00722
G1 X89.972 Y135.856 E.31569
G1 X89.256 Y135.808 E.02589
G1 X88.562 Y135.665 E.02561
G1 X87.891 Y135.43 E.02565
G1 X87.337 Y135.154 E.02236
G1 X86.739 Y134.768 E.02571
G1 X86.2 Y134.306 E.02561
G1 X85.728 Y133.777 E.02561
G1 X85.332 Y133.189 E.02561
G1 X85.018 Y132.551 E.02566
G1 X84.828 Y132.007 E.02081
G1 X84.663 Y131.259 E.02763
G1 X84.608 Y130.492 E.02779
G1 X84.608 Y89.508 E1.47977
G1 X84.656 Y88.792 E.02589
G1 X84.799 Y88.098 E.02561
G1 X85.034 Y87.427 E.02565
G1 X85.31 Y86.873 E.02236
G1 X85.696 Y86.275 E.02571
G1 X86.132 Y85.766 E.02416
G1 X86.479 Y86.064 F42000
G1 F3600
G1 X86.961 Y85.632 E.02337
G1 X87.513 Y85.26 E.02404
G1 X88.081 Y84.981 E.02282
G1 X88.64 Y84.789 E.02136
G1 X89.279 Y84.652 E.02358
G1 X89.994 Y84.601 E.02588
G1 X98.704 Y84.601 E.31448
G1 X98.992 Y84.532 E.0107
G1 X99.164 Y84.429 E.00726
G1 X99.273 Y84.283 E.00654
G1 X99.348 Y84.129 E.0062
G1 X99.401 Y83.899 E.00851
G1 X99.401 Y81.508 E.08635
G1 X99.411 Y81.168 E.01229
G1 X99.464 Y80.614 E.02007
G1 X99.563 Y80.077 E.01973
G1 X99.711 Y79.539 E.02015
G1 X99.905 Y79.015 E.02015
G1 X100.144 Y78.511 E.02015
G1 X100.433 Y78.019 E.02058
G1 X100.756 Y77.565 E.02015
G1 X101.12 Y77.138 E.02025
G1 X101.42 Y76.837 E.01536
G1 X101.837 Y76.478 E.01986
G1 X102.3 Y76.145 E.02058
G1 X102.778 Y75.862 E.02005
G1 X103.391 Y75.574 E.02445
G1 X103.926 Y75.384 E.02049
G1 X104.458 Y75.245 E.01986
G1 X104.877 Y75.17 E.01536
G1 X105.442 Y75.113 E.02053
G1 X105.809 Y75.101 E.01323
G1 X128.717 Y75.101 E.82715
G1 X129.391 Y75.148 E.02438
G1 X130.025 Y75.279 E.02337
G1 X130.638 Y75.496 E.02347
G1 X131.143 Y75.748 E.02038
G1 X131.68 Y76.095 E.02308
G1 X132.172 Y76.515 E.02337
G1 X132.615 Y77.012 E.02404
G1 X132.976 Y77.55 E.02337
G1 X133.262 Y78.133 E.02345
G1 X133.447 Y78.676 E.02073
G1 X133.581 Y79.296 E.02289
G1 X133.635 Y80.03 E.02658
G1 X133.635 Y88.797 E.31653
G1 X133.675 Y88.996 E.00733
G1 X133.73 Y89.132 E.0053
G1 X133.842 Y89.301 E.00733
G1 X134.243 Y89.707 E.02061
G1 X134.599 Y90.137 E.02015
G1 X134.923 Y90.606 E.02058
G1 X135.198 Y91.092 E.02015
G1 X135.43 Y91.599 E.02014
G1 X135.62 Y92.139 E.02067
G1 X135.755 Y92.658 E.01936
G1 X135.83 Y93.077 E.01536
G1 X135.886 Y93.629 E.02006
G1 X135.887 Y126.359 E1.18173
G1 X135.837 Y126.878 E.01884
G1 X135.765 Y127.297 E.01535
G1 X135.623 Y127.851 E.02065
G1 X135.441 Y128.371 E.01989
G1 X135.214 Y128.877 E.02002
G1 X134.935 Y129.374 E.02058
G1 X134.62 Y129.835 E.02014
G1 X134.26 Y130.274 E.02051
G1 X133.841 Y130.7 E.02155
G1 X133.73 Y130.869 E.00732
G1 X133.674 Y131.004 E.00528
G1 X133.635 Y131.203 E.00732
G1 X133.635 Y139.981 E.31695
G1 X133.588 Y140.655 E.02438
G1 X133.457 Y141.289 E.02337
G1 X133.247 Y141.886 E.02286
G1 X132.988 Y142.407 E.02099
G1 X132.63 Y142.959 E.02374
G1 X132.208 Y143.45 E.02337
G1 X131.724 Y143.879 E.02337
G1 X131.187 Y144.24 E.02337
G1 X130.619 Y144.519 E.02282
G1 X130.06 Y144.711 E.02136
G1 X129.421 Y144.848 E.02358
G1 X128.706 Y144.899 E.02588
G1 X105.825 Y144.899 E.82615
G1 X105.047 Y144.852 E.02814
G1 X104.5 Y144.764 E.02001
G1 X103.959 Y144.627 E.02015
G1 X103.432 Y144.443 E.02015
G1 X102.923 Y144.214 E.02015
G1 X102.426 Y143.935 E.02058
G1 X101.967 Y143.622 E.02006
G1 X101.45 Y143.19 E.02434
G1 X101.056 Y142.791 E.02023
G1 X100.694 Y142.354 E.02051
G1 X100.377 Y141.894 E.02016
G1 X100.102 Y141.408 E.02015
G1 X99.873 Y140.908 E.01986
G1 X99.723 Y140.498 E.01574
G1 X99.574 Y139.969 E.01986
G1 X99.471 Y139.434 E.01968
G1 X99.413 Y138.858 E.02088
G1 X99.401 Y138.496 E.01309
G1 X99.401 Y136.096 E.08663
G1 X99.332 Y135.808 E.0107
G1 X99.229 Y135.636 E.00726
G1 X99.084 Y135.527 E.00654
G1 X98.929 Y135.452 E.0062
G1 X98.7 Y135.399 E.00851
G1 X89.992 Y135.399 E.3144
G1 X89.327 Y135.355 E.02405
G1 X88.693 Y135.226 E.02337
G1 X88.078 Y135.011 E.02352
G1 X87.557 Y134.752 E.02099
G1 X87.02 Y134.405 E.02308
G1 X86.528 Y133.985 E.02337
G1 X86.096 Y133.503 E.02337
G1 X85.733 Y132.966 E.02337
G1 X85.444 Y132.382 E.02356
G1 X85.271 Y131.889 E.01883
G1 X85.116 Y131.183 E.02611
G1 X85.065 Y130.47 E.02581
G1 X85.065 Y89.528 E1.47827
G1 X85.112 Y88.845 E.02471
G1 X85.243 Y88.211 E.02337
G1 X85.453 Y87.614 E.02286
G1 X85.712 Y87.093 E.02099
G1 X86.07 Y86.541 E.02374
G1 X86.453 Y86.094 E.02126
G1 X86.8 Y86.393 F42000
G1 F3600
G1 X86.813 Y86.378 E.00071
G1 X87.236 Y86 E.02047
G1 X87.751 Y85.652 E.02246
G1 X88.249 Y85.408 E.02001
G1 X88.771 Y85.228 E.01993
G1 X89.353 Y85.105 E.02148
G1 X90.015 Y85.058 E.02398
G1 X98.69 Y85.058 E.31322
G1 X99.091 Y84.978 E.01475
G1 X99.235 Y84.919 E.00562
G1 X99.387 Y84.828 E.0064
G1 X99.537 Y84.693 E.00731
G1 X99.686 Y84.477 E.00946
G1 X99.796 Y84.22 E.01009
G1 X99.844 Y84.01 E.00779
G1 X99.858 Y83.892 E.00429
G1 X99.858 Y81.513 E.08589
G1 X99.868 Y81.192 E.01159
G1 X99.917 Y80.684 E.01845
G1 X100.008 Y80.185 E.01831
G1 X100.145 Y79.685 E.01872
G1 X100.325 Y79.199 E.0187
G1 X100.546 Y78.73 E.0187
G1 X100.814 Y78.273 E.01912
G1 X101.121 Y77.842 E.01913
G1 X101.46 Y77.444 E.01887
G1 X101.736 Y77.168 E.01408
G1 X102.116 Y76.841 E.0181
G1 X102.546 Y76.532 E.01913
G1 X102.998 Y76.264 E.01899
G1 X103.559 Y76 E.02238
G1 X104.066 Y75.819 E.01942
G1 X104.551 Y75.693 E.01811
G1 X104.935 Y75.624 E.01408
G1 X105.468 Y75.569 E.01935
G1 X105.818 Y75.558 E.01264
G1 X128.697 Y75.558 E.82606
G1 X129.319 Y75.601 E.02253
G1 X129.911 Y75.724 E.02181
G1 X130.467 Y75.921 E.0213
G1 X130.922 Y76.15 E.0184
G1 X131.399 Y76.457 E.02048
G1 X131.845 Y76.836 E.02113
G1 X132.247 Y77.286 E.02177
G1 X132.583 Y77.787 E.0218
G1 X132.842 Y78.316 E.02127
G1 X133.008 Y78.806 E.01869
G1 X133.126 Y79.352 E.02015
G1 X133.178 Y80.052 E.02534
G1 X133.19 Y88.896 E.31932
G1 X133.255 Y89.177 E.01042
G1 X133.354 Y89.39 E.00849
G1 X133.525 Y89.63 E.01063
G1 X133.9 Y90.01 E.01929
G1 X134.238 Y90.418 E.01914
G1 X134.538 Y90.855 E.01912
G1 X134.793 Y91.305 E.0187
G1 X135.007 Y91.776 E.01869
G1 X135.184 Y92.279 E.01922
G1 X135.307 Y92.751 E.01763
G1 X135.376 Y93.135 E.01409
G1 X135.428 Y93.646 E.01853
G1 X135.429 Y126.343 E1.18059
G1 X135.384 Y126.812 E.017
G1 X135.318 Y127.196 E.01407
G1 X135.187 Y127.713 E.01926
G1 X135.018 Y128.196 E.01846
G1 X134.808 Y128.665 E.01857
G1 X134.549 Y129.128 E.01913
G1 X134.258 Y129.555 E.01868
G1 X133.915 Y129.972 E.01948
G1 X133.523 Y130.371 E.0202
G1 X133.353 Y130.611 E.01061
G1 X133.255 Y130.824 E.00847
G1 X133.189 Y131.104 E.01039
G1 X133.178 Y139.961 E.31978
G1 X133.133 Y140.602 E.02319
G1 X133.017 Y141.157 E.02049
G1 X132.828 Y141.7 E.02074
G1 X132.586 Y142.186 E.01962
G1 X132.257 Y142.691 E.02175
G1 X131.875 Y143.134 E.02114
G1 X131.451 Y143.511 E.02047
G1 X130.965 Y143.838 E.02116
G1 X130.451 Y144.092 E.02069
G1 X129.929 Y144.272 E.01993
G1 X129.347 Y144.395 E.02148
G1 X128.685 Y144.442 E.02398
G1 X105.843 Y144.442 E.82473
G1 X105.104 Y144.398 E.02672
G1 X104.599 Y144.317 E.01849
G1 X104.096 Y144.19 E.0187
G1 X103.607 Y144.02 E.01871
G1 X103.124 Y143.802 E.01913
G1 X102.662 Y143.543 E.01912
G1 X102.238 Y143.252 E.01855
G1 X101.764 Y142.857 E.02228
G1 X101.399 Y142.489 E.01873
G1 X101.063 Y142.082 E.01905
G1 X100.768 Y141.656 E.01871
G1 X100.507 Y141.194 E.01915
G1 X100.298 Y140.739 E.0181
G1 X100.157 Y140.352 E.01485
G1 X100.018 Y139.858 E.01854
G1 X99.924 Y139.361 E.01826
G1 X99.869 Y138.832 E.0192
G1 X99.858 Y138.491 E.01234
G1 X99.858 Y136.104 E.08616
G1 X99.843 Y135.982 E.00445
G1 X99.779 Y135.712 E.01003
G1 X99.719 Y135.565 E.00572
G1 X99.628 Y135.413 E.0064
G1 X99.491 Y135.261 E.0074
G1 X99.365 Y135.167 E.00568
G1 X99.027 Y135.006 E.01351
G1 X98.687 Y134.942 E.0125
G1 X90.012 Y134.942 E.31322
G1 X89.398 Y134.901 E.02222
G1 X88.823 Y134.786 E.02115
G1 X88.264 Y134.592 E.02138
G1 X87.777 Y134.35 E.01962
G1 X87.287 Y134.032 E.02112
G1 X86.855 Y133.663 E.02049
G1 X86.464 Y133.228 E.02114
G1 X86.134 Y132.744 E.02114
G1 X85.87 Y132.212 E.02146
G1 X85.715 Y131.772 E.01683
G1 X85.572 Y131.127 E.02385
G1 X85.522 Y130.449 E.02456
G1 X85.522 Y89.548 E1.47675
G1 X85.567 Y88.898 E.02353
G1 X85.683 Y88.343 E.02049
G1 X85.872 Y87.8 E.02074
G1 X86.114 Y87.314 E.01962
G1 X86.443 Y86.809 E.02176
G1 X86.774 Y86.423 E.01835
G1 X87.121 Y86.721 F42000
G1 F3600
G1 X87.134 Y86.705 E.00074
G1 X87.51 Y86.368 E.01824
G1 X87.974 Y86.054 E.02021
G1 X88.417 Y85.834 E.01786
G1 X88.901 Y85.668 E.01848
G1 X89.407 Y85.561 E.0187
G1 X90.036 Y85.515 E.02277
G1 X98.677 Y85.515 E.31196
G1 X99.273 Y85.396 E.02196
G1 X99.612 Y85.226 E.01368
G1 X99.835 Y85.039 E.01053
G1 X100.057 Y84.744 E.01331
G1 X100.213 Y84.407 E.01342
G1 X100.288 Y84.118 E.01078
G1 X100.315 Y83.884 E.0085
G1 X100.315 Y81.522 E.08528
G1 X100.371 Y80.741 E.02827
G1 X100.456 Y80.28 E.01691
G1 X100.583 Y79.819 E.01729
G1 X100.744 Y79.382 E.01683
G1 X100.948 Y78.95 E.01725
G1 X101.195 Y78.527 E.01766
G1 X101.485 Y78.119 E.01811
G1 X101.8 Y77.751 E.01747
G1 X102.051 Y77.5 E.01281
G1 X102.395 Y77.204 E.01637
G1 X102.791 Y76.918 E.01767
G1 X103.218 Y76.665 E.01791
G1 X103.728 Y76.426 E.02032
G1 X104.206 Y76.255 E.01835
G1 X104.645 Y76.141 E.01635
G1 X104.994 Y76.077 E.01281
G1 X105.494 Y76.026 E.01816
G1 X105.828 Y76.015 E.01206
G1 X128.676 Y76.015 E.82497
G1 X129.248 Y76.054 E.02067
G1 X129.796 Y76.168 E.02022
G1 X130.294 Y76.346 E.01911
G1 X130.701 Y76.551 E.01644
G1 X131.118 Y76.82 E.01792
G1 X131.531 Y77.171 E.01957
G1 X131.89 Y77.575 E.01949
G1 X132.19 Y78.024 E.01951
G1 X132.421 Y78.499 E.01906
G1 X132.568 Y78.936 E.01666
G1 X132.67 Y79.408 E.01744
G1 X132.721 Y80.074 E.02411
G1 X132.732 Y88.888 E.31825
G1 X132.746 Y89.005 E.00425
G1 X132.845 Y89.377 E.01387
G1 X132.987 Y89.663 E.01154
G1 X133.206 Y89.958 E.01325
G1 X133.564 Y90.322 E.01844
G1 X133.876 Y90.699 E.01769
G1 X134.153 Y91.102 E.01765
G1 X134.388 Y91.518 E.01725
G1 X134.585 Y91.953 E.01724
G1 X134.748 Y92.418 E.01778
G1 X134.859 Y92.844 E.01591
G1 X134.923 Y93.194 E.01282
G1 X134.971 Y93.662 E.01699
G1 X134.971 Y126.328 E1.17945
G1 X134.931 Y126.746 E.01518
G1 X134.872 Y127.096 E.0128
G1 X134.75 Y127.576 E.01787
G1 X134.595 Y128.021 E.01703
G1 X134.401 Y128.454 E.01713
G1 X134.163 Y128.882 E.01767
G1 X133.888 Y129.286 E.01766
G1 X133.571 Y129.671 E.01801
G1 X133.204 Y130.044 E.0189
G1 X132.986 Y130.338 E.01322
G1 X132.844 Y130.624 E.01152
G1 X132.746 Y130.995 E.01384
G1 X132.732 Y131.111 E.00424
G1 X132.721 Y139.94 E.31875
G1 X132.677 Y140.548 E.02201
G1 X132.573 Y141.044 E.0183
G1 X132.409 Y141.514 E.01798
G1 X132.184 Y141.966 E.01822
G1 X131.885 Y142.423 E.01973
G1 X131.542 Y142.819 E.01892
G1 X131.163 Y143.154 E.01827
G1 X130.726 Y143.446 E.01896
G1 X130.267 Y143.673 E.01851
G1 X129.799 Y143.832 E.01783
G1 X129.274 Y143.942 E.01937
G1 X128.664 Y143.985 E.0221
G1 X105.861 Y143.985 E.82332
G1 X105.161 Y143.943 E.0253
G1 X104.697 Y143.869 E.01697
G1 X104.233 Y143.753 E.01726
G1 X103.782 Y143.597 E.01726
G1 X103.336 Y143.396 E.01766
G1 X102.899 Y143.151 E.01809
G1 X102.509 Y142.883 E.01705
G1 X102.079 Y142.524 E.02024
G1 X101.734 Y142.177 E.01767
G1 X101.424 Y141.801 E.01759
G1 X101.153 Y141.408 E.01726
G1 X100.912 Y140.981 E.0177
G1 X100.723 Y140.569 E.01635
G1 X100.59 Y140.207 E.01395
G1 X100.462 Y139.748 E.0172
G1 X100.376 Y139.289 E.01684
G1 X100.326 Y138.806 E.01755
G1 X100.315 Y138.485 E.01159
G1 X100.315 Y136.112 E.08567
G1 X100.286 Y135.869 E.00885
G1 X100.199 Y135.533 E.01253
G1 X100.026 Y135.188 E.01391
G1 X99.836 Y134.961 E.01072
G1 X99.645 Y134.806 E.00887
G1 X99.23 Y134.597 E.01678
G1 X99.104 Y134.556 E.00479
G1 X98.676 Y134.485 E.01568
G1 X90.031 Y134.485 E.3121
G1 X89.467 Y134.448 E.02042
G1 X88.953 Y134.346 E.01893
G1 X88.45 Y134.173 E.01922
G1 X88.011 Y133.956 E.01766
G1 X87.568 Y133.669 E.01905
G1 X87.181 Y133.341 E.0183
G1 X86.83 Y132.952 E.01892
G1 X86.535 Y132.52 E.0189
G1 X86.295 Y132.041 E.01936
G1 X86.158 Y131.654 E.01481
G1 X86.024 Y131.051 E.02231
G1 X85.979 Y130.427 E.02258
