; HEADER_BLOCK_START
; generated by OrcaSlicer 2.1.0 on 2025-02-20 at 17:08:04
; total layer number: 75
; filament_density: 1.27
; filament_diameter: 1.75
; max_z_height: 15.00
; HEADER_BLOCK_END

; THUMBNAIL_BLOCK_START

;
; THUMBNAIL_BLOCK_END

; THUMBNAIL_BLOCK_START

;
; THUMBNAIL_BLOCK_END

; external perimeters extrusion width = 0.42mm
; perimeters extrusion width = 0.45mm
; infill extrusion width = 0.45mm
; solid infill extrusion width = 0.42mm
; top infill extrusion width = 0.42mm
; support material extrusion width = 0.42mm
; first layer extrusion width = 0.50mm

; external perimeters extrusion width = 0.42mm
; perimeters extrusion width = 0.45mm
; infill extrusion width = 0.45mm
; solid infill extrusion width = 0.42mm
; top infill extrusion width = 0.42mm
; support material extrusion width = 0.42mm
; first layer extrusion width = 0.50mm

; EXECUTABLE_BLOCK_START
EXCLUDE_OBJECT_DEFINE NAME=встав_для_крюка.stp_id_0_copy_0 CENTER=79.2091,122.616 POLYGON=[[49.2091,110.116],[104.959,110.116],[109.209,114.366],[109.209,130.866],[104.959,135.116],[49.2091,135.116],[49.2091,110.116]]
EXCLUDE_OBJECT_DEFINE NAME=крюк_старый.stp_id_1_copy_0 CENTER=144.053,135.786 POLYGON=[[135.962,119.802],[138.762,108.502],[149.345,108.502],[152.145,119.802],[152.145,132.539],[149.304,149.219],[149.267,149.395],[149.219,149.569],[149.161,149.74],[149.093,149.906],[143.462,163.07],[138.462,163.07],[135.962,132.539],[135.962,119.802]]
M73 P0 R30
M106 S0
M106 P2 S0
;TYPE:Custom
M140 S0
M104 S0 
START_PRINT EXTRUDER_TEMP=250 BED_TEMP=90
M106 P3 S153
G90
G21
M83 ; use relative distances for extrusion
; filament start gcode
M106 S0
M106 P2 S0
;LAYER_CHANGE
;Z:0.2
;HEIGHT:0.2
;BEFORE_LAYER_CHANGE
;0.2
G92 E0

G1 E-.6 F2400
;_SET_FAN_SPEED_CHANGING_LAYER
SET_VELOCITY_LIMIT ACCEL=500 ACCEL_TO_DECEL=250
SET_VELOCITY_LIMIT SQUARE_CORNER_VELOCITY=9
EXCLUDE_OBJECT_START NAME=встав_для_крюка.stp_id_0_copy_0
G1 Z.2 F42000
G1 X57.449 Y114.979
G1 Z.2
G1 E.6 F2400
;TYPE:Inner wall
;WIDTH:0.499999
G1 F3600
G1 X57.438 Y115.116 E.00496
G1 X57.438 Y130.311 E.54863
G1 X57.545 Y130.699 E.01453
G1 X57.714 Y131.022 E.01319
G1 X57.99 Y131.333 E.01499
G1 X58.376 Y131.581 E.01658
G1 X58.847 Y131.712 E.01766
G1 X59.345 Y131.694 E.01799
G1 X79.819 Y127.687 E.75325
G1 X107.438 Y127.687 E.99722
G1 X107.438 Y130.132 E.08828
G1 X104.225 Y133.344 E.16403
G1 X50.98 Y133.344 E1.92247
G1 X50.98 Y111.887 E.77474
G1 X104.225 Y111.887 E1.92247
G1 X107.438 Y115.099 E.16403
G1 X107.438 Y117.544 E.08828
G1 X79.819 Y117.544 E.99722
G1 X59.345 Y113.537 E.75325
G1 X58.847 Y113.519 E.01799
G1 X58.376 Y113.651 E.01766
G1 X57.99 Y113.899 E.01658
G1 X57.714 Y114.209 E.01499
G1 X57.545 Y114.533 E.01319
G1 X57.461 Y114.837 E.01141
G1 X57.452 Y114.939 E.00368
G1 X57.922 Y114.963 F42000
G1 F3600
G1 X57.895 Y115.107 E.0053
G1 X57.895 Y130.116 E.54189
G1 X57.971 Y130.535 E.01537
G1 X58.092 Y130.766 E.00942
G1 X58.289 Y130.987 E.0107
G1 X58.565 Y131.164 E.01184
G1 X58.84 Y131.25 E.0104
G1 X59.257 Y131.245 E.01505
G1 X79.774 Y127.23 E.75485
G1 X107.895 Y127.23 E1.01532
G1 X107.895 Y130.321 E.11162
G1 X104.415 Y133.802 E.1777
G1 X50.523 Y133.802 E1.9458
G1 X50.523 Y111.43 E.80775
G1 X104.415 Y111.43 E1.9458
G1 X107.895 Y114.91 E.1777
G1 X107.895 Y118.002 E.11162
G1 X79.774 Y118.002 E1.01532
G1 X59.257 Y113.986 E.75485
G1 X58.902 Y113.973 E.01285
G1 X58.565 Y114.067 E.01262
G1 X58.289 Y114.244 E.01184
G1 X58.092 Y114.466 E.0107
G1 X57.971 Y114.697 E.00942
G1 X57.929 Y114.924 E.00833
G1 X58.365 Y115.039 F42000
G1 F3600
G1 X58.352 Y115.107 E.0025
G1 X58.352 Y130.116 E.54189
G1 X58.398 Y130.37 E.00934
G1 X58.588 Y130.642 E.01198
G1 X58.919 Y130.799 E.01322
G1 X59.169 Y130.797 E.00903
G1 X79.73 Y126.773 E.75645
G1 X108.352 Y126.773 E1.03342
G1 X108.352 Y130.511 E.13496
G1 X104.604 Y134.259 E.19138
G1 X50.066 Y134.259 E1.96914
G1 X50.066 Y110.973 E.84076
G1 X104.604 Y110.973 E1.96914
G1 X108.352 Y114.721 E.19138
G1 X108.352 Y118.459 E.13496
G1 X79.73 Y118.459 E1.03342
G1 X59.169 Y114.435 E.75645
G1 X58.919 Y114.432 E.00903
G1 X58.588 Y114.589 E.01322
G1 X58.398 Y114.861 E.01198
G1 X58.372 Y115 E.0051
G1 X58.809 Y115.116 F42000
;TYPE:Outer wall
G1 F3600
G1 X58.809 Y130.19 E.54427
G1 X58.943 Y130.332 E.00705
G1 X59.082 Y130.348 E.00503
G1 X79.686 Y126.316 E.75805
G1 X108.809 Y126.316 E1.05153
G1 X108.809 Y130.7 E.1583
G1 X104.793 Y134.716 E.20505
G1 X49.609 Y134.716 E1.99248
M73 P1 R30
G1 X49.609 Y110.516 E.87376
G1 X104.793 Y110.516 E1.99248
G1 X108.809 Y114.531 E.20505
G1 X108.809 Y118.916 E.1583
G1 X79.686 Y118.916 E1.05153
G1 X59.017 Y114.87 E.76044
G1 X58.849 Y114.979 E.00722
G1 X58.82 Y115.077 E.00369
;WIPE_START
G1 X58.819 Y117.077 E-.6
;WIPE_END
G1 Z.4 F42000
G1 X58.568 Y133.207 Z.4
G1 Z.2
G1 E.6 F2400
;TYPE:Bottom surface
;WIDTH:0.503857
G1 F6300
G1 X51.323 Y125.962 E.37306
G1 X51.323 Y126.614 E.02373
G1 X57.711 Y133.002 E.32891
G1 X57.059 Y133.002 E.02373
G1 X51.323 Y127.266 E.29534
G1 X51.323 Y127.918 E.02373
G1 X56.407 Y133.002 E.26177
G1 X55.755 Y133.002 E.02373
G1 X51.323 Y128.57 E.22821
G1 X51.323 Y129.222 E.02373
G1 X55.103 Y133.002 E.19464
G1 X54.451 Y133.002 E.02373
G1 X51.323 Y129.874 E.16108
G1 X51.323 Y130.525 E.02373
G1 X53.799 Y133.002 E.12751
G1 X53.148 Y133.002 E.02373
G1 X51.323 Y131.177 E.09394
G1 X51.323 Y131.829 E.02373
G1 X52.496 Y133.002 E.06038
G1 X51.844 Y133.002 E.02373
G1 X51.117 Y132.275 E.0374
;WIPE_START
G1 X51.844 Y133.002 E-.30818
G1 X52.496 Y133.002 E-.19556
G1 X52.269 Y132.775 E-.09626
;WIPE_END
G1 Z.4 F42000
G1 X106.638 Y127.824 Z.4
G1 Z.2
G1 E.6 F2400
G1 F6300
G1 X107.095 Y128.281 E.02355
G1 X107.095 Y128.933 E.02373
G1 X106.192 Y128.03 E.04653
G1 X105.54 Y128.03 E.02373
G1 X107.095 Y129.585 E.08009
G1 X107.095 Y129.99 E.01474
G1 X106.972 Y130.114 E.00636
G1 X104.888 Y128.03 E.1073
G1 X104.236 Y128.03 E.02373
G1 X106.646 Y130.439 E.12408
G1 X106.32 Y130.765 E.01678
G1 X103.584 Y128.03 E.14087
G1 X102.932 Y128.03 E.02373
G1 X105.994 Y131.091 E.15765
G1 X105.668 Y131.417 E.01678
G1 X102.28 Y128.03 E.17443
G1 X101.628 Y128.03 E.02373
G1 X105.342 Y131.743 E.19121
G1 X105.016 Y132.069 E.01678
G1 X100.977 Y128.03 E.208
G1 X100.325 Y128.03 E.02373
G1 X104.69 Y132.395 E.22478
G1 X104.364 Y132.721 E.01678
G1 X99.673 Y128.03 E.24156
G1 X99.021 Y128.03 E.02373
G1 X103.993 Y133.002 E.25602
G1 X103.341 Y133.002 E.02373
G1 X98.369 Y128.03 E.25602
G1 X97.717 Y128.03 E.02373
G1 X102.689 Y133.002 E.25602
G1 X102.037 Y133.002 E.02373
G1 X97.065 Y128.03 E.25602
G1 X96.414 Y128.03 E.02373
G1 X101.385 Y133.002 E.25602
G1 X100.734 Y133.002 E.02373
G1 X95.762 Y128.03 E.25602
G1 X95.11 Y128.03 E.02373
G1 X100.082 Y133.002 E.25602
G1 X99.43 Y133.002 E.02373
G1 X94.458 Y128.03 E.25602
G1 X93.806 Y128.03 E.02373
G1 X98.778 Y133.002 E.25602
G1 X98.126 Y133.002 E.02373
G1 X93.154 Y128.03 E.25602
G1 X92.502 Y128.03 E.02373
G1 X97.474 Y133.002 E.25602
G1 X96.822 Y133.002 E.02373
G1 X91.851 Y128.03 E.25602
G1 X91.199 Y128.03 E.02373
G1 X96.171 Y133.002 E.25602
G1 X95.519 Y133.002 E.02373
G1 X90.547 Y128.03 E.25602
G1 X89.895 Y128.03 E.02373
G1 X94.867 Y133.002 E.25602
G1 X94.215 Y133.002 E.02373
G1 X89.243 Y128.03 E.25602
G1 X88.591 Y128.03 E.02373
G1 X93.563 Y133.002 E.25602
G1 X92.911 Y133.002 E.02373
G1 X87.939 Y128.03 E.25602
G1 X87.287 Y128.03 E.02373
G1 X92.259 Y133.002 E.25602
G1 X91.608 Y133.002 E.02373
G1 X86.636 Y128.03 E.25602
G1 X85.984 Y128.03 E.02373
G1 X90.956 Y133.002 E.25602
G1 X90.304 Y133.002 E.02373
G1 X85.332 Y128.03 E.25602
G1 X84.68 Y128.03 E.02373
G1 X89.652 Y133.002 E.25602
G1 X89 Y133.002 E.02373
G1 X84.028 Y128.03 E.25602
G1 X83.376 Y128.03 E.02373
G1 X88.348 Y133.002 E.25602
G1 X87.696 Y133.002 E.02373
G1 X82.724 Y128.03 E.25602
G1 X82.073 Y128.03 E.02373
G1 X87.044 Y133.002 E.25602
G1 X86.393 Y133.002 E.02373
G1 X81.421 Y128.03 E.25602
G1 X80.769 Y128.03 E.02373
G1 X85.741 Y133.002 E.25602
G1 X85.089 Y133.002 E.02373
G1 X80.117 Y128.03 E.25602
G1 X79.852 Y128.03 E.00965
G1 X79.528 Y128.093 E.012
G1 X84.437 Y133.002 E.25276
G1 X83.785 Y133.002 E.02373
G1 X78.983 Y128.2 E.24726
G1 X78.438 Y128.306 E.02023
G1 X83.133 Y133.002 E.24177
G1 X82.481 Y133.002 E.02373
G1 X77.893 Y128.413 E.23628
G1 X77.348 Y128.52 E.02023
G1 X81.83 Y133.002 E.23078
G1 X81.178 Y133.002 E.02373
M73 P2 R30
G1 X76.803 Y128.627 E.22529
G1 X76.257 Y128.733 E.02023
G1 X80.526 Y133.002 E.21979
G1 X79.874 Y133.002 E.02373
G1 X75.712 Y128.84 E.2143
G1 X75.167 Y128.947 E.02023
G1 X79.222 Y133.002 E.20881
G1 X78.57 Y133.002 E.02373
G1 X74.622 Y129.053 E.20331
G1 X74.077 Y129.16 E.02023
G1 X77.918 Y133.002 E.19782
G1 X77.267 Y133.002 E.02373
G1 X73.532 Y129.267 E.19233
G1 X72.986 Y129.373 E.02023
G1 X76.615 Y133.002 E.18683
G1 X75.963 Y133.002 E.02373
G1 X72.441 Y129.48 E.18134
G1 X71.896 Y129.587 E.02023
G1 X75.311 Y133.002 E.17584
G1 X74.659 Y133.002 E.02373
G1 X71.351 Y129.693 E.17035
G1 X70.806 Y129.8 E.02023
G1 X74.007 Y133.002 E.16486
G1 X73.355 Y133.002 E.02373
G1 X70.26 Y129.907 E.15936
G1 X69.715 Y130.013 E.02023
G1 X72.703 Y133.002 E.15387
G1 X72.052 Y133.002 E.02373
G1 X69.17 Y130.12 E.14838
G1 X68.625 Y130.227 E.02023
G1 X71.4 Y133.002 E.14288
G1 X70.748 Y133.002 E.02373
G1 X68.08 Y130.334 E.13739
G1 X67.535 Y130.44 E.02023
G1 X70.096 Y133.002 E.13189
G1 X69.444 Y133.002 E.02373
G1 X66.989 Y130.547 E.1264
G1 X66.444 Y130.654 E.02023
G1 X68.792 Y133.002 E.12091
G1 X68.14 Y133.002 E.02373
G1 X65.899 Y130.76 E.11541
G1 X65.354 Y130.867 E.02023
G1 X67.489 Y133.002 E.10992
G1 X66.837 Y133.002 E.02373
G1 X64.809 Y130.974 E.10443
G1 X64.264 Y131.08 E.02023
G1 X66.185 Y133.002 E.09893
G1 X65.533 Y133.002 E.02373
M73 P2 R29
G1 X63.718 Y131.187 E.09344
G1 X63.173 Y131.294 E.02023
G1 X64.881 Y133.002 E.08795
G1 X64.229 Y133.002 E.02373
G1 X62.628 Y131.4 E.08245
G1 X62.083 Y131.507 E.02023
G1 X63.577 Y133.002 E.07696
G1 X62.926 Y133.002 E.02373
G1 X61.538 Y131.614 E.07146
G1 X60.993 Y131.721 E.02023
G1 X62.274 Y133.002 E.06597
G1 X61.622 Y133.002 E.02373
G1 X60.447 Y131.827 E.06048
G1 X59.902 Y131.934 E.02023
G1 X60.97 Y133.002 E.05498
G1 X60.318 Y133.002 E.02373
G1 X59.356 Y132.039 E.04955
G1 X59.039 Y132.067 E.01157
G1 X58.702 Y132.037 E.01233
G1 X59.666 Y133.002 E.04965
G1 X59.014 Y133.002 E.02373
G1 X51.323 Y125.31 E.39604
G1 X51.323 Y124.659 E.02373
G1 X57.125 Y130.46 E.29873
G1 X57.095 Y130.129 E.01211
G1 X57.095 Y129.779 E.01275
G1 X51.323 Y124.007 E.29721
G1 X51.323 Y123.355 E.02373
G1 X57.095 Y129.127 E.29721
G1 X57.095 Y128.475 E.02373
G1 X51.323 Y122.703 E.29721
G1 X51.323 Y122.051 E.02373
G1 X57.095 Y127.823 E.29721
G1 X57.095 Y127.171 E.02373
G1 X51.323 Y121.399 E.29721
G1 X51.323 Y120.747 E.02373
G1 X57.095 Y126.519 E.29721
G1 X57.095 Y125.867 E.02373
G1 X51.323 Y120.096 E.29721
G1 X51.323 Y119.444 E.02373
G1 X57.095 Y125.216 E.29721
G1 X57.095 Y124.564 E.02373
G1 X51.323 Y118.792 E.29721
G1 X51.323 Y118.14 E.02373
G1 X57.095 Y123.912 E.29721
G1 X57.095 Y123.26 E.02373
G1 X51.323 Y117.488 E.29721
G1 X51.323 Y116.836 E.02373
G1 X57.095 Y122.608 E.29721
G1 X57.095 Y121.956 E.02373
G1 X51.323 Y116.184 E.29721
G1 X51.323 Y115.533 E.02373
G1 X57.095 Y121.304 E.29721
G1 X57.095 Y120.653 E.02373
G1 X51.323 Y114.881 E.29721
G1 X51.323 Y114.229 E.02373
G1 X57.095 Y120.001 E.29721
G1 X57.095 Y119.349 E.02373
G1 X51.323 Y113.577 E.29721
G1 X51.323 Y112.925 E.02373
G1 X57.095 Y118.697 E.29721
G1 X57.095 Y118.045 E.02373
G1 X51.323 Y112.273 E.29721
G1 X51.323 Y112.23 E.00158
G1 X51.932 Y112.23 E.02215
G1 X57.095 Y117.393 E.26588
G1 X57.095 Y116.741 E.02373
G1 X52.583 Y112.23 E.23232
G1 X53.235 Y112.23 E.02373
G1 X57.095 Y116.09 E.19875
G1 X57.095 Y115.438 E.02373
G1 X53.887 Y112.23 E.16518
G1 X54.539 Y112.23 E.02373
G1 X57.12 Y114.811 E.13289
G1 X57.224 Y114.409 E.01513
G1 X57.274 Y114.313 E.00392
G1 X55.191 Y112.23 E.10728
G1 X55.843 Y112.23 E.02373
G1 X57.523 Y113.91 E.08654
G1 X57.765 Y113.638 E.01324
G1 X57.849 Y113.584 E.00365
G1 X56.495 Y112.23 E.06975
G1 X57.146 Y112.23 E.02373
G1 X58.25 Y113.333 E.05681
G1 X58.757 Y113.189 E.01922
G1 X57.798 Y112.23 E.04938
G1 X58.45 Y112.23 E.02373
G1 X59.424 Y113.204 E.05015
G1 X60.235 Y113.362 E.03007
G1 X59.102 Y112.23 E.05832
G1 X59.754 Y112.23 E.02373
G1 X61.045 Y113.521 E.06648
G1 X61.856 Y113.68 E.03007
G1 X60.406 Y112.23 E.07465
G1 X61.058 Y112.23 E.02373
G1 X62.666 Y113.838 E.08282
G1 X63.477 Y113.997 E.03007
G1 X61.71 Y112.23 E.09099
G1 X62.361 Y112.23 E.02373
G1 X64.287 Y114.155 E.09915
G1 X65.098 Y114.314 E.03007
G1 X63.013 Y112.23 E.10732
G1 X63.665 Y112.23 E.02373
G1 X65.908 Y114.473 E.11549
G1 X66.718 Y114.631 E.03007
G1 X64.317 Y112.23 E.12366
G1 X64.969 Y112.23 E.02373
G1 X67.529 Y114.79 E.13183
G1 X68.339 Y114.949 E.03007
G1 X65.621 Y112.23 E.13999
G1 X66.273 Y112.23 E.02373
G1 X69.15 Y115.107 E.14816
G1 X69.96 Y115.266 E.03007
G1 X66.924 Y112.23 E.15633
G1 X67.576 Y112.23 E.02373
G1 X70.771 Y115.424 E.1645
G1 X71.581 Y115.583 E.03007
G1 X68.228 Y112.23 E.17267
G1 X68.88 Y112.23 E.02373
G1 X72.392 Y115.742 E.18083
G1 X73.202 Y115.9 E.03007
G1 X69.532 Y112.23 E.189
G1 X70.184 Y112.23 E.02373
G1 X74.013 Y116.059 E.19717
G1 X74.823 Y116.218 E.03007
G1 X70.836 Y112.23 E.20534
G1 X71.487 Y112.23 E.02373
G1 X75.634 Y116.376 E.21351
G1 X76.444 Y116.535 E.03007
G1 X72.139 Y112.23 E.22167
G1 X72.791 Y112.23 E.02373
G1 X77.255 Y116.693 E.22984
G1 X78.065 Y116.852 E.03007
G1 X73.443 Y112.23 E.23801
G1 X74.095 Y112.23 E.02373
G1 X78.876 Y117.011 E.24618
M73 P3 R29
G1 X79.686 Y117.169 E.03007
G1 X74.747 Y112.23 E.25435
G1 X75.399 Y112.23 E.02373
G1 X80.371 Y117.202 E.25602
G1 X81.022 Y117.202 E.02373
G1 X76.051 Y112.23 E.25602
G1 X76.702 Y112.23 E.02373
G1 X81.674 Y117.202 E.25602
G1 X82.326 Y117.202 E.02373
G1 X77.354 Y112.23 E.25602
G1 X78.006 Y112.23 E.02373
G1 X82.978 Y117.202 E.25602
G1 X83.63 Y117.202 E.02373
G1 X78.658 Y112.23 E.25602
G1 X79.31 Y112.23 E.02373
G1 X84.282 Y117.202 E.25602
G1 X84.934 Y117.202 E.02373
G1 X79.962 Y112.23 E.25602
G1 X80.614 Y112.23 E.02373
G1 X85.585 Y117.202 E.25602
G1 X86.237 Y117.202 E.02373
G1 X81.265 Y112.23 E.25602
G1 X81.917 Y112.23 E.02373
G1 X86.889 Y117.202 E.25602
G1 X87.541 Y117.202 E.02373
G1 X82.569 Y112.23 E.25602
G1 X83.221 Y112.23 E.02373
G1 X88.193 Y117.202 E.25602
G1 X88.845 Y117.202 E.02373
G1 X83.873 Y112.23 E.25602
G1 X84.525 Y112.23 E.02373
G1 X89.497 Y117.202 E.25602
G1 X90.149 Y117.202 E.02373
G1 X85.177 Y112.23 E.25602
G1 X85.828 Y112.23 E.02373
G1 X90.8 Y117.202 E.25602
G1 X91.452 Y117.202 E.02373
G1 X86.48 Y112.23 E.25602
G1 X87.132 Y112.23 E.02373
G1 X92.104 Y117.202 E.25602
G1 X92.756 Y117.202 E.02373
G1 X87.784 Y112.23 E.25602
G1 X88.436 Y112.23 E.02373
G1 X93.408 Y117.202 E.25602
G1 X94.06 Y117.202 E.02373
G1 X89.088 Y112.23 E.25602
G1 X89.74 Y112.23 E.02373
G1 X94.712 Y117.202 E.25602
G1 X95.363 Y117.202 E.02373
G1 X90.392 Y112.23 E.25602
G1 X91.043 Y112.23 E.02373
G1 X96.015 Y117.202 E.25602
G1 X96.667 Y117.202 E.02373
G1 X91.695 Y112.23 E.25602
G1 X92.347 Y112.23 E.02373
G1 X97.319 Y117.202 E.25602
G1 X97.971 Y117.202 E.02373
G1 X92.999 Y112.23 E.25602
G1 X93.651 Y112.23 E.02373
G1 X98.623 Y117.202 E.25602
G1 X99.275 Y117.202 E.02373
G1 X94.303 Y112.23 E.25602
G1 X94.955 Y112.23 E.02373
G1 X99.926 Y117.202 E.25602
G1 X100.578 Y117.202 E.02373
G1 X95.606 Y112.23 E.25602
G1 X96.258 Y112.23 E.02373
G1 X101.23 Y117.202 E.25602
G1 X101.882 Y117.202 E.02373
G1 X96.91 Y112.23 E.25602
G1 X97.562 Y112.23 E.02373
G1 X102.534 Y117.202 E.25602
G1 X103.186 Y117.202 E.02373
G1 X98.214 Y112.23 E.25602
G1 X98.866 Y112.23 E.02373
G1 X103.838 Y117.202 E.25602
G1 X104.49 Y117.202 E.02373
G1 X99.518 Y112.23 E.25602
G1 X100.169 Y112.23 E.02373
G1 X105.141 Y117.202 E.25602
G1 X105.793 Y117.202 E.02373
G1 X100.821 Y112.23 E.25602
G1 X101.473 Y112.23 E.02373
G1 X106.445 Y117.202 E.25602
G1 X107.095 Y117.2 E.02367
G1 X102.125 Y112.23 E.25592
G1 X102.777 Y112.23 E.02373
G1 X107.095 Y116.548 E.22235
G1 X107.095 Y115.896 E.02373
G1 X103.429 Y112.23 E.18879
G1 X104.081 Y112.23 E.02373
G1 X107.301 Y115.45 E.16581
;WIPE_START
G1 X105.887 Y114.036 E-.6
;WIPE_END
EXCLUDE_OBJECT_END NAME=встав_для_крюка.stp_id_0_copy_0
EXCLUDE_OBJECT_START NAME=крюк_старый.stp_id_1_copy_0
G1 Z.4 F42000
