; HEADER_BLOCK_START
; generated by OrcaSlicer 2.1.0 on 2025-02-17 at 19:20:14
; total layer number: 118
; filament_density: 1.27
; filament_diameter: 1.75
; max_z_height: 23.60
; HEADER_BLOCK_END

; THUMBNAIL_BLOCK_START

;
; THUMBNAIL_BLOCK_END

; THUMBNAIL_BLOCK_START

;
; THUMBNAIL_BLOCK_END

; external perimeters extrusion width = 0.42mm
; perimeters extrusion width = 0.45mm
; infill extrusion width = 0.45mm
; solid infill extrusion width = 0.42mm
; top infill extrusion width = 0.42mm
; support material extrusion width = 0.42mm
; first layer extrusion width = 0.50mm

; EXECUTABLE_BLOCK_START
EXCLUDE_OBJECT_DEFINE NAME=крепление_колёс_без_надписи_.stp_id_0_copy_0 CENTER=111.602,134.045 POLYGON=[[25.3689,142.735],[25.3745,142.553],[25.3911,142.371],[25.4188,142.191],[25.4573,142.012],[25.5067,141.837],[25.5666,141.664],[25.6369,141.496],[25.7173,141.332],[25.8076,141.173],[25.9073,141.02],[26.0161,140.874],[26.1336,140.734],[26.2594,140.602],[26.393,140.478],[26.5339,140.362],[92.4103,88.1252],[169.94,88.1252],[197.834,125.113],[197.834,179.964],[25.3689,179.964],[25.3689,142.735]]
M73 P0 R69
M106 S0
M106 P2 S0
;TYPE:Custom
M140 S0
M104 S0 
START_PRINT EXTRUDER_TEMP=250 BED_TEMP=90
M106 P3 S153
G90
G21
M83 ; use relative distances for extrusion
; filament start gcode
M106 S0
M106 P2 S0
;LAYER_CHANGE
;Z:0.2
;HEIGHT:0.2
;BEFORE_LAYER_CHANGE
;0.2
G92 E0

G1 E-.6 F2400
;_SET_FAN_SPEED_CHANGING_LAYER
SET_VELOCITY_LIMIT ACCEL=500 ACCEL_TO_DECEL=250
SET_VELOCITY_LIMIT SQUARE_CORNER_VELOCITY=9
EXCLUDE_OBJECT_START NAME=крепление_колёс_без_надписи_.stp_id_0_copy_0
G1 Z.2 F42000
G1 X71.834 Y89.559
G1 Z.2
G1 E.6 F2400
;TYPE:Brim
;WIDTH:0.5
G1 F3600
G1 X85.051 Y78.958 E.61176
G1 X85.919 Y78.325 E.03878
G1 X86.836 Y77.777 E.03859
G1 X87.802 Y77.315 E.03864
G1 X88.546 Y77.029 E.02877
G1 X89.571 Y76.721 E.03866
G1 X90.619 Y76.508 E.03859
G1 X91.683 Y76.393 E.03865
G1 X92.414 Y76.37 E.0264
G1 X169.935 Y76.37 E2.79898
G1 X171.008 Y76.419 E.03878
G1 X172.067 Y76.566 E.03859
G1 X173.108 Y76.809 E.03859
G1 X174.122 Y77.146 E.03859
G1 X175.103 Y77.576 E.03869
G1 X175.581 Y77.826 E.01946
G1 X176.579 Y78.434 E.04218
G1 X177.434 Y79.074 E.03858
G1 X178.227 Y79.791 E.03859
G1 X178.951 Y80.577 E.03859
G1 X179.6 Y81.426 E.03859
G1 X180.169 Y82.331 E.03859
G1 X180.652 Y83.285 E.03859
G1 X181.046 Y84.278 E.03859
G1 X181.347 Y85.304 E.03859
G1 X181.553 Y86.353 E.03859
G1 X181.629 Y87.091 E.0268
G1 X181.673 Y87.204 E.00438
G1 X199.399 Y111.061 E1.07314
G1 X205.373 Y116.093 E.28201
G1 X206.162 Y116.822 E.03878
G1 X206.878 Y117.615 E.03859
G1 X207.519 Y118.471 E.03859
G1 X208.078 Y119.383 E.03864
G1 X208.441 Y120.096 E.02887
G1 X208.883 Y121.163 E.04169
G1 X209.197 Y122.184 E.03858
G1 X209.416 Y123.23 E.03859
G1 X209.538 Y124.293 E.03864
G1 X209.566 Y125.097 E.02905
G1 X209.566 Y179.959 E1.98083
G1 X209.516 Y181.032 E.03878
G1 X209.37 Y182.09 E.03859
G1 X209.127 Y183.131 E.03859
G1 X208.789 Y184.146 E.03859
G1 X208.36 Y185.127 E.03867
G1 X208.063 Y185.689 E.02294
G1 X207.502 Y186.602 E.0387
G1 X206.861 Y187.457 E.03859
G1 X206.144 Y188.25 E.03859
G1 X205.358 Y188.974 E.03859
G1 X204.509 Y189.624 E.03859
G1 X203.604 Y190.192 E.03859
G1 X202.651 Y190.675 E.03859
G1 X201.657 Y191.069 E.03859
G1 X200.631 Y191.37 E.03859
G1 X199.583 Y191.576 E.03859
G1 X198.517 Y191.686 E.03867
G1 X197.861 Y191.704 E.0237
G1 X25.375 Y191.719 E6.22778
G1 X24.302 Y191.67 E.03878
G1 X23.243 Y191.524 E.03859
G1 X22.203 Y191.281 E.03859
G1 X21.188 Y190.944 E.03859
G1 X20.207 Y190.514 E.03869
G1 X19.728 Y190.263 E.0195
G1 X18.731 Y189.655 E.04218
G1 X17.876 Y189.015 E.03858
G1 X17.083 Y188.298 E.03859
G1 X16.358 Y187.512 E.03859
G1 X15.709 Y186.663 E.03859
G1 X15.141 Y185.758 E.03859
G1 X14.657 Y184.804 E.03859
G1 X14.264 Y183.811 E.03859
G1 X13.962 Y182.785 E.03859
G1 X13.756 Y181.736 E.03859
G1 X13.647 Y180.671 E.03867
G1 X13.629 Y180.019 E.02356
G1 X13.613 Y142.742 E1.34589
G1 X13.667 Y141.492 E.0452
G1 X13.769 Y140.606 E.03219
G1 X13.926 Y139.722 E.03241
G1 X14.186 Y138.67 E.03915
G1 X14.459 Y137.817 E.03234
G1 X14.796 Y136.952 E.03351
G1 X15.159 Y136.163 E.03138
G1 X15.491 Y135.535 E.02564
G1 X15.953 Y134.765 E.0324
G1 X16.572 Y133.874 E.03918
G1 X17.012 Y133.317 E.02563
G1 X17.606 Y132.644 E.03241
G1 X18.376 Y131.881 E.03915
G1 X19.055 Y131.293 E.03242
G1 X40.093 Y115.018 E.96036
G1 X71.803 Y89.584 E1.46769
G1 X72.089 Y89.941 F42000
G1 F3600
G1 X85.326 Y79.323 E.61271
G1 X86.166 Y78.711 E.03753
G1 X87.059 Y78.178 E.03753
G1 X87.978 Y77.737 E.0368
G1 X88.698 Y77.46 E.02788
G1 X89.677 Y77.167 E.03687
G1 X90.683 Y76.962 E.03708
G1 X91.71 Y76.849 E.03729
G1 X92.419 Y76.827 E.02562
G1 X169.928 Y76.827 E2.79854
G1 X170.972 Y76.875 E.03776
G1 X171.99 Y77.017 E.03708
G1 X172.989 Y77.251 E.03708
G1 X173.952 Y77.571 E.03662
G1 X174.901 Y77.986 E.03741
G1 X175.36 Y78.226 E.01869
G1 X176.316 Y78.809 E.04045
G1 X177.138 Y79.424 E.03704
G1 X177.9 Y80.112 E.03708
G1 X178.596 Y80.867 E.03708
G1 X179.228 Y81.692 E.03753
G1 X179.773 Y82.562 E.03708
G1 X180.237 Y83.479 E.03708
G1 X180.611 Y84.421 E.03662
G1 X180.901 Y85.407 E.03708
G1 X181.099 Y86.414 E.03708
G1 X181.173 Y87.129 E.02594
G1 X181.205 Y87.26 E.00489
G1 X181.314 Y87.488 E.0091
G1 X199.028 Y111.327 E1.07237
G1 X199.111 Y111.416 E.00439
G1 X205.068 Y116.434 E.28124
G1 X205.832 Y117.139 E.03754
G1 X206.529 Y117.911 E.03753
G1 X207.143 Y118.734 E.03708
G1 X207.676 Y119.602 E.03679
G1 X208.023 Y120.283 E.02758
G1 X208.45 Y121.312 E.04022
G1 X208.752 Y122.292 E.03704
G1 X208.965 Y123.309 E.03753
G1 X209.081 Y124.322 E.03679
G1 X209.109 Y125.107 E.02838
G1 X209.109 Y179.945 E1.97997
G1 X209.061 Y180.983 E.03753
G1 X208.919 Y182.013 E.03753
G1 X208.684 Y183.013 E.03708
G1 X208.36 Y183.987 E.03708
G1 X207.95 Y184.923 E.03691
G1 X207.664 Y185.466 E.02214
G1 X207.12 Y186.35 E.03746
G1 X206.504 Y187.171 E.03708
G1 X205.815 Y187.933 E.03708
G1 X205.059 Y188.628 E.03708
G1 X204.253 Y189.244 E.03662
G1 X203.384 Y189.791 E.03708
G1 X202.468 Y190.255 E.03708
G1 X201.502 Y190.638 E.03753
G1 X200.517 Y190.927 E.03708
G1 X199.521 Y191.123 E.03662
G1 X198.492 Y191.229 E.03734
G1 X197.853 Y191.247 E.02311
G1 X25.389 Y191.262 E6.22698
G1 X24.35 Y191.215 E.03753
G1 X23.321 Y191.072 E.03753
G1 X22.321 Y190.838 E.03708
G1 X21.358 Y190.518 E.03662
G1 X20.4 Y190.099 E.03775
G1 X19.949 Y189.863 E.01838
G1 X18.993 Y189.28 E.04045
G1 X18.162 Y188.657 E.03749
G1 X17.4 Y187.968 E.03708
G1 X16.705 Y187.213 E.03708
G1 X16.089 Y186.407 E.03662
G1 X15.542 Y185.538 E.03708
G1 X15.078 Y184.622 E.03708
G1 X14.694 Y183.656 E.03753
G1 X14.406 Y182.67 E.03708
G1 X14.21 Y181.675 E.03662
G1 X14.103 Y180.636 E.03771
G1 X14.086 Y180.01 E.02261
G1 X14.071 Y142.755 E1.34513
G1 X14.123 Y141.533 E.04418
G1 X14.221 Y140.676 E.03112
G1 X14.374 Y139.813 E.03167
G1 X14.627 Y138.79 E.03804
G1 X14.891 Y137.965 E.03126
G1 X15.218 Y137.127 E.03249
G1 X15.568 Y136.369 E.03015
G1 X15.888 Y135.762 E.02474
G1 X16.339 Y135.01 E.0317
G1 X16.942 Y134.143 E.03811
G1 X17.365 Y133.607 E.02467
G1 X17.935 Y132.961 E.0311
G1 X18.683 Y132.219 E.03804
G1 X19.347 Y131.644 E.03172
G1 X40.38 Y115.374 E.96011
G1 X72.058 Y89.966 E1.4662
G1 X72.343 Y90.323 F42000
G1 F3600
G1 X85.602 Y79.688 E.61366
G1 X86.413 Y79.096 E.03628
G1 X87.281 Y78.578 E.03647
G1 X88.154 Y78.16 E.03496
G1 X88.851 Y77.892 E.02698
G1 X89.794 Y77.609 E.03554
G1 X90.747 Y77.415 E.03511
G1 X91.737 Y77.306 E.03593
G1 X92.424 Y77.284 E.02483
G1 X169.914 Y77.284 E2.79786
G1 X170.924 Y77.331 E.03651
G1 X171.912 Y77.468 E.03601
G1 X172.859 Y77.69 E.03511
G1 X173.782 Y77.996 E.03512
G1 X174.699 Y78.397 E.03614
G1 X175.139 Y78.626 E.0179
G1 X176.054 Y79.185 E.03873
G1 X176.842 Y79.773 E.0355
G1 X177.574 Y80.433 E.03556
G1 X178.242 Y81.156 E.03555
G1 X178.855 Y81.959 E.03646
G1 X179.378 Y82.793 E.03555
G1 X179.822 Y83.672 E.03556
G1 X180.18 Y84.577 E.03512
G1 X180.455 Y85.509 E.03511
G1 X180.645 Y86.476 E.03556
G1 X180.73 Y87.241 E.02779
G1 X180.797 Y87.466 E.00847
G1 X180.953 Y87.769 E.01233
G1 X198.656 Y111.594 E1.07168
G1 X198.823 Y111.771 E.00877
G1 X204.764 Y116.775 E.28047
G1 X205.511 Y117.465 E.03674
G1 X206.179 Y118.206 E.03601
G1 X206.768 Y118.996 E.03556
G1 X207.274 Y119.821 E.03496
G1 X207.605 Y120.47 E.02629
G1 X208.017 Y121.461 E.03876
G1 X208.307 Y122.4 E.0355
G1 X208.514 Y123.389 E.03646
G1 X208.625 Y124.351 E.03495
G1 X208.652 Y125.118 E.02772
G1 X208.652 Y179.931 E1.9791
G1 X208.606 Y180.935 E.03628
G1 X208.47 Y181.923 E.03601
G1 X208.242 Y182.894 E.03601
G1 X207.93 Y183.829 E.03556
G1 X207.54 Y184.72 E.03515
G1 X207.264 Y185.243 E.02134
G1 X206.738 Y186.097 E.03622
G1 X206.146 Y186.885 E.03556
G1 X205.485 Y187.615 E.03556
G1 X204.77 Y188.273 E.03511
G1 X203.997 Y188.864 E.03512
G1 X203.164 Y189.389 E.03556
G1 X202.286 Y189.835 E.03555
G1 X201.347 Y190.207 E.03646
G1 X200.414 Y190.481 E.03511
G1 X199.46 Y190.669 E.03512
G1 X198.467 Y190.772 E.03602
G1 X197.844 Y190.79 E.02251
G1 X25.402 Y190.805 E6.22619
G1 X24.386 Y190.758 E.03674
G1 X23.398 Y190.621 E.03601
G1 X22.451 Y190.4 E.03511
G1 X21.528 Y190.093 E.03511
G1 X20.594 Y189.685 E.03682
G1 X20.171 Y189.463 E.01725
G1 X19.255 Y188.904 E.03873
G1 X18.448 Y188.3 E.03641
G1 X17.718 Y187.639 E.03555
G1 X17.06 Y186.923 E.03511
G1 X16.469 Y186.151 E.03512
G1 X15.938 Y185.306 E.03602
G1 X15.492 Y184.428 E.03556
G1 X15.129 Y183.513 E.03555
G1 X14.852 Y182.568 E.03556
G1 X14.664 Y181.614 E.03511
G1 X14.56 Y180.601 E.03675
G1 X14.543 Y180.002 E.02165
G1 X14.528 Y142.768 E1.34437
G1 X14.579 Y141.573 E.04317
G1 X14.673 Y140.746 E.03005
G1 X14.823 Y139.903 E.03092
G1 X15.069 Y138.91 E.03693
G1 X15.324 Y138.114 E.03018
G1 X15.641 Y137.302 E.03148
G1 X15.976 Y136.574 E.02893
G1 X16.284 Y135.99 E.02384
G1 X16.726 Y135.254 E.03099
G1 X17.312 Y134.412 E.03703
G1 X17.719 Y133.897 E.0237
G1 X18.265 Y133.278 E.0298
G1 X18.991 Y132.558 E.03693
G1 X19.64 Y131.996 E.03101
G1 X40.667 Y115.73 E.95985
G1 X72.312 Y90.348 E1.46471
G1 X72.598 Y90.704 F42000
G1 F3600
G1 X85.877 Y80.053 E.61461
G1 X86.661 Y79.481 E.03503
G1 X87.503 Y78.979 E.0354
G1 X88.33 Y78.582 E.03312
G1 X89.004 Y78.323 E.02608
G1 X89.9 Y78.055 E.03376
G1 X90.812 Y77.868 E.03361
G1 X91.764 Y77.763 E.03458
G1 X92.429 Y77.741 E.02404
G1 X169.9 Y77.741 E2.79717
G1 X170.876 Y77.786 E.03525
G1 X171.834 Y77.919 E.03495
G1 X172.728 Y78.129 E.03316
G1 X173.612 Y78.421 E.03361
G1 X174.497 Y78.807 E.03486
G1 X174.917 Y79.027 E.01712
G1 X175.793 Y79.56 E.03701
G1 X176.547 Y80.123 E.03397
G1 X177.247 Y80.754 E.03404
G1 X177.887 Y81.446 E.03403
G1 X178.482 Y82.225 E.03539
G1 X178.982 Y83.024 E.03403
G1 X179.407 Y83.866 E.03405
G1 X179.745 Y84.72 E.03317
G1 X180.008 Y85.613 E.03361
G1 X180.192 Y86.54 E.03413
G1 X180.295 Y87.379 E.03053
G1 X180.395 Y87.684 E.0116
G1 X180.592 Y88.05 E.015
G1 X198.284 Y111.86 E1.07104
G1 X198.534 Y112.125 E.01316
G1 X204.459 Y117.116 E.2797
G1 X205.181 Y117.783 E.03549
G1 X205.821 Y118.492 E.03449
G1 X206.392 Y119.258 E.0345
G1 X206.872 Y120.04 E.03314
G1 X207.187 Y120.657 E.025
G1 X207.584 Y121.61 E.03729
G1 X207.862 Y122.509 E.03396
G1 X208.063 Y123.468 E.0354
G1 X208.168 Y124.379 E.03312
G1 X208.195 Y125.128 E.02706
G1 X208.194 Y179.918 E1.97824
G1 X208.15 Y180.887 E.03504
G1 X208.018 Y181.846 E.03494
G1 X207.8 Y182.776 E.03448
G1 X207.501 Y183.67 E.03405
G1 X207.13 Y184.517 E.0334
G1 X206.864 Y185.02 E.02053
G1 X206.363 Y185.834 E.03452
G1 X205.789 Y186.598 E.0345
G1 X205.156 Y187.297 E.03405
G1 X204.48 Y187.919 E.03316
G1 X203.741 Y188.485 E.03361
G1 X202.943 Y188.988 E.03405
G1 X202.103 Y189.415 E.03403
G1 X201.192 Y189.777 E.03539
G1 X200.299 Y190.038 E.03359
G1 X199.398 Y190.215 E.03317
G1 X198.442 Y190.315 E.0347
G1 X197.836 Y190.333 E.02191
G1 X25.416 Y190.348 E6.22538
G1 X24.434 Y190.303 E.03548
G1 X23.476 Y190.17 E.03495
G1 X22.57 Y189.957 E.0336
G1 X21.698 Y189.668 E.03315
G1 X20.788 Y189.27 E.03588
G1 X20.393 Y189.062 E.01612
G1 X19.517 Y188.529 E.03701
G1 X18.734 Y187.942 E.03531
G1 X18.036 Y187.309 E.03403
G1 X17.414 Y186.634 E.03316
G1 X16.848 Y185.895 E.03361
G1 X16.333 Y185.075 E.03495
G1 X15.907 Y184.234 E.03404
G1 X15.56 Y183.358 E.03403
G1 X15.298 Y182.465 E.0336
G1 X15.118 Y181.552 E.0336
G1 X15.016 Y180.566 E.03579
G1 X15 Y179.993 E.02069
G1 X14.985 Y142.78 E1.3436
G1 X15.034 Y141.614 E.04215
G1 X15.125 Y140.816 E.02898
G1 X15.271 Y139.993 E.03018
G1 X15.51 Y139.031 E.03581
G1 X15.756 Y138.263 E.0291
G1 X16.063 Y137.477 E.03047
G1 X16.385 Y136.78 E.02772
G1 X16.681 Y136.218 E.02294
G1 X17.113 Y135.499 E.03028
G1 X17.682 Y134.681 E.03596
G1 X18.072 Y134.188 E.02273
G1 X18.595 Y133.595 E.02851
G1 X19.299 Y132.897 E.03582
G1 X19.933 Y132.347 E.03029
G1 X40.954 Y116.086 E.95958
G1 X72.567 Y90.729 E1.46322
G1 X72.853 Y91.086 F42000
G1 F3600
G1 X86.153 Y80.418 E.61557
G1 X86.908 Y79.867 E.03378
G1 X87.725 Y79.379 E.03434
G1 X88.506 Y79.005 E.03128
G1 X89.157 Y78.755 E.02519
G1 X90.005 Y78.5 E.03198
G1 X90.877 Y78.322 E.03211
G1 X91.791 Y78.22 E.03322
G1 X92.434 Y78.198 E.02324
G1 X169.893 Y78.198 E2.79671
G1 X170.84 Y78.243 E.03422
G1 X171.757 Y78.371 E.03343
G1 X172.61 Y78.571 E.03165
G1 X173.443 Y78.847 E.03167
G1 X174.295 Y79.218 E.03357
G1 X174.696 Y79.427 E.01633
G1 X175.531 Y79.936 E.0353
G1 X176.251 Y80.473 E.03245
G1 X176.921 Y81.076 E.03253
G1 X177.533 Y81.736 E.03249
G1 X178.11 Y82.491 E.0343
G1 X178.586 Y83.254 E.03249
G1 X178.992 Y84.059 E.03254
G1 X179.314 Y84.875 E.03167
G1 X179.562 Y85.716 E.03167
G1 X179.741 Y86.615 E.03311
G1 X179.864 Y87.532 E.0334
G1 X179.998 Y87.91 E.01445
G1 X180.231 Y88.33 E.01735
G1 X197.913 Y112.126 E1.07042
G1 X198.246 Y112.48 E.01754
G1 X204.154 Y117.457 E.27893
G1 X204.86 Y118.109 E.0347
G1 X205.471 Y118.787 E.03297
G1 X206.01 Y119.51 E.03253
G1 X206.471 Y120.259 E.03177
G1 X206.774 Y120.854 E.0241
G1 X207.151 Y121.76 E.03545
G1 X207.417 Y122.617 E.03241
G1 X207.612 Y123.548 E.03432
G1 X207.711 Y124.408 E.03128
G1 X207.738 Y125.139 E.02639
G1 X207.737 Y179.904 E1.97736
M73 P1 R69
G1 X207.695 Y180.839 E.03379
G1 X207.569 Y181.756 E.03341
G1 X207.358 Y182.657 E.0334
G1 X207.071 Y183.511 E.03254
G1 X206.72 Y184.314 E.03166
G1 X206.465 Y184.797 E.01972
G1 X205.981 Y185.581 E.03326
G1 X205.432 Y186.311 E.03298
G1 X204.826 Y186.979 E.03253
G1 X204.181 Y187.572 E.03167
G1 X203.484 Y188.105 E.03167
G1 X202.722 Y188.587 E.03254
G1 X201.921 Y188.995 E.03249
G1 X201.037 Y189.346 E.03431
G1 X200.197 Y189.591 E.03163
G1 X199.336 Y189.762 E.03167
G1 X198.417 Y189.858 E.03338
G1 X197.827 Y189.876 E.02131
G1 X25.43 Y189.891 E6.22457
M73 P1 R68
G1 X24.483 Y189.848 E.03422
G1 X23.553 Y189.719 E.03388
G1 X22.7 Y189.518 E.03164
G1 X21.868 Y189.243 E.03165
G1 X20.982 Y188.856 E.03493
G1 X20.614 Y188.662 E.01498
G1 X19.779 Y188.153 E.03531
G1 X19.021 Y187.585 E.03422
G1 X18.354 Y186.98 E.0325
G1 X17.761 Y186.334 E.03167
G1 X17.228 Y185.639 E.03165
G1 X16.728 Y184.844 E.03388
G1 X16.322 Y184.041 E.03251
G1 X15.991 Y183.203 E.03252
G1 X15.744 Y182.362 E.03165
G1 X15.571 Y181.49 E.03208
G1 X15.472 Y180.531 E.03482
G1 X15.457 Y179.985 E.01973
G1 X15.442 Y142.793 E1.34285
G1 X15.49 Y141.654 E.04115
G1 X15.577 Y140.886 E.02791
G1 X15.72 Y140.084 E.02942
G1 X15.951 Y139.151 E.0347
G1 X16.189 Y138.412 E.02803
G1 X16.486 Y137.653 E.02946
G1 X16.793 Y136.986 E.02651
G1 X17.078 Y136.446 E.02204
G1 X17.499 Y135.744 E.02957
G1 X18.051 Y134.951 E.03488
G1 X18.426 Y134.478 E.02177
G1 X18.924 Y133.913 E.02722
G1 X19.606 Y133.235 E.03471
G1 X20.225 Y132.698 E.02958
G1 X41.241 Y116.441 E.95932
G1 X72.822 Y91.111 E1.46174
G1 X73.108 Y91.467 F42000
G1 F3600
G1 X86.428 Y80.783 E.61653
G1 X87.156 Y80.252 E.03253
G1 X87.947 Y79.779 E.03327
G1 X88.682 Y79.427 E.02944
G1 X89.31 Y79.186 E.02429
G1 X90.123 Y78.943 E.03065
G1 X90.942 Y78.775 E.03017
G1 X91.819 Y78.677 E.03187
G1 X92.44 Y78.655 E.02243
G1 X169.879 Y78.655 E2.79602
G1 X170.791 Y78.698 E.03297
G1 X171.679 Y78.822 E.03237
G1 X172.492 Y79.013 E.03015
G1 X173.273 Y79.272 E.02974
G1 X174.093 Y79.628 E.03228
G1 X174.475 Y79.828 E.01554
G1 X175.269 Y80.312 E.0336
G1 X175.956 Y80.823 E.03092
G1 X176.595 Y81.397 E.03101
G1 X177.186 Y82.036 E.03142
G1 X177.737 Y82.757 E.03275
G1 X178.19 Y83.484 E.03095
