; HEADER_BLOCK_START
; generated by OrcaSlicer 2.1.0 on 2025-03-13 at 19:20:29
; total layer number: 100
; filament_density: 1.27
; filament_diameter: 1.75
; max_z_height: 20.00
; HEADER_BLOCK_END

; THUMBNAIL_BLOCK_START

;
; THUMBNAIL_BLOCK_END

; THUMBNAIL_BLOCK_START

;
; THUMBNAIL_BLOCK_END

; external perimeters extrusion width = 0.42mm
; perimeters extrusion width = 0.45mm
; infill extrusion width = 0.45mm
; solid infill extrusion width = 0.42mm
; top infill extrusion width = 0.42mm
; support material extrusion width = 0.42mm
; first layer extrusion width = 0.50mm

; EXECUTABLE_BLOCK_START
EXCLUDE_OBJECT_DEFINE NAME=манипулятор_2.stp_id_0_copy_0 CENTER=110,110 POLYGON=[[90.0088,133.812],[93.4063,85.8885],[93.4175,85.7394],[93.4398,85.5915],[93.4731,85.4457],[93.5171,85.3028],[93.5718,85.1635],[93.6367,85.0288],[93.7115,84.8993],[93.7957,84.7757],[93.889,84.6587],[93.9907,84.5491],[101.735,76.8043],[101.854,76.6942],[101.98,76.5928],[102.113,76.5008],[102.252,76.4185],[102.397,76.3464],[102.546,76.285],[102.7,76.2344],[102.856,76.1949],[103.016,76.1669],[103.177,76.1503],[103.338,76.1453],[103.5,76.152],[103.66,76.1702],[103.819,76.1999],[103.976,76.241],[104.129,76.2931],[104.278,76.3562],[104.421,76.4297],[104.56,76.5134],[116.923,84.2068],[117.078,84.3112],[117.226,84.4251],[117.367,84.5481],[117.5,84.6795],[117.625,84.8191],[117.74,84.9661],[120.984,89.6447],[121.082,89.8069],[121.17,89.975],[129.695,107.699],[129.766,107.859],[129.828,108.022],[129.88,108.188],[129.922,108.358],[129.954,108.529],[129.977,108.702],[129.989,108.876],[129.991,109.051],[129.983,109.225],[129.965,109.399],[129.937,109.571],[129.898,109.741],[125.66,126.357],[125.61,126.529],[125.607,126.539],[125.55,126.699],[125.55,126.7],[125.484,126.857],[125.48,126.864],[125.409,127.01],[125.401,127.025],[125.325,127.159],[125.312,127.181],[125.233,127.302],[125.213,127.331],[125.134,127.44],[125.106,127.475],[125.027,127.572],[124.991,127.613],[124.912,127.697],[124.867,127.743],[124.791,127.816],[124.736,127.866],[124.664,127.927],[124.598,127.981],[106.299,142.016],[106.045,142.206],[105.784,142.387],[105.517,142.558],[105.243,142.72],[104.964,142.871],[104.679,143.012],[104.39,143.143],[104.096,143.263],[103.798,143.372],[103.496,143.471],[103.191,143.558],[102.883,143.635],[102.572,143.7],[102.259,143.754],[101.944,143.796],[101.628,143.827],[101.311,143.847],[100.994,143.855],[100.676,143.851],[92.2273,143.697],[92.1828,143.689],[92.1412,143.671],[92.1047,143.644],[92.0752,143.61],[92.0542,143.569],[90.144,137.251],[90.0915,136.968],[90.0464,136.683],[90.0088,136.398],[90.0088,133.812]]
M73 P0 R22
M106 S0
M106 P2 S0
;TYPE:Custom
M140 S0
M104 S0 
START_PRINT EXTRUDER_TEMP=250 BED_TEMP=90
M106 P3 S153
G90
G21
M83 ; use relative distances for extrusion
; filament start gcode
M106 S0
M106 P2 S0
;LAYER_CHANGE
;Z:0.2
;HEIGHT:0.2
;BEFORE_LAYER_CHANGE
;0.2
G92 E0

G1 E-.6 F2400
;_SET_FAN_SPEED_CHANGING_LAYER
SET_VELOCITY_LIMIT ACCEL=500 ACCEL_TO_DECEL=250
SET_VELOCITY_LIMIT SQUARE_CORNER_VELOCITY=9
EXCLUDE_OBJECT_START NAME=манипулятор_2.stp_id_0_copy_0
G1 Z.2 F42000
G1 X104.86 Y135.37
G1 Z.2
G1 E.6 F2400
;TYPE:Inner wall
;WIDTH:0.629686
G1 F3600
G1 X104.872 Y135.413 E.00206
;WIDTH:0.615318
G1 X104.929 Y135.601 E.00887
;WIDTH:0.576879
G1 X104.986 Y135.788 E.00827
;WIDTH:0.538439
G1 X105.043 Y135.976 E.00768
;WIDTH:0.499999
G1 X105.279 Y136.541 E.0221
G1 X105.585 Y137.001 E.01995
G1 X105.993 Y137.417 E.02103
G1 X106.438 Y137.729 E.01962
G1 X106.921 Y137.944 E.01908
G1 X107.25 Y138.043 E.01239
G1 X107.137 Y138.295 E.00998
G1 X106.753 Y138.951 E.02741
G1 X106.301 Y139.56 E.02741
G1 X105.925 Y139.966 E.01998
G1 X105.483 Y140.379 E.02182
G1 X104.894 Y140.835 E.02692
G1 X104.444 Y141.125 E.01932
G1 X103.871 Y141.432 E.02347
G1 X103.778 Y141.103 E.01234
G1 X103.53 Y140.569 E.02126
G1 X103.186 Y140.097 E.02108
G1 X102.758 Y139.702 E.02104
G1 X102.242 Y139.387 E.02181
G1 X101.717 Y139.191 E.02025
;WIDTH:0.541618
G1 X101.526 Y139.138 E.00781
;WIDTH:0.583237
G1 X101.335 Y139.085 E.00846
;WIDTH:0.624856
G1 X101.144 Y139.032 E.00911
G1 X101.337 Y138.982 E.00915
;WIDTH:0.583237
G1 X101.529 Y138.931 E.0085
;WIDTH:0.541618
G1 X101.722 Y138.881 E.00784
;WIDTH:0.499999
G1 X102.242 Y138.742 E.01945
G1 X102.709 Y138.538 E.01838
G1 X103.126 Y138.28 E.0177
G1 X103.526 Y137.978 E.01813
G1 X103.892 Y137.597 E.01907
G1 X104.226 Y137.113 E.02123
G1 X104.499 Y136.59 E.02131
G1 X104.701 Y135.993 E.02276
;WIDTH:0.543228
G1 X104.754 Y135.785 E.00846
;WIDTH:0.586457
G1 X104.807 Y135.578 E.00919
;WIDTH:0.629686
G1 X104.85 Y135.409 E.00807
;WIPE_START
G1 X104.872 Y135.413 E-.00694
G1 X104.929 Y135.601 E-.05883
G1 X104.986 Y135.788 E-.05883
G1 X105.043 Y135.976 E-.05883
G1 X105.279 Y136.541 E-.18366
G1 X105.585 Y137.001 E-.16578
G1 X105.742 Y137.161 E-.06712
;WIPE_END
G1 Z.4 F42000
G1 X101.394 Y143.56 Z.4
G1 Z.2
G1 E.6 F2400
;TYPE:Outer wall
;WIDTH:0.553676
G1 F3600
G1 X101.165 Y143.579 E.00925
;WIDTH:0.521528
G1 X100.936 Y143.598 E.00867
;WIDTH:0.529658
G1 X100.57 Y143.574 E.01413
G1 E-.04925 F2400
;WIPE_START
G1 F3600
G1 X100.936 Y143.598 E-.24502
G1 X101.165 Y143.579 E-.15287
G1 X101.394 Y143.56 E-.15287
;WIPE_END
G1 Z.4 F42000
G1 X97.006 Y135.404 Z.4
G1 Z.2
G1 E.6 F2400
;TYPE:Inner wall
;WIDTH:0.63296
G1 F3600
G1 X97.033 Y135.491 E.00427
;WIDTH:0.602124
G1 X97.06 Y135.579 E.00405
;WIDTH:0.571288
G1 X97.133 Y135.863 E.01225
;WIDTH:0.535644
G1 X97.206 Y136.147 E.01143
;WIDTH:0.499999
G1 X97.415 Y136.72 E.02202
G1 X97.743 Y137.278 E.02337
G1 X98.026 Y137.653 E.01695
G1 X98.42 Y138.046 E.02007
G1 X98.896 Y138.394 E.0213
G1 X99.398 Y138.644 E.02027
G1 X99.965 Y138.848 E.02175
;WIDTH:0.537568
G1 X100.124 Y138.893 E.00646
;WIDTH:0.575136
G1 X100.283 Y138.938 E.00696
;WIDTH:0.612704
G1 X100.443 Y138.983 E.00745
;WIDTH:0.650272
G1 X100.602 Y139.028 E.00794
G1 X100.48 Y139.073 E.00627
;WIDTH:0.601031
G1 X100.357 Y139.119 E.00576
;WIDTH:0.551789
G1 X100.235 Y139.165 E.00525
;WIDTH:0.502547
G1 X99.735 Y139.335 E.01917
;WIDTH:0.499999
G1 X99.225 Y139.616 E.02103
G1 X98.764 Y140.005 E.0218
G1 X98.412 Y140.445 E.02031
G1 X98.133 Y140.978 E.02175
G1 X97.973 Y141.535 E.02092
G1 X96.014 Y141.661 E.07089
G1 X96.189 Y141.341 E.01317
G1 X96.211 Y140.723 E.02231
G1 X96.121 Y140.391 E.01243
G1 X95.895 Y139.995 E.01645
G1 X95.346 Y139.287 E.03236
G1 X95.033 Y138.841 E.01968
G1 X94.761 Y138.543 E.01455
G1 X94.504 Y138.38 E.01099
G1 X94.518 Y138.063 E.01148
G1 X94.714 Y138.02 E.00726
G1 X95.309 Y137.793 E.02298
G1 X95.758 Y137.508 E.01921
G1 X96.186 Y137.113 E.02103
G1 X96.556 Y136.601 E.02279
G1 X96.804 Y136.042 E.02207
;WIDTH:0.54432
G1 X96.871 Y135.829 E.00885
;WIDTH:0.58864
G1 X96.939 Y135.617 E.00963
;WIDTH:0.63296
G1 X96.994 Y135.442 E.00855
;WIPE_START
G1 X97.033 Y135.491 E-.01891
G1 X97.06 Y135.579 E-.02747
G1 X97.133 Y135.863 E-.08807
G1 X97.206 Y136.147 E-.08807
G1 X97.415 Y136.72 E-.18296
G1 X97.743 Y137.278 E-.19419
G1 X97.744 Y137.279 E-.00032
;WIPE_END
G1 Z.4 F42000
G1 X92.299 Y136.142 Z.4
G1 Z.2
G1 E.6 F2400
;WIDTH:0.478856
G1 F3600
G1 X92.393 Y136.314 E.00674
G1 X92.625 Y136.63 E.0135
G1 X91.934 Y136.64 E.02377
G1 X91.416 Y136.609 E.01788
G1 X92.264 Y136.161 E.03302
G1 X92.467 Y135.472 F42000
;TYPE:Outer wall
;WIDTH:0.554594
G1 F3600
G1 X92.453 Y135.235 E.00957
;WIDTH:0.526728
G1 X92.439 Y134.999 E.00905
G1 X92.288 Y134.064 F42000
;TYPE:Inner wall
;WIDTH:0.478907
G1 F3600
G1 X91.411 Y133.603 E.03411
G1 X91.934 Y133.57 E.01805
G1 X92.606 Y133.579 E.02313
G1 X92.31 Y134.031 E.01859
;WIPE_START
G1 X91.411 Y133.603 E-.29851
G1 X91.934 Y133.57 E-.1572
G1 X92.415 Y133.577 E-.14429
;WIPE_END
G1 Z.4 F42000
G1 X94.518 Y132.147 Z.4
G1 Z.2
G1 E.6 F2400
;WIDTH:0.499999
G1 F3600
G1 X94.504 Y131.829 E.01149
G1 X94.631 Y131.766 E.00512
G1 X95.002 Y131.411 E.01856
G1 X95.559 Y130.661 E.03371
G1 X95.894 Y130.28 E.01832
G1 X96.26 Y129.925 E.01842
G1 X96.66 Y129.59 E.01883
G1 X97.068 Y129.297 E.01812
G1 X97.499 Y129.044 E.01807
G1 X97.999 Y128.786 E.0203
G1 X98.051 Y129.006 E.0082
G1 X98.3 Y129.586 E.02275
G1 X98.612 Y130.038 E.01985
G1 X98.993 Y130.418 E.01945
G1 X99.458 Y130.738 E.02038
G1 X99.999 Y130.975 E.02133
;WIDTH:0.538821
G1 X100.136 Y131.026 E.00571
;WIDTH:0.577642
G1 X100.273 Y131.076 E.00616
;WIDTH:0.616463
G1 X100.41 Y131.126 E.00661
;WIDTH:0.655284
G1 X100.547 Y131.176 E.00706
G1 X100.458 Y131.209 E.00459
;WIDTH:0.618278
G1 X100.292 Y131.261 E.00793
;WIDTH:0.578852
G1 X100.125 Y131.312 E.00738
;WIDTH:0.539426
G1 X99.958 Y131.364 E.00684
;WIDTH:0.499999
G1 X99.399 Y131.566 E.02148
G1 X98.872 Y131.832 E.0213
G1 X98.388 Y132.195 E.02185
G1 X98.026 Y132.557 E.01848
G1 X97.743 Y132.931 E.01693
G1 X97.397 Y133.535 E.02514
G1 X97.202 Y134.079 E.02086
;WIDTH:0.540283
G1 X97.153 Y134.235 E.00642
;WIDTH:0.580566
G1 X97.105 Y134.391 E.00694
;WIDTH:0.620849
G1 X97.056 Y134.548 E.00746
;WIDTH:0.661132
G1 X97.007 Y134.704 E.00799
G1 X96.964 Y134.599 E.00555
;WIDTH:0.615631
G1 X96.92 Y134.494 E.00514
;WIDTH:0.57013
G1 X96.877 Y134.389 E.00473
;WIDTH:0.524628
G1 X96.673 Y133.841 E.02224
;WIDTH:0.499999
G1 X96.352 Y133.298 E.02278
G1 X95.994 Y132.901 E.0193
G1 X95.532 Y132.546 E.02103
G1 X95.01 Y132.286 E.02106
G1 X94.556 Y132.158 E.01702
;WIPE_START
G1 X94.504 Y131.829 E-.0999
G1 X94.631 Y131.766 E-.04255
G1 X95.002 Y131.411 E-.15418
G1 X95.559 Y130.661 E-.28006
G1 X95.61 Y130.603 E-.02331
;WIPE_END
G1 Z.4 F42000
G1 X100.548 Y126.637 Z.4
G1 Z.2
G1 E.6 F2400
;TYPE:Outer wall
;WIDTH:0.53609
G1 F3600
G1 X100.98 Y126.614 E.01684
;WIDTH:0.547798
G1 X101.356 Y126.645 E.01506
G1 E-.06008 F2400
;WIPE_START
G1 F3600
G1 X100.98 Y126.614 E-.25177
G1 X100.548 Y126.637 E-.28815
;WIPE_END
G1 Z.4 F42000
G1 X107.26 Y132.163 Z.4
G1 Z.2
G1 E.6 F2400
;TYPE:Inner wall
;WIDTH:0.499999
G1 F3600
G1 X106.735 Y132.335 E.01994
G1 X106.225 Y132.616 E.02103
G1 X105.779 Y132.991 E.02103
G1 X105.413 Y133.444 E.02105
G1 X105.081 Y134.106 E.02672
;WIDTH:0.539994
G1 X105.025 Y134.255 E.00627
;WIDTH:0.579989
G1 X104.969 Y134.405 E.00678
;WIDTH:0.619984
G1 X104.913 Y134.555 E.00728
;WIDTH:0.659978
G1 X104.857 Y134.704 E.00779
G1 X104.823 Y134.605 E.00512
;WIDTH:0.616835
G1 X104.788 Y134.506 E.00476
;WIDTH:0.573692
G1 X104.753 Y134.407 E.0044
;WIDTH:0.530548
G1 X104.571 Y133.799 E.02445
;WIDTH:0.499999
G1 X104.366 Y133.33 E.01849
G1 X104.036 Y132.795 E.02268
G1 X103.719 Y132.425 E.0176
G1 X103.347 Y132.093 E.01801
G1 X102.826 Y131.728 E.02295
G1 X102.262 Y131.477 E.02228
G1 X101.899 Y131.362 E.01376
;WIDTH:0.545498
G1 X101.682 Y131.301 E.00895
;WIDTH:0.590996
G1 X101.465 Y131.239 E.00976
;WIDTH:0.636494
G1 X101.248 Y131.178 E.01057
G1 X101.352 Y131.143 E.00513
;WIDTH:0.598483
G1 X101.456 Y131.108 E.0048
;WIDTH:0.560472
G1 X101.733 Y131.016 E.01196
;WIDTH:0.530236
G1 X102.011 Y130.924 E.01126
;WIDTH:0.499999
G1 X102.532 Y130.664 E.02103
G1 X102.994 Y130.309 E.02104
G1 X103.38 Y129.871 E.02108
G1 X103.676 Y129.362 E.02126
G1 X103.863 Y128.785 E.02189
G1 X104.158 Y128.919 E.01171
G1 X104.793 Y129.296 E.02667
G1 X105.23 Y129.608 E.0194
G1 X105.621 Y129.937 E.01844
G1 X105.986 Y130.294 E.01844
G1 X106.325 Y130.677 E.01845
G1 X106.653 Y131.112 E.01968
G1 X106.988 Y131.646 E.02276
G1 X107.242 Y132.128 E.01967
G1 X108.063 Y132.581 F42000
;WIDTH:0.464246
G1 F3600
G1 X108.018 Y132.573 E.00154
;WIDTH:0.499999
G1 X107.857 Y132.545 E.00589
G1 X107.367 Y132.607 E.01785
G1 X106.83 Y132.79 E.02047
G1 X106.333 Y133.101 E.02118
G1 X105.944 Y133.49 E.01986
G1 X105.626 Y134 E.02168
G1 X105.442 Y134.522 E.02
G1 X105.371 Y135.118 E.02168
G1 X105.421 Y135.61 E.01785
G1 X105.565 Y136.083 E.01785
G1 X105.865 Y136.622 E.02228
G1 X106.271 Y137.054 E.02137
G1 X106.726 Y137.36 E.01983
G1 X107.367 Y137.603 E.02474
G1 X107.907 Y137.664 E.0196
G1 X107.544 Y138.505 E.03306
G1 X107.135 Y139.203 E.02921
G1 X106.653 Y139.853 E.02921
G1 X106.103 Y140.446 E.02921
G1 X105.564 Y140.914 E.02579
G1 X105.154 Y141.211 E.01826
G1 X104.662 Y141.527 E.02111
G1 X104.065 Y141.846 E.02444
G1 X103.477 Y142.087 E.02293
G1 X103.484 Y141.946 E.00509
G1 X103.418 Y141.498 E.01635
G1 X103.252 Y141.019 E.01833
G1 X102.997 Y140.589 E.01801
G1 X102.667 Y140.22 E.01788
G1 X102.347 Y139.973 E.01461
G1 X101.828 Y139.705 E.02107
G1 X101.351 Y139.578 E.01785
G1 X100.857 Y139.545 E.01785
G1 X100.367 Y139.607 E.01785
G1 X99.897 Y139.762 E.01785
G1 X99.476 Y139.999 E.01744
G1 X99.09 Y140.325 E.01826
G1 X98.782 Y140.713 E.01788
G1 X98.555 Y141.155 E.01793
G1 X98.417 Y141.644 E.01834
G1 X98.385 Y142.089 E.01613
G1 X98.197 Y142.028 E.00714
G1 X97.828 Y141.993 E.01339
G1 X95.048 Y142.186 E.1006
G1 X95.45 Y141.772 E.02083
G1 X95.744 Y141.237 E.02206
G1 X95.76 Y140.795 E.01594
G1 X95.695 Y140.558 E.00888
G1 X95.534 Y140.275 E.01175
G1 X94.978 Y139.558 E.03275
G1 X94.659 Y139.104 E.02007
G1 X94.465 Y138.891 E.01039
G1 X94.072 Y138.672 E.01622
G1 X93.928 Y138.674 E.0052
G1 X94.014 Y138.558 E.0052
G1 X94.071 Y138.231 E.01199
G1 X94.061 Y138.044 E.00673
G1 X93.954 Y137.66 E.0144
G1 X94.348 Y137.632 E.01425
G1 X94.828 Y137.505 E.01791
G1 X95.368 Y137.222 E.02204
G1 X95.781 Y136.873 E.0195
G1 X96.147 Y136.392 E.02185
G1 X96.353 Y135.942 E.01785
G1 X96.465 Y135.483 E.01705
G1 X96.49 Y134.968 E.01865
G1 X96.419 Y134.494 E.01729
G1 X96.255 Y134.027 E.01788
G1 X95.997 Y133.588 E.01838
G1 X95.667 Y133.22 E.01785
G1 X95.273 Y132.922 E.01785
G1 X94.828 Y132.705 E.01787
G1 X94.348 Y132.578 E.01791
G1 X93.954 Y132.55 E.01426
G1 X94.005 Y132.396 E.00584
G1 X94.071 Y131.979 E.01524
G1 X94.014 Y131.652 E.01199
G1 X93.928 Y131.536 E.00521
G1 X94.072 Y131.537 E.00521
G1 X94.37 Y131.391 E.01199
G1 X94.637 Y131.136 E.01331
G1 X95.192 Y130.389 E.03362
G1 X95.555 Y129.974 E.0199
G1 X95.945 Y129.595 E.01963
G1 X96.369 Y129.237 E.02004
G1 X96.804 Y128.924 E.01933
G1 X97.27 Y128.648 E.01958
G1 X97.924 Y128.319 E.02641
G1 X98.396 Y128.117 E.01856
G1 X98.389 Y128.248 E.00474
G1 X98.479 Y128.833 E.02137
G1 X98.67 Y129.304 E.01835
G1 X98.944 Y129.719 E.01793
G1 X99.291 Y130.071 E.01788
G1 X99.7 Y130.35 E.01785
G1 X100.154 Y130.545 E.01785
G1 X100.545 Y130.633 E.01446
G1 X101.09 Y130.66 E.01972
G1 X101.619 Y130.573 E.01934
G1 X102.08 Y130.395 E.01785
G1 X102.625 Y130.03 E.02369
G1 X102.984 Y129.64 E.01915
G1 X103.252 Y129.191 E.01887
G1 X103.428 Y128.652 E.02049
G1 X103.475 Y128.122 E.01918
G1 X103.986 Y128.339 E.02005
G1 X104.691 Y128.704 E.02865
G1 X105.131 Y128.971 E.0186
G1 X105.561 Y129.289 E.01932
G1 X105.981 Y129.65 E.01998
G1 X106.367 Y130.034 E.01965
G1 X106.72 Y130.441 E.01947
G1 X107.116 Y130.984 E.02427
G1 X107.388 Y131.425 E.01869
G1 X107.684 Y131.99 E.02305
G1 X107.927 Y132.394 E.017
G1 X108.139 Y132.55 E.00952
;WIDTH:0.451367
G1 X108.239 Y132.59 E.00347
;WIDTH:0.422053
G1 X108.339 Y132.63 E.00322
;WIDTH:0.428492
G1 X108.178 Y132.602 E.00497
;WIDTH:0.464246
G1 X108.103 Y132.588 E.00256
;WIPE_START
G1 X108.018 Y132.573 E-.02587
G1 X107.857 Y132.545 E-.04893
G1 X107.367 Y132.607 E-.14833
G1 X106.83 Y132.79 E-.17009
G1 X106.333 Y133.101 E-.176
G1 X106.26 Y133.174 E-.03077
;WIPE_END
G1 Z.4 F42000
G1 X104.13 Y136.261 Z.4
G1 Z.2
G1 E.6 F2400
;WIDTH:0.499999
G1 F3600
G1 X104.058 Y136.467 E.00787
G1 X103.693 Y137.102 E.02645
G1 X103.316 Y137.547 E.02106
G1 X102.854 Y137.913 E.02126
G1 X102.443 Y138.155 E.01723
G1 X101.916 Y138.374 E.0206
G1 X101.367 Y138.483 E.02021
G1 X100.889 Y138.506 E.01728
G1 X100.378 Y138.473 E.01848
G1 X99.882 Y138.353 E.01845
G1 X99.34 Y138.12 E.0213
G1 X98.903 Y137.846 E.01862
G1 X98.349 Y137.33 E.02733
G1 X97.918 Y136.699 E.02759
G1 X97.704 Y136.206 E.01941
G1 X97.545 Y135.487 E.02658
G1 X97.544 Y134.724 E.02756
G1 X97.648 Y134.181 E.01995
G1 X97.822 Y133.702 E.0184
G1 X98.13 Y133.174 E.02207
G1 X98.349 Y132.88 E.01323
G1 X98.711 Y132.519 E.01848
G1 X99.129 Y132.21 E.01878
G1 X99.581 Y131.985 E.01823
G1 X100.051 Y131.811 E.01807
G1 X100.554 Y131.717 E.01848
G1 X101.102 Y131.697 E.01982
G1 X101.637 Y131.778 E.01952
G1 X102.08 Y131.896 E.01654
G1 X102.609 Y132.131 E.02093
G1 X103.075 Y132.461 E.02061
G1 X103.384 Y132.736 E.01493
G1 X103.658 Y133.053 E.01513
G1 X103.947 Y133.512 E.0196
G1 X104.152 Y133.982 E.01849
G1 X104.293 Y134.512 E.01982
G1 X104.335 Y135.112 E.02173
