; HEADER_BLOCK_START
; generated by OrcaSlicer 2.1.0 on 2024-11-05 at 12:45:24
; total layer number: 16
; filament_density: 1.27
; filament_diameter: 1.75
; max_z_height: 3.20
; HEADER_BLOCK_END

; THUMBNAIL_BLOCK_START

;
; THUMBNAIL_BLOCK_END

; THUMBNAIL_BLOCK_START

;
; THUMBNAIL_BLOCK_END

; external perimeters extrusion width = 0.42mm
; perimeters extrusion width = 0.45mm
; infill extrusion width = 0.45mm
; solid infill extrusion width = 0.42mm
; top infill extrusion width = 0.42mm
; support material extrusion width = 0.42mm
; first layer extrusion width = 0.50mm

; EXECUTABLE_BLOCK_START
EXCLUDE_OBJECT_DEFINE NAME=номер.stp_id_0_copy_0 CENTER=110.239,168.414 POLYGON=[[12.6886,140.664],[12.6944,140.448],[12.712,140.232],[12.7413,140.017],[12.7821,139.805],[12.8344,139.594],[12.8979,139.387],[12.9727,139.184],[13.0583,138.985],[13.1545,138.791],[13.2611,138.602],[13.3778,138.42],[13.5042,138.244],[13.6399,138.075],[13.7846,137.914],[13.9378,137.76],[14.099,137.616],[14.2679,137.48],[14.4438,137.354],[14.6263,137.237],[14.8149,137.13],[15.009,137.034],[15.208,136.948],[15.4114,136.874],[15.6185,136.81],[15.8287,136.758],[16.0414,136.717],[16.2561,136.688],[16.472,136.67],[16.6886,136.664],[204.789,136.664],[204.977,136.67],[205.165,136.688],[205.351,136.718],[205.535,136.759],[205.716,136.811],[205.893,136.875],[206.066,136.95],[206.234,137.035],[206.396,137.131],[206.552,137.237],[206.701,137.353],[206.842,137.477],[206.975,137.611],[207.1,137.752],[207.216,137.901],[207.322,138.057],[207.417,138.219],[207.503,138.387],[207.578,138.56],[207.642,138.737],[207.694,138.918],[207.735,139.102],[207.765,139.288],[207.783,139.476],[207.789,139.664],[207.789,197.164],[207.783,197.353],[207.765,197.54],[207.735,197.727],[207.694,197.91],[207.642,198.091],[207.578,198.269],[207.503,198.442],[207.417,198.61],[207.322,198.772],[207.216,198.928],[207.1,199.077],[206.975,199.218],[206.842,199.351],[206.701,199.476],[206.552,199.591],[206.396,199.697],[206.234,199.793],[206.066,199.879],[205.893,199.954],[205.716,200.018],[205.535,200.07],[205.351,200.111],[205.165,200.141],[204.977,200.158],[204.789,200.164],[16.6886,200.164],[16.472,200.159],[16.2561,200.141],[16.0414,200.112],[15.8287,200.071],[15.6185,200.019],[15.4114,199.955],[15.208,199.88],[15.009,199.795],[14.8149,199.698],[14.6263,199.592],[14.4438,199.475],[14.2679,199.349],[14.099,199.213],[13.9378,199.068],[13.7846,198.915],[13.6399,198.754],[13.5042,198.585],[13.3778,198.409],[13.2611,198.227],[13.1545,198.038],[13.0583,197.844],[12.9727,197.645],[12.8979,197.442],[12.8344,197.235],[12.7821,197.024],[12.7413,196.812],[12.712,196.597],[12.6944,196.381],[12.6886,196.164],[12.6886,140.664]]
M73 P0 R46
M106 S0
M106 P2 S0
;TYPE:Custom
M140 S0
M104 S0 
START_PRINT EXTRUDER_TEMP=250 BED_TEMP=80
G90
G21
M83 ; use relative distances for extrusion
; filament start gcode
M106 S0
M106 P2 S0
;LAYER_CHANGE
;Z:0.2
;HEIGHT:0.2
;BEFORE_LAYER_CHANGE
;0.2
G92 E0

G1 E-.6 F2400
;_SET_FAN_SPEED_CHANGING_LAYER
SET_VELOCITY_LIMIT ACCEL=500 ACCEL_TO_DECEL=250
SET_VELOCITY_LIMIT SQUARE_CORNER_VELOCITY=9
EXCLUDE_OBJECT_START NAME=номер.stp_id_0_copy_0
G1 Z.2 F42000
G1 X205.928 Y197.546
G1 Z.2
G1 E.6 F2400
;TYPE:Inner wall
;WIDTH:0.499999
G1 F3600
G1 X205.833 Y197.793 E.00966
G1 X205.535 Y198.125 E.01628
G1 X205.14 Y198.332 E.01627
G1 X204.734 Y198.393 E.01497
G1 X16.528 Y198.393 E6.8669
G1 X15.923 Y198.244 E.02272
G1 X15.442 Y198.005 E.01962
G1 X15.037 Y197.643 E.01981
G1 X14.724 Y197.206 E.01961
G1 X14.538 Y196.699 E.01969
G1 X14.46 Y196.097 E.02217
G1 X14.465 Y140.566 E2.02609
G1 X14.575 Y139.97 E.02211
G1 X14.821 Y139.471 E.02031
G1 X15.174 Y139.034 E.0205
G1 X15.647 Y138.7 E.02112
G1 X16.154 Y138.514 E.01969
G1 X16.756 Y138.436 E.02218
G1 X204.651 Y138.441 E6.85554
G1 X205.093 Y138.482 E.01619
G1 X205.507 Y138.676 E.01666
G1 X205.82 Y139.01 E.0167
G1 X205.956 Y139.325 E.01253
G1 X206.017 Y139.807 E.01774
G1 X206.012 Y197.327 E2.09865
G1 X205.942 Y197.508 E.00709
G1 X206.365 Y197.685 F42000
G1 F3600
G1 X206.218 Y198.045 E.01419
G1 X205.815 Y198.486 E.02178
G1 X205.289 Y198.767 E.02176
G1 X204.749 Y198.85 E.01996
G1 X16.481 Y198.85 E6.86913
G1 X15.766 Y198.673 E.0269
G1 X15.184 Y198.385 E.02369
G1 X14.697 Y197.948 E.02388
G1 X14.319 Y197.421 E.02366
G1 X14.095 Y196.81 E.02375
G1 X14.003 Y196.115 E.02556
G1 X14.008 Y140.72 E2.02114
G1 X14.071 Y140.073 E.02373
G1 X14.233 Y139.607 E.018
G1 X14.553 Y139.041 E.02371
G1 X14.953 Y138.622 E.02116
G1 X15.432 Y138.295 E.02115
G1 X16.043 Y138.07 E.02375
G1 X16.738 Y137.979 E.02556
G1 X204.651 Y137.984 E6.85622
G1 X205.207 Y138.037 E.02037
G1 X205.639 Y138.224 E.01718
G1 X206.014 Y138.514 E.01728
G1 X206.279 Y138.905 E.01724
G1 X206.439 Y139.349 E.01724
G1 X206.474 Y139.807 E.01676
G1 X206.469 Y197.127 E2.09137
G1 X206.415 Y197.565 E.01609
G1 X206.38 Y197.648 E.00329
G1 X206.799 Y197.847 F42000
G1 F3600
G1 X206.603 Y198.297 E.01791
G1 X206.244 Y198.731 E.02053
G1 X205.948 Y198.962 E.01372
G1 X205.439 Y199.202 E.02053
G1 X205.212 Y199.253 E.00849
G1 X204.764 Y199.307 E.01647
G1 X16.457 Y199.307 E6.87054
G1 X15.848 Y199.19 E.02263
G1 X15.37 Y199.015 E.0186
G1 X14.927 Y198.764 E.01858
G1 X14.525 Y198.44 E.01883
G1 X14.189 Y198.065 E.01837
G1 X13.914 Y197.635 E.01861
G1 X13.712 Y197.167 E.0186
G1 X13.589 Y196.673 E.0186
G1 X13.546 Y196.134 E.01972
G1 X13.551 Y140.504 E2.02971
G1 X13.623 Y139.98 E.01929
G1 X13.814 Y139.426 E.02138
G1 X14.051 Y138.979 E.01848
G1 X14.359 Y138.574 E.01854
G1 X14.78 Y138.169 E.02131
G1 X15.218 Y137.89 E.01895
G1 X15.686 Y137.688 E.0186
G1 X16.18 Y137.565 E.01859
G1 X16.719 Y137.521 E.01973
G1 X204.736 Y137.527 E6.85998
G1 X205.321 Y137.592 E.02148
G1 X205.7 Y137.728 E.01468
G1 X206.046 Y137.933 E.01469
G1 X206.348 Y138.2 E.01469
G1 X206.595 Y138.518 E.01469
G1 X206.778 Y138.877 E.01469
G1 X206.89 Y139.263 E.01469
G1 X206.931 Y139.807 E.0199
G1 X206.926 Y197.299 E2.09763
G1 X206.828 Y197.781 E.01795
M73 P1 R46
G1 X206.815 Y197.81 E.00117
G1 X207.22 Y198.061 F42000
;TYPE:Outer wall
G1 F3600
G1 X207.205 Y198.121 E.00226
G1 X206.987 Y198.549 E.01752
G1 X206.565 Y199.061 E.02421
G1 X206.188 Y199.354 E.0174
G1 X205.588 Y199.637 E.02421
G1 X205.312 Y199.699 E.01034
G1 X204.778 Y199.764 E.01961
G1 X16.853 Y199.764 E6.85663
G1 X16.303 Y199.743 E.0201
G1 X15.726 Y199.632 E.02144
G1 X15.177 Y199.431 E.02132
G1 X14.669 Y199.143 E.02131
G1 X14.209 Y198.773 E.02155
G1 X13.823 Y198.343 E.02108
G1 X13.509 Y197.85 E.02132
G1 X13.278 Y197.314 E.02131
G1 X13.137 Y196.747 E.02132
G1 X13.089 Y196.152 E.02176
G1 X13.094 Y140.72 E2.0225
G1 X13.148 Y140.082 E.02337
G1 X13.279 Y139.512 E.02132
G1 X13.509 Y138.979 E.0212
G1 X13.823 Y138.486 E.02131
G1 X14.088 Y138.191 E.01446
G1 X14.508 Y137.801 E.02092
G1 X15.003 Y137.485 E.02144
G1 X15.539 Y137.254 E.02132
G1 X16.106 Y137.113 E.02131
G1 X16.701 Y137.064 E.02177
G1 X204.736 Y137.07 E6.86066
G1 X205.435 Y137.147 E.02566
G1 X205.895 Y137.313 E.01784
G1 X206.316 Y137.562 E.01785
G1 X206.683 Y137.885 E.01785
G1 X206.983 Y138.272 E.01785
G1 X207.205 Y138.708 E.01785
G1 X207.341 Y139.178 E.01785
G1 X207.389 Y139.807 E.02305
G1 X207.383 Y197.397 E2.1012
G1 X207.229 Y198.022 E.0235
;WIPE_START
G1 X207.205 Y198.121 E-.0306
G1 X206.987 Y198.549 E-.14408
G1 X206.565 Y199.061 E-.19906
G1 X206.188 Y199.354 E-.14305
G1 X205.937 Y199.472 E-.08321
;WIPE_END
G1 Z.4 F42000
G1 X205.88 Y140.162 Z.4
G1 Z.2
G1 E.6 F2400
;TYPE:Bottom surface
;WIDTH:0.50051
G1 F6300
G1 X204.502 Y138.784 E.07121
G1 X203.855 Y138.784 E.02364
G1 X205.674 Y140.604 E.09401
G1 X205.674 Y141.251 E.02364
G1 X203.207 Y138.784 E.12744
G1 X202.56 Y138.784 E.02364
G1 X205.674 Y141.898 E.16086
G1 X205.674 Y142.545 E.02364
G1 X201.913 Y138.784 E.19429
G1 X201.266 Y138.784 E.02364
G1 X205.674 Y143.192 E.22772
G1 X205.674 Y143.839 E.02364
G1 X200.619 Y138.784 E.26114
G1 X199.972 Y138.784 E.02364
G1 X205.674 Y144.486 E.29457
G1 X205.674 Y145.133 E.02364
G1 X199.324 Y138.784 E.32799
G1 X198.677 Y138.784 E.02364
G1 X205.674 Y145.78 E.36142
G1 X205.674 Y146.427 E.02364
G1 X198.03 Y138.784 E.39485
G1 X197.383 Y138.784 E.02364
G1 X205.674 Y147.075 E.42827
G1 X205.674 Y147.722 E.02364
G1 X196.736 Y138.784 E.4617
G1 X196.089 Y138.784 E.02364
G1 X205.674 Y148.369 E.49513
G1 X205.674 Y149.016 E.02364
G1 X195.442 Y138.784 E.52855
G1 X194.794 Y138.784 E.02364
G1 X205.674 Y149.663 E.56198
G1 X205.673 Y150.31 E.02364
G1 X194.147 Y138.784 E.59541
G1 X193.5 Y138.784 E.02364
G1 X205.673 Y150.957 E.62883
G1 X205.673 Y151.604 E.02364
G1 X192.853 Y138.784 E.66226
G1 X192.206 Y138.784 E.02364
G1 X205.673 Y152.251 E.69568
G1 X205.673 Y152.898 E.02364
G1 X191.559 Y138.784 E.72911
G1 X190.912 Y138.784 E.02364
G1 X205.673 Y153.545 E.76254
G1 X205.673 Y154.192 E.02364
G1 X190.264 Y138.784 E.79596
G1 X189.617 Y138.784 E.02364
G1 X205.673 Y154.839 E.82939
G1 X205.673 Y155.486 E.02364
G1 X188.97 Y138.783 E.86282
G1 X188.323 Y138.783 E.02364
G1 X205.673 Y156.133 E.89624
G1 X205.673 Y156.78 E.02364
G1 X187.676 Y138.783 E.92967
G1 X187.029 Y138.783 E.02364
G1 X205.673 Y157.428 E.96309
G1 X205.673 Y158.075 E.02364
G1 X186.381 Y138.783 E.99652
G1 X185.734 Y138.783 E.02364
G1 X205.673 Y158.722 E1.02995
G1 X205.673 Y159.369 E.02364
G1 X185.087 Y138.783 E1.06337
G1 X184.44 Y138.783 E.02364
G1 X205.673 Y160.016 E1.0968
M73 P1 R45
G1 X205.672 Y160.663 E.02364
G1 X183.793 Y138.783 E1.13023
G1 X183.146 Y138.783 E.02364
G1 X205.672 Y161.31 E1.16365
G1 X205.672 Y161.957 E.02364
G1 X182.499 Y138.783 E1.19708
G1 X181.851 Y138.783 E.02364
G1 X205.672 Y162.604 E1.2305
G1 X205.672 Y163.251 E.02364
G1 X181.204 Y138.783 E1.26393
G1 X180.557 Y138.783 E.02364
G1 X205.672 Y163.898 E1.29736
G1 X205.672 Y164.545 E.02364
G1 X179.91 Y138.783 E1.33078
G1 X179.263 Y138.783 E.02364
G1 X205.672 Y165.192 E1.36421
G1 X205.672 Y165.839 E.02364
G1 X178.616 Y138.783 E1.39764
G1 X177.969 Y138.783 E.02364
G1 X205.672 Y166.486 E1.43106
G1 X205.672 Y167.134 E.02364
G1 X177.321 Y138.783 E1.46449
G1 X176.674 Y138.783 E.02364
G1 X205.672 Y167.781 E1.49791
G1 X205.672 Y168.428 E.02364
G1 X176.027 Y138.783 E1.53134
M73 P2 R45
G1 X175.38 Y138.783 E.02364
G1 X205.672 Y169.075 E1.56477
G1 X205.672 Y169.722 E.02364
G1 X174.733 Y138.783 E1.59819
G1 X174.086 Y138.783 E.02364
G1 X205.671 Y170.369 E1.63162
G1 X205.671 Y171.016 E.02364
G1 X173.439 Y138.783 E1.66505
G1 X172.791 Y138.783 E.02364
G1 X205.671 Y171.663 E1.69847
G1 X205.671 Y172.31 E.02364
G1 X172.144 Y138.783 E1.7319
G1 X171.497 Y138.783 E.02364
G1 X205.671 Y172.957 E1.76533
G1 X205.671 Y173.604 E.02364
G1 X170.85 Y138.783 E1.79875
G1 X170.203 Y138.783 E.02364
G1 X205.671 Y174.251 E1.83218
G1 X205.671 Y174.898 E.02364
G1 X169.556 Y138.783 E1.8656
G1 X168.908 Y138.783 E.02364
G1 X205.671 Y175.545 E1.89903
G1 X205.671 Y176.192 E.02364
G1 X168.261 Y138.783 E1.93246
G1 X167.614 Y138.783 E.02364
G1 X205.671 Y176.84 E1.96588
G1 X205.671 Y177.487 E.02364
G1 X166.967 Y138.783 E1.99931
G1 X166.32 Y138.783 E.02364
G1 X205.671 Y178.134 E2.03274
G1 X205.671 Y178.781 E.02364
G1 X165.673 Y138.783 E2.06616
G1 X165.026 Y138.783 E.02364
G1 X205.671 Y179.428 E2.09959
G1 X205.671 Y180.075 E.02364
G1 X164.378 Y138.783 E2.13301
G1 X163.731 Y138.783 E.02364
G1 X205.67 Y180.722 E2.16644
G1 X205.67 Y181.369 E.02364
G1 X163.084 Y138.783 E2.19987
G1 X162.437 Y138.783 E.02364
G1 X205.67 Y182.016 E2.23329
G1 X205.67 Y182.663 E.02364
G1 X161.79 Y138.783 E2.26672
G1 X161.143 Y138.783 E.02364
G1 X205.67 Y183.31 E2.30015
G1 X205.67 Y183.957 E.02364
G1 X160.496 Y138.783 E2.33357
G1 X159.848 Y138.783 E.02364
G1 X205.67 Y184.604 E2.367
G1 X205.67 Y185.251 E.02364
G1 X159.201 Y138.783 E2.40042
G1 X158.554 Y138.783 E.02364
G1 X205.67 Y185.898 E2.43385
G1 X205.67 Y186.546 E.02364
G1 X157.907 Y138.783 E2.46728
G1 X157.26 Y138.783 E.02364
G1 X205.67 Y187.193 E2.5007
G1 X205.67 Y187.84 E.02364
G1 X156.613 Y138.783 E2.53413
G1 X155.965 Y138.783 E.02364
G1 X205.67 Y188.487 E2.56756
G1 X205.67 Y189.134 E.02364
G1 X155.318 Y138.783 E2.60098
G1 X154.671 Y138.782 E.02364
G1 X205.67 Y189.781 E2.63441
G1 X205.669 Y190.428 E.02364
G1 X154.024 Y138.782 E2.66783
G1 X153.377 Y138.782 E.02364
G1 X205.669 Y191.075 E2.70126
G1 X205.669 Y191.722 E.02364
G1 X152.73 Y138.782 E2.73469
M73 P3 R45
G1 X152.083 Y138.782 E.02364
G1 X205.669 Y192.369 E2.76811
G1 X205.669 Y193.016 E.02364
G1 X151.435 Y138.782 E2.80154
G1 X150.788 Y138.782 E.02364
G1 X205.669 Y193.663 E2.83497
G1 X205.669 Y194.31 E.02364
G1 X150.141 Y138.782 E2.86839
G1 X149.494 Y138.782 E.02364
G1 X205.669 Y194.957 E2.90182
G1 X205.669 Y195.604 E.02364
G1 X148.847 Y138.782 E2.93525
G1 X148.2 Y138.782 E.02364
G1 X205.669 Y196.252 E2.96867
G1 X205.669 Y196.899 E.02364
G1 X147.553 Y138.782 E3.0021
G1 X146.905 Y138.782 E.02364
G1 X205.605 Y197.482 E3.03222
G1 X205.545 Y197.604 E.00497
G1 X205.328 Y197.852 E.01204
G1 X146.258 Y138.782 E3.05133
G1 X145.611 Y138.782 E.02364
G1 X204.87 Y198.041 E3.06111
G1 X204.232 Y198.05 E.0233
G1 X144.964 Y138.782 E3.0616
G1 X144.317 Y138.782 E.02364
G1 X203.585 Y198.05 E3.0616
G1 X202.938 Y198.05 E.02364
G1 X143.67 Y138.782 E3.0616
G1 X143.023 Y138.782 E.02364
G1 X202.291 Y198.05 E3.0616
G1 X201.644 Y198.05 E.02364
G1 X142.375 Y138.782 E3.0616
G1 X141.728 Y138.782 E.02364
G1 X200.996 Y198.05 E3.0616
G1 X200.349 Y198.05 E.02364
G1 X141.081 Y138.782 E3.0616
G1 X140.434 Y138.782 E.02364
G1 X199.702 Y198.05 E3.0616
G1 X199.055 Y198.05 E.02364
G1 X139.787 Y138.782 E3.06161
G1 X139.14 Y138.782 E.02364
G1 X198.408 Y198.05 E3.06161
G1 X197.761 Y198.05 E.02364
G1 X138.492 Y138.782 E3.06161
G1 X137.845 Y138.782 E.02364
G1 X197.114 Y198.05 E3.06161
G1 X196.467 Y198.05 E.02364
G1 X137.198 Y138.782 E3.06161
G1 X136.551 Y138.782 E.02364
G1 X195.819 Y198.05 E3.06161
M73 P3 R44
G1 X195.172 Y198.05 E.02364
G1 X135.904 Y138.782 E3.06161
G1 X135.257 Y138.782 E.02364
G1 X194.525 Y198.05 E3.06161
G1 X193.878 Y198.05 E.02364
G1 X134.61 Y138.782 E3.06161
M73 P4 R44
G1 X133.962 Y138.782 E.02364
G1 X193.231 Y198.05 E3.06161
G1 X192.584 Y198.05 E.02364
G1 X133.315 Y138.782 E3.06162
G1 X132.668 Y138.782 E.02364
G1 X191.937 Y198.05 E3.06162
G1 X191.289 Y198.05 E.02364
G1 X132.021 Y138.782 E3.06162
G1 X131.374 Y138.782 E.02364
G1 X190.642 Y198.05 E3.06162
G1 X189.995 Y198.05 E.02364
G1 X130.727 Y138.782 E3.06162
G1 X130.08 Y138.782 E.02364
G1 X189.348 Y198.05 E3.06162
G1 X188.701 Y198.05 E.02364
G1 X129.432 Y138.782 E3.06162
G1 X128.785 Y138.782 E.02364
G1 X188.054 Y198.05 E3.06162
G1 X187.407 Y198.05 E.02364
G1 X128.138 Y138.782 E3.06162
G1 X127.491 Y138.782 E.02364
G1 X186.76 Y198.05 E3.06162
G1 X186.112 Y198.05 E.02364
G1 X126.844 Y138.782 E3.06163
G1 X126.197 Y138.782 E.02364
G1 X185.465 Y198.05 E3.06163
G1 X184.818 Y198.05 E.02364
G1 X125.549 Y138.782 E3.06163
G1 X124.902 Y138.782 E.02364
G1 X184.171 Y198.05 E3.06163
G1 X183.524 Y198.05 E.02364
G1 X124.255 Y138.782 E3.06163
G1 X123.608 Y138.782 E.02364
G1 X182.877 Y198.05 E3.06163
G1 X182.23 Y198.05 E.02364
G1 X122.961 Y138.782 E3.06163
G1 X122.314 Y138.782 E.02364
G1 X181.583 Y198.05 E3.06163
G1 X180.935 Y198.05 E.02364
G1 X121.667 Y138.782 E3.06163
G1 X121.019 Y138.781 E.02364
G1 X180.288 Y198.05 E3.06163
G1 X179.641 Y198.05 E.02364
G1 X120.372 Y138.781 E3.06163
G1 X119.725 Y138.781 E.02364
G1 X178.994 Y198.05 E3.06164
G1 X178.347 Y198.05 E.02364
G1 X119.078 Y138.781 E3.06164
G1 X118.431 Y138.781 E.02364
G1 X177.7 Y198.05 E3.06164
G1 X177.053 Y198.05 E.02364
G1 X117.784 Y138.781 E3.06164
G1 X117.137 Y138.781 E.02364
G1 X176.406 Y198.05 E3.06164
M73 P5 R44
G1 X175.758 Y198.05 E.02364
G1 X116.489 Y138.781 E3.06164
G1 X115.842 Y138.781 E.02364
G1 X175.111 Y198.05 E3.06164
G1 X174.464 Y198.05 E.02364
G1 X115.195 Y138.781 E3.06164
G1 X114.548 Y138.781 E.02364
G1 X173.817 Y198.05 E3.06164
G1 X173.17 Y198.05 E.02364
G1 X113.901 Y138.781 E3.06164
G1 X113.254 Y138.781 E.02364
G1 X172.523 Y198.05 E3.06165
G1 X171.876 Y198.05 E.02364
G1 X112.607 Y138.781 E3.06165
G1 X111.959 Y138.781 E.02364
G1 X171.228 Y198.05 E3.06165
G1 X170.581 Y198.05 E.02364
G1 X111.312 Y138.781 E3.06165
G1 X110.665 Y138.781 E.02364
G1 X169.934 Y198.05 E3.06165
G1 X169.287 Y198.05 E.02364
G1 X110.018 Y138.781 E3.06165
