; HEADER_BLOCK_START
; generated by OrcaSlicer 2.1.0 on 2025-02-25 at 10:52:06
; total layer number: 25
; filament_density: 1.27
; filament_diameter: 1.75
; max_z_height: 5.00
; HEADER_BLOCK_END

; THUMBNAIL_BLOCK_START

;
; THUMBNAIL_BLOCK_END

; THUMBNAIL_BLOCK_START

;
; THUMBNAIL_BLOCK_END

; external perimeters extrusion width = 0.42mm
; perimeters extrusion width = 0.45mm
; infill extrusion width = 0.45mm
; solid infill extrusion width = 0.42mm
; top infill extrusion width = 0.42mm
; support material extrusion width = 0.42mm
; first layer extrusion width = 0.50mm

; external perimeters extrusion width = 0.42mm
; perimeters extrusion width = 0.45mm
; infill extrusion width = 0.45mm
; solid infill extrusion width = 0.42mm
; top infill extrusion width = 0.42mm
; support material extrusion width = 0.42mm
; first layer extrusion width = 0.50mm

; EXECUTABLE_BLOCK_START
EXCLUDE_OBJECT_DEFINE NAME=писюн.stp_id_0_copy_0 CENTER=145.571,121.656 POLYGON=[[117.705,142.411],[118.385,135.313],[148.207,103.568],[150.67,101.435],[150.97,101.231],[151.275,101.035],[151.585,100.846],[154.548,99.4928],[154.894,99.3824],[155.242,99.2802],[155.592,99.1864],[158.817,98.7227],[159.18,98.714],[159.543,98.714],[159.905,98.7227],[163.13,99.1864],[163.481,99.2802],[163.829,99.3824],[164.174,99.4928],[167.127,100.84],[167.437,101.029],[167.742,101.225],[168.043,101.428],[170.507,103.559],[170.751,103.827],[170.989,104.101],[171.22,104.381],[172.984,107.12],[173.143,107.447],[173.293,107.776],[173.437,108.11],[171.409,116.813],[171.315,117.183],[171.21,117.55],[171.093,117.914],[170.966,118.273],[170.827,118.629],[170.677,118.981],[170.517,119.327],[170.346,119.669],[170.164,120.005],[169.972,120.335],[169.771,120.659],[169.559,120.977],[169.337,121.288],[169.106,121.592],[168.866,121.889],[168.617,122.178],[168.359,122.46],[168.092,122.733],[167.818,122.998],[145.323,143.763],[140.516,144.598],[117.705,142.411]]
EXCLUDE_OBJECT_DEFINE NAME=писюн_2.stp_id_1_copy_0 CENTER=89.8361,121.3 POLYGON=[[64.7456,147.162],[66.352,124.302],[67.9686,119.699],[92.1658,100.935],[92.4741,100.706],[92.7892,100.488],[93.111,100.279],[93.4391,100.081],[93.7732,99.8922],[94.113,99.7143],[94.4581,99.547],[94.8082,99.3905],[95.163,99.2448],[106.643,94.9395],[107.643,95.4438],[112.352,102.296],[112.55,102.6],[112.741,102.908],[112.925,103.221],[114.211,106.155],[114.316,106.502],[114.414,106.852],[114.503,107.203],[114.923,110.434],[114.927,110.797],[114.922,111.16],[114.908,111.522],[114.401,114.74],[114.302,115.089],[114.195,115.436],[114.08,115.78],[112.687,118.725],[112.494,119.032],[112.293,119.335],[112.086,119.632],[109.919,122.065],[109.647,122.306],[109.37,122.54],[109.087,122.767],[71.8585,147.661],[64.7456,147.162]]
M73 P0 R22
M106 S0
M106 P2 S0
;TYPE:Custom
M140 S0
M104 S0 
START_PRINT EXTRUDER_TEMP=250 BED_TEMP=90
M106 P3 S153
G90
G21
M83 ; use relative distances for extrusion
; filament start gcode
M106 S0
M106 P2 S0
;LAYER_CHANGE
;Z:0.2
;HEIGHT:0.2
;BEFORE_LAYER_CHANGE
;0.2
G92 E0

G1 E-.6 F2400
;_SET_FAN_SPEED_CHANGING_LAYER
SET_VELOCITY_LIMIT ACCEL=500 ACCEL_TO_DECEL=250
SET_VELOCITY_LIMIT SQUARE_CORNER_VELOCITY=9
EXCLUDE_OBJECT_START NAME=писюн.stp_id_0_copy_0
G1 Z.2 F42000
G1 X163.365 Y111.491
G1 Z.2
G1 E.6 F2400
;TYPE:Inner wall
;WIDTH:0.499999
G1 F3600
G1 X163.491 Y111.8 E.01207
;WIDTH:0.492001
G1 X163.76 Y112.31 E.02044
;WIDTH:0.499999
G1 X164.125 Y112.758 E.02089
G1 X164.565 Y113.135 E.02091
G1 X165.138 Y113.454 E.02366
G1 X165.591 Y113.633 E.01758
G1 X166.158 Y113.745 E.02089
G1 X166.737 Y113.759 E.02092
G1 X167.256 Y113.688 E.01888
G1 X167.809 Y113.508 E.02102
G1 X168.382 Y113.209 E.02334
G1 X168.837 Y112.849 E.02091
G1 X169.223 Y112.418 E.02091
G1 X169.529 Y111.926 E.02091
G1 X169.688 Y111.538 E.01515
G1 X169.763 Y111.858 E.01187
G1 X169.872 Y112.503 E.02363
G1 X169.942 Y113.154 E.02363
G1 X169.971 Y113.808 E.02363
G1 X169.96 Y114.45 E.02318
G1 X169.865 Y115.451 E.03634
G1 X169.756 Y116.084 E.02317
G1 X169.604 Y116.721 E.02363
G1 X169.414 Y117.347 E.02363
G1 X169.19 Y117.948 E.02317
G1 X168.768 Y118.862 E.03633
G1 X168.46 Y119.411 E.02273
G1 X167.906 Y120.242 E.03607
G1 X167.506 Y120.754 E.02344
G1 X167.08 Y121.233 E.02316
G1 X166.58 Y121.715 E.02505
G1 X166.137 Y122.105 E.02133
G1 X166.256 Y121.56 E.02013
G1 X166.28 Y120.957 E.02178
G1 X166.216 Y120.46 E.0181
G1 X166.085 Y119.984 E.01784
G1 X165.816 Y119.424 E.02241
G1 X165.428 Y118.874 E.02431
G1 X165.007 Y118.478 E.02089
G1 X164.523 Y118.159 E.02091
G1 X163.949 Y117.915 E.02251
G1 X163.445 Y117.794 E.01874
G1 X162.711 Y117.754 E.02654
G1 X162.081 Y117.863 E.02309
G1 X161.724 Y117.984 E.01359
;WIDTH:0.471878
G1 X161.206 Y118.237 E.01952
;WIDTH:0.499999
G1 X160.727 Y118.56 E.02089
G1 X160.274 Y119.038 E.02377
G1 X159.859 Y119.708 E.02844
G1 X159.662 Y120.252 E.02089
G1 X159.562 Y120.822 E.02091
G1 X159.559 Y121.392 E.02058
G1 X159.649 Y121.92 E.01932
G1 X159.755 Y122.276 E.01342
G1 X159.982 Y122.772 E.01969
G1 X160.312 Y123.254 E.02108
G1 X160.716 Y123.669 E.02091
G1 X161.247 Y124.04 E.02338
G1 X161.98 Y124.355 E.02882
G1 X162.543 Y124.467 E.02074
G1 X163.127 Y124.481 E.02108
G1 X163.55 Y124.422 E.01543
G1 X144.502 Y142.108 E.93849
G1 X140.448 Y142.812 E.14857
G1 X119.637 Y140.817 E.75485
G1 X119.979 Y137.245 E.12955
G1 X137.723 Y138.947 E.64359
G1 X138.149 Y138.93 E.01541
G1 X141.418 Y138.363 E.11977
G1 X141.939 Y138.07 E.02158
G1 X142.182 Y137.829 E.01237
G1 X142.366 Y137.545 E.01219
G1 X150.591 Y121.32 E.65681
G1 X150.733 Y120.813 E.01902
G1 X150.736 Y120.542 E.00976
G1 X150.984 Y120.652 E.00976
G1 X151.617 Y120.825 E.0237
G1 X152.115 Y120.876 E.01808
G1 X152.695 Y120.84 E.02098
G1 X153.26 Y120.704 E.02097
G1 X153.782 Y120.48 E.02053
G1 X154.229 Y120.189 E.01924
G1 X154.552 Y119.911 E.0154
G1 X154.919 Y119.483 E.02034
G1 X155.227 Y118.98 E.02131
G1 X155.414 Y118.501 E.01855
G1 X155.536 Y117.935 E.02091
G1 X155.56 Y117.357 E.02091
G1 X155.42 Y116.565 E.02902
;WIDTH:0.493014
G1 X155.169 Y115.979 E.02266
;WIDTH:0.499999
G1 X154.882 Y115.478 E.02085
G1 X154.493 Y115.046 E.02098
G1 X154.037 Y114.689 E.02091
G1 X153.463 Y114.4 E.02322
G1 X152.952 Y114.228 E.01948
G1 X152.419 Y114.148 E.01944
G1 X151.772 Y114.171 E.02337
G1 X151.202 Y114.288 E.02102
G1 X150.717 Y114.482 E.01885
G1 X150.221 Y114.78 E.02091
G1 X149.667 Y115.279 E.02693
G1 X149.3 Y115.795 E.02288
G1 X149.023 Y116.375 E.02318
G1 X148.915 Y116.108 E.01042
G1 X148.725 Y115.821 E.01239
G1 X148.387 Y115.531 E.01609
G1 X148.59 Y115.241 E.01278
G1 X148.689 Y114.997 E.0095
G1 X148.761 Y114.523 E.01732
G1 X148.761 Y113.687 E.03017
G1 X148.74 Y113.127 E.02025
G1 X148.588 Y112.659 E.01774
G1 X148.387 Y112.375 E.01257
G1 X148.66 Y112.159 E.01257
G1 X148.9 Y111.827 E.01479
G1 X149.107 Y111.249 E.02216
G1 X149.387 Y110.268 E.03685
G1 X149.403 Y109.768 E.01806
G1 X149.286 Y109.352 E.01558
G1 X149.677 Y109.167 E.01558
G1 X149.867 Y109.018 E.00874
G1 X150.135 Y108.701 E.01499
G1 X150.751 Y107.742 E.04115
G1 X150.955 Y107.277 E.01836
G1 X151.013 Y106.704 E.02079
G1 X151.577 Y106.574 E.02088
G1 X151.989 Y106.315 E.01756
G1 X152.594 Y105.79 E.02892
G1 X152.486 Y106.217 E.0159
G1 X152.437 Y106.794 E.02091
G1 X152.488 Y107.371 E.02091
G1 X152.66 Y107.96 E.02215
G1 X152.873 Y108.444 E.01909
G1 X153.12 Y108.826 E.01642
G1 X153.513 Y109.259 E.02113
G1 X153.915 Y109.578 E.01852
G1 X154.371 Y109.822 E.01867
G1 X154.869 Y110.022 E.01937
G1 X155.436 Y110.135 E.02089
G1 X156.015 Y110.148 E.02092
G1 X156.654 Y110.042 E.02339
G1 X157.138 Y109.859 E.01868
;WIDTH:0.477503
G1 X157.654 Y109.589 E.02001
;WIDTH:0.499999
G1 X158.114 Y109.239 E.02086
G1 X158.5 Y108.807 E.02091
G1 X158.807 Y108.316 E.02091
G1 X158.976 Y107.895 E.01639
G1 X159.145 Y107.227 E.02485
G1 X159.163 Y106.58 E.02337
G1 X159.087 Y106.02 E.02042
G1 X158.857 Y105.354 E.02542
G1 X158.529 Y104.811 E.02292
G1 X158.316 Y104.542 E.01239
G1 X157.895 Y104.145 E.02089
G1 X157.349 Y103.797 E.02338
;WIDTH:0.5314
G1 X156.814 Y103.554 E.02265
G1 X157.289 Y103.541 E.01831
;WIDTH:0.499999
G1 X158.634 Y103.332 E.04917
G1 X159.053 Y103.142 E.01662
G1 X159.361 Y102.865 E.01494
G1 X159.451 Y102.974 E.00511
G1 X159.825 Y103.23 E.01635
G1 X160.306 Y103.379 E.01817
G1 X161.434 Y103.541 E.04116
G1 X161.857 Y103.546 E.01529
G1 X162.279 Y103.434 E.01574
G1 X162.486 Y103.31 E.00872
G1 X162.594 Y103.526 E.00872
G1 X162.888 Y103.848 E.01574
G1 X163.247 Y104.074 E.01532
G1 X164.275 Y104.543 E.0408
G1 X164.662 Y104.663 E.01461
G1 X165.092 Y104.68 E.01555
G1 X165.351 Y104.617 E.0096
G1 X165.401 Y104.878 E.0096
G1 X165.596 Y105.262 E.01555
G1 X165.866 Y105.563 E.01459
G1 X166.726 Y106.307 E.04107
;WIDTH:0.509795
G1 X167.071 Y106.541 E.01536
;WIDTH:0.514648
G1 X167.398 Y106.661 E.01299
;WIDTH:0.516835
G1 X167.729 Y106.691 E.01244
G1 X167.704 Y106.912 E.00835
G1 X167.751 Y107.249 E.01273
G1 X167.694 Y107.225 E.00231
;WIDTH:0.520046
G1 X167.094 Y107.071 E.02334
G1 X166.448 Y107.03 E.0244
;WIDTH:0.499999
G1 X165.658 Y107.147 E.02884
G1 X165.33 Y107.249 E.01242
G1 X164.808 Y107.501 E.02092
G1 X164.337 Y107.838 E.0209
G1 X163.891 Y108.307 E.02338
G1 X163.6 Y108.732 E.01861
G1 X163.354 Y109.267 E.02124
G1 X163.208 Y109.827 E.02091
G1 X163.171 Y110.626 E.02886
G1 X163.273 Y111.264 E.02334
G1 X163.35 Y111.454 E.00738
;WIPE_START
G1 X163.491 Y111.8 E-.11229
G1 X163.76 Y112.31 E-.17288
G1 X164.125 Y112.758 E-.17357
G1 X164.483 Y113.065 E-.14127
;WIPE_END
G1 Z.4 F42000
G1 X168.273 Y107.313 Z.4
G1 Z.2
G1 E.6 F2400
G1 F3600
G1 X168.319 Y107.436 E.00474
G1 X168.605 Y107.884 E.01919
G1 X168.743 Y108.06 E.00808
;WIDTH:0.458859
G1 X168.881 Y108.237 E.00736
;WIDTH:0.417718
G1 X169.019 Y108.413 E.00663
;WIDTH:0.411095
G1 X169.188 Y108.599 E.00731
;WIDTH:0.445612
G1 X169.357 Y108.786 E.008
;WIDTH:0.488546
G1 X169.43 Y108.838 E.00317
;WIDTH:0.53148
G1 X169.503 Y108.891 E.00347
;WIDTH:0.574414
G1 X169.576 Y108.944 E.00378
;WIDTH:0.617347
G1 X169.649 Y108.996 E.00408
G1 X169.918 Y109.029 E.01231
G1 X170.205 Y108.99 E.01314
G1 X169.988 Y109.182 E.01314
G1 X169.837 Y109.408 E.01231
G1 X169.824 Y109.48 E.00336
;WIDTH:0.582043
G1 X169.811 Y109.553 E.00315
;WIDTH:0.546739
G1 X169.804 Y109.829 E.01096
;WIDTH:0.497628
G1 X169.796 Y110.104 E.00989
;WIDTH:0.479944
G1 X169.869 Y110.449 E.01216
;WIDTH:0.499999
G1 X170.056 Y111.104 E.02463
G1 X170.211 Y111.768 E.0246
G1 X170.325 Y112.441 E.02465
G1 X170.398 Y113.12 E.02464
G1 X170.428 Y113.802 E.02465
G1 X170.416 Y114.475 E.02432
G1 X170.318 Y115.512 E.03761
G1 X170.203 Y116.176 E.02432
G1 X170.046 Y116.84 E.02465
G1 X169.848 Y117.493 E.02464
G1 X169.613 Y118.124 E.02432
G1 X169.175 Y119.07 E.03761
G1 X168.85 Y119.65 E.024
G1 X168.277 Y120.51 E.03734
G1 X167.857 Y121.047 E.02459
G1 X167.41 Y121.55 E.02431
G1 X166.666 Y122.267 E.03728
G1 X165.739 Y123.013 E.04298
G1 X165.203 Y123.532 E.02694
;WIDTH:0.490247
G1 X164.802 Y123.89 E.01899
;WIDTH:0.499999
G1 X144.714 Y142.535 E.98957
G1 X140.466 Y143.273 E.15569
G1 X119.138 Y141.228 E.77358
G1 X119.568 Y136.746 E.16255
G1 X137.767 Y138.492 E.66009
G1 X138.071 Y138.48 E.01101
G1 X141.286 Y137.922 E.11781
G1 X141.716 Y137.66 E.0182
G1 X141.958 Y137.339 E.0145
G1 X150.211 Y121.044 E.6595
G1 X150.285 Y120.649 E.01449
G1 X150.185 Y120.174 E.01754
G1 X150.057 Y119.942 E.00957
G1 X149.951 Y119.803 E.00631
;WIDTH:0.457862
G1 X149.845 Y119.664 E.00573
;WIDTH:0.415725
G1 X149.74 Y119.525 E.00515
;WIDTH:0.373588
G1 X149.445 Y119.025 E.01516
;WIDTH:0.367484
G1 X149.146 Y118.368 E.0185
;WIDTH:0.410014
G1 X149.067 Y118.11 E.00783
;WIDTH:0.452543
G1 X148.989 Y117.851 E.00874
;WIDTH:0.499999
G1 X148.509 Y116.318 E.05802
G1 X148.373 Y116.113 E.00885
G1 X148.071 Y115.857 E.01433
G1 X147.505 Y115.701 E.02119
G1 X147.223 Y115.698 E.0102
G1 X147.493 Y115.616 E.0102
G1 X147.992 Y115.307 E.02119
G1 X148.182 Y115.036 E.01197
G1 X148.252 Y114.862 E.00678
G1 X148.303 Y114.523 E.01237
G1 X148.289 Y113.2 E.04776
G1 X148.18 Y112.866 E.01267
G1 X147.989 Y112.596 E.01195
G1 X147.493 Y112.29 E.02103
G1 X147.223 Y112.208 E.0102
G1 X147.505 Y112.205 E.0102
G1 X148.067 Y112.051 E.02103
G1 X148.327 Y111.846 E.01195
G1 X148.498 Y111.608 E.01057
G1 X148.668 Y111.12 E.01866
G1 X148.926 Y110.238 E.03317
G1 X148.949 Y109.825 E.01494
G1 X148.86 Y109.504 E.01202
G1 X148.442 Y109.013 E.02327
G1 X148.206 Y108.859 E.0102
G1 X148.478 Y108.936 E.0102
G1 X149.122 Y108.929 E.02327
G1 X149.423 Y108.787 E.01202
G1 X149.559 Y108.681 E.00624
G1 X149.751 Y108.454 E.01071
G1 X150.367 Y107.495 E.04115
G1 X150.512 Y107.163 E.01311
G1 X150.543 Y106.766 E.01435
G1 X150.276 Y106.137 E.02467
G1 X150.093 Y105.922 E.0102
G1 X150.332 Y106.073 E.0102
G1 X150.993 Y106.247 E.02467
G1 X151.395 Y106.154 E.01492
G1 X151.689 Y105.969 E.01254
G1 X152.188 Y105.537 E.02383
;WIDTH:0.541578
G1 X152.469 Y105.303 E.01441
;WIDTH:0.583157
G1 X152.75 Y105.069 E.01561
;WIDTH:0.592536
G1 X152.884 Y104.852 E.01108
G1 X152.912 Y104.547 E.01328
;WIDTH:0.546268
G1 X152.939 Y104.243 E.01216
;WIDTH:0.499999
G1 X152.846 Y103.894 E.01302
G1 X152.726 Y103.626 E.01062
G1 X152.908 Y103.837 E.01006
G1 X153.196 Y104.077 E.01355
G1 X153.449 Y104.187 E.00993
G1 X153.795 Y104.234 E.01263
G1 X153.986 Y104.192 E.00707
;WIDTH:0.454616
G1 X154.066 Y104.148 E.00296
;WIDTH:0.421176
G1 X154.146 Y104.105 E.00272
;WIDTH:0.387735
G1 X154.227 Y104.061 E.00248
;WIDTH:0.354294
G1 X154.694 Y103.846 E.01265
;WIDTH:0.395274
G1 X154.89 Y103.781 E.00576
;WIDTH:0.440281
G1 X155.086 Y103.716 E.0065
;WIDTH:0.485287
G1 X155.283 Y103.651 E.00723
;WIDTH:0.499999
G1 X155.568 Y103.474 E.01212
G1 X155.731 Y103.296 E.00872
G1 X155.923 Y102.882 E.01648
G1 X155.944 Y102.466 E.01503
G1 X155.906 Y102.186 E.0102
G1 X156.026 Y102.442 E.0102
G1 X156.268 Y102.781 E.01503
G1 X156.507 Y102.957 E.01073
G1 X156.886 Y103.087 E.01447
G1 X157.224 Y103.089 E.01217
G1 X158.006 Y102.976 E.02853
G1 X158.609 Y102.858 E.02218
G1 X158.962 Y102.637 E.01504
G1 X159.16 Y102.399 E.0112
G1 X159.318 Y101.969 E.01655
G1 X159.363 Y101.678 E.01062
G1 X159.402 Y101.954 E.01006
G1 X159.563 Y102.399 E.01707
G1 X159.761 Y102.637 E.0112
G1 X160.027 Y102.82 E.01168
G1 X160.371 Y102.927 E.01298
G1 X161.721 Y103.099 E.04914
G1 X162.102 Y103.012 E.01414
G1 X162.379 Y102.847 E.01165
G1 X162.697 Y102.442 E.01856
G1 X162.816 Y102.186 E.0102
G1 X162.779 Y102.466 E.0102
G1 X162.827 Y102.978 E.01856
G1 X162.97 Y103.267 E.01165
G1 X163.18 Y103.497 E.01124
G1 X163.437 Y103.658 E.01094
G1 X163.948 Y103.891 E.02028
G1 X164.656 Y104.194 E.0278
G1 X165.048 Y104.225 E.01422
G1 X165.364 Y104.148 E.01174
G1 X165.796 Y103.843 E.0191
G1 X165.991 Y103.622 E.01062
G1 X165.868 Y103.889 E.0106
G1 X165.771 Y104.409 E.0191
G1 X165.833 Y104.728 E.01174
G1 X165.91 Y104.902 E.00686
G1 X166.165 Y105.217 E.01465
G1 X167.168 Y106.067 E.04747
G1 X167.507 Y106.21 E.01327
G1 X167.905 Y106.234 E.01441
G1 X168.384 Y106.065 E.01833
G1 X168.623 Y105.915 E.0102
G1 X168.44 Y106.13 E.0102
G1 X168.206 Y106.58 E.01833
G1 X168.169 Y106.9 E.01161
G1 X168.191 Y107.097 E.00716
G1 X168.259 Y107.276 E.00691
;WIPE_START
G1 X168.319 Y107.436 E-.05142
G1 X168.605 Y107.884 E-.15947
G1 X168.743 Y108.06 E-.06717
G1 X168.881 Y108.237 E-.06717
G1 X169.019 Y108.413 E-.06717
G1 X169.188 Y108.599 E-.07543
G1 X169.357 Y108.786 E-.07543
G1 X169.43 Y108.838 E-.027
G1 X169.456 Y108.857 E-.00975
;WIPE_END
G1 Z.4 F42000
G1 X163.734 Y111.182 Z.4
G1 Z.2
G1 E.6 F2400
G1 F3600
G1 X163.654 Y110.87 E.01163
G1 X163.628 Y110.171 E.02525
G1 X163.719 Y109.627 E.0199
G1 X163.892 Y109.158 E.01806
G1 X164.268 Y108.566 E.02531
G1 X164.65 Y108.171 E.01984
G1 X165.059 Y107.883 E.01807
G1 X165.511 Y107.668 E.01808
G1 X166.194 Y107.508 E.02533
G1 X166.742 Y107.493 E.01978
G1 X167.302 Y107.601 E.02061
G1 X167.66 Y107.715 E.01356
G1 X168.103 Y107.948 E.01808
G1 X168.49 Y108.264 E.01802
;WIDTH:0.473321
G1 X168.651 Y108.48 E.00917
;WIDTH:0.425347
G1 X168.812 Y108.697 E.00815
;WIDTH:0.420981
G1 X168.918 Y108.838 E.00529
;WIDTH:0.464589
G1 X169.025 Y108.98 E.0059
;WIDTH:0.508197
G1 X169.131 Y109.122 E.00651
;WIDTH:0.551805
G1 X169.238 Y109.263 E.00712
;WIDTH:0.584576
G1 X169.275 Y109.318 E.00282
;WIDTH:0.617347
G1 X169.312 Y109.373 E.00299
G1 X169.332 Y109.568 E.00894
;WIDTH:0.57514
