; HEADER_BLOCK_START
; generated by OrcaSlicer 2.1.0 on 2025-03-12 at 18:53:21
; total layer number: 25
; filament_density: 1.27
; filament_diameter: 1.75
; max_z_height: 5.00
; HEADER_BLOCK_END

; THUMBNAIL_BLOCK_START

;
; THUMBNAIL_BLOCK_END

; THUMBNAIL_BLOCK_START

;
; THUMBNAIL_BLOCK_END

; external perimeters extrusion width = 0.42mm
; perimeters extrusion width = 0.45mm
; infill extrusion width = 0.45mm
; solid infill extrusion width = 0.42mm
; top infill extrusion width = 0.42mm
; support material extrusion width = 0.42mm
; first layer extrusion width = 0.50mm

; external perimeters extrusion width = 0.42mm
; perimeters extrusion width = 0.45mm
; infill extrusion width = 0.45mm
; solid infill extrusion width = 0.42mm
; top infill extrusion width = 0.42mm
; support material extrusion width = 0.42mm
; first layer extrusion width = 0.50mm

; EXECUTABLE_BLOCK_START
EXCLUDE_OBJECT_DEFINE NAME=писюн_ДЛИН_2.stp_id_0_copy_0 CENTER=119.425,92.9951 POLYGON=[[89.5627,120.35],[91.1691,97.4904],[92.7857,92.8877],[127.471,70.4797],[127.799,70.2811],[128.133,70.0928],[128.473,69.9149],[128.818,69.7475],[129.168,69.591],[129.523,69.4454],[141.004,65.14],[142.003,65.6443],[146.713,72.4963],[146.911,72.8001],[147.101,73.1085],[147.285,73.4214],[148.571,76.3558],[148.677,76.7028],[148.774,77.0522],[148.863,77.4037],[149.283,80.6347],[149.287,80.9974],[149.282,81.3601],[149.268,81.7225],[148.761,84.9409],[148.662,85.29],[148.555,85.6366],[148.44,85.9805],[147.047,88.9256],[146.854,89.2327],[146.654,89.5352],[146.446,89.8328],[144.279,92.2659],[144.008,92.5063],[143.73,92.74],[143.448,92.9672],[140.683,94.6913],[96.6756,120.85],[89.5627,120.35]]
EXCLUDE_OBJECT_DEFINE NAME=писюн_ДЛИН.stp_id_1_copy_0 CENTER=106.412,131.9 POLYGON=[[76.2849,157.114],[76.9656,150.016],[110.828,109.895],[111.065,109.621],[111.309,109.352],[113.772,107.219],[114.072,107.015],[114.377,106.819],[114.687,106.63],[117.65,105.277],[117.996,105.166],[118.344,105.064],[118.694,104.97],[121.919,104.507],[122.282,104.498],[122.645,104.498],[123.007,104.507],[126.232,104.97],[126.583,105.064],[126.931,105.166],[127.276,105.277],[130.229,106.624],[130.539,106.813],[130.845,107.009],[131.145,107.212],[133.609,109.343],[133.853,109.612],[134.091,109.886],[134.322,110.165],[136.086,112.905],[136.245,113.231],[136.396,113.56],[136.539,113.894],[134.511,122.597],[134.417,122.967],[134.312,123.334],[134.195,123.698],[134.068,124.058],[133.929,124.413],[133.779,124.765],[133.619,125.111],[133.448,125.453],[133.266,125.789],[133.074,126.119],[132.873,126.443],[132.661,126.761],[132.439,127.072],[132.209,127.376],[131.968,127.673],[131.719,127.962],[103.903,158.467],[99.0965,159.302],[76.2849,157.114]]
M73 P0 R24
M106 S0
M106 P2 S0
;TYPE:Custom
M140 S0
M104 S0 
START_PRINT EXTRUDER_TEMP=250 BED_TEMP=90
M106 P3 S153
G90
G21
M83 ; use relative distances for extrusion
; filament start gcode
M106 S0
M106 P2 S0
;LAYER_CHANGE
;Z:0.2
;HEIGHT:0.2
;BEFORE_LAYER_CHANGE
;0.2
G92 E0

G1 E-.6 F2400
;_SET_FAN_SPEED_CHANGING_LAYER
SET_VELOCITY_LIMIT ACCEL=500 ACCEL_TO_DECEL=250
SET_VELOCITY_LIMIT SQUARE_CORNER_VELOCITY=9
EXCLUDE_OBJECT_START NAME=писюн_ДЛИН_2.stp_id_0_copy_0
G1 Z.2 F42000
G1 X144.559 Y82.366
G1 Z.2
G1 E.6 F2400
;TYPE:Inner wall
;WIDTH:0.499999
G1 F3600
G1 X144.256 Y81.859 E.02134
G1 X143.81 Y81.344 E.02461
G1 X143.297 Y80.962 E.02307
G1 X142.717 Y80.671 E.02344
G1 X142.155 Y80.524 E.02099
G1 X141.597 Y80.453 E.0203
G1 X141.024 Y80.489 E.02074
G1 X140.442 Y80.631 E.02163
G1 X139.973 Y80.834 E.01844
G1 X139.643 Y81.027 E.01382
G1 X139.22 Y81.362 E.01946
G1 X138.833 Y81.793 E.02091
;WIDTH:0.542657
G1 X138.736 Y81.917 E.00623
;WIDTH:0.585315
G1 X138.639 Y82.042 E.00676
;WIDTH:0.627973
G1 X138.542 Y82.166 E.00729
;WIDTH:0.670631
G1 X138.445 Y82.291 E.00782
;WIDTH:0.713288
G1 X138.348 Y82.415 E.00836
G1 X138.214 Y82.761 E.01964
;WIDTH:0.708202
G1 X138.215 Y82.808 E.00247
;WIDTH:0.682817
G1 X138.216 Y82.855 E.00237
;WIDTH:0.657432
G1 X138.206 Y83.005 E.00728
;WIDTH:0.618074
G1 X138.197 Y83.154 E.00682
;WIDTH:0.578716
G1 X138.188 Y83.304 E.00635
;WIDTH:0.539358
G1 X138.178 Y83.454 E.00588
;WIDTH:0.499999
G1 X138.158 Y83.97 E.01864
G1 X138.231 Y84.482 E.01868
G1 X138.403 Y85.092 E.02286
G1 X138.667 Y85.607 E.02089
G1 X139.065 Y86.118 E.02338
G1 X139.453 Y86.478 E.01914
G1 X139.934 Y86.791 E.02071
G1 X140.467 Y87.019 E.02091
G1 X141.03 Y87.153 E.02091
G1 X141.608 Y87.188 E.02091
G1 X142.184 Y87.123 E.02091
G1 X142.455 Y87.021 E.01045
;WIDTH:0.455288
G1 X142.725 Y86.919 E.00943
;WIDTH:0.422865
G1 X143.287 Y86.631 E.01894
G1 X143.283 Y86.906 E.00823
G1 X143.343 Y87.126 E.00686
G1 X143.147 Y87.149 E.00592
;WIDTH:0.46239
G1 X142.616 Y87.375 E.01911
;WIDTH:0.499999
G1 X142.342 Y87.596 E.01272
G1 X141.584 Y88.448 E.04115
G1 X141.338 Y88.817 E.01602
G1 X141.203 Y89.237 E.01592
G1 X141.196 Y89.453 E.0078
G1 X140.982 Y89.423 E.0078
G1 X140.545 Y89.485 E.01592
G1 X140.14 Y89.665 E.01602
G1 X139.173 Y90.268 E.04115
G1 X138.863 Y90.52 E.01443
G1 X138.611 Y90.868 E.01551
G1 X138.517 Y91.123 E.00981
G1 X138.266 Y91.02 E.00981
G1 X137.839 Y90.971 E.01551
G1 X137.444 Y91.03 E.01443
G1 X136.346 Y91.336 E.04115
G1 X135.925 Y91.522 E.01662
G1 X135.585 Y91.809 E.01606
G1 X135.476 Y91.971 E.00706
G1 X135.329 Y91.842 E.00706
G1 X134.927 Y91.652 E.01606
G1 X134.473 Y91.579 E.01662
G1 X133.3 Y91.565 E.04235
;WIDTH:0.497348
G1 X133.079 Y91.637 E.00834
;WIDTH:0.456801
G1 X132.858 Y91.709 E.00759
;WIDTH:0.416254
G1 X132.638 Y91.782 E.00685
;WIDTH:0.389063
G1 X132.307 Y92.009 E.01098
G1 X132.213 Y91.848 E.00511
G1 X132.021 Y91.654 E.00746
G1 X132.492 Y91.482 E.01369
;WIDTH:0.417138
G1 X132.726 Y91.374 E.00763
;WIDTH:0.458569
G1 X132.961 Y91.266 E.00848
;WIDTH:0.499999
G1 X133.195 Y91.158 E.00933
G1 X133.605 Y90.805 E.01952
G1 X133.973 Y90.358 E.02091
G1 X134.259 Y89.855 E.02091
G1 X134.468 Y89.242 E.02338
G1 X134.563 Y88.651 E.0216
G1 X134.553 Y88.145 E.01827
G1 X134.435 Y87.559 E.0216
G1 X134.26 Y87.044 E.01964
G1 X133.975 Y86.54 E.02089
G1 X133.607 Y86.093 E.02091
G1 X133.168 Y85.715 E.02091
;WIDTH:0.542822
G1 X133.07 Y85.626 E.00522
;WIDTH:0.585644
G1 X132.972 Y85.538 E.00567
;WIDTH:0.628466
G1 X132.874 Y85.449 E.00612
;WIDTH:0.671634
G1 X132.794 Y85.384 E.00512
;WIDTH:0.714802
G1 X132.713 Y85.32 E.00547
;WIDTH:0.719212
G1 X132.16 Y85.105 E.03169
G1 X132.081 Y85.112 E.00422
;WIDTH:0.67537
G1 X132.003 Y85.119 E.00395
;WIDTH:0.631527
G1 X131.924 Y85.125 E.00368
;WIDTH:0.587685
G1 X131.845 Y85.132 E.0034
;WIDTH:0.543842
G1 X131.766 Y85.139 E.00313
;WIDTH:0.499999
G1 X131.272 Y85.08 E.01797
G1 X130.695 Y85.117 E.02088
G1 X130.132 Y85.253 E.02091
G1 X129.596 Y85.485 E.0211
G1 X129.16 Y85.771 E.0188
G1 X128.896 Y85.99 E.01239
G1 X128.471 Y86.478 E.02336
G1 X128.159 Y86.991 E.02168
G1 X127.979 Y87.458 E.01806
G1 X127.857 Y88.025 E.02097
G1 X127.834 Y88.606 E.02098
G1 X127.911 Y89.18 E.02091
G1 X128.083 Y89.738 E.02109
G1 X127.582 Y89.38 E.02222
G1 X126.606 Y88.587 E.0454
G1 X126.178 Y88.402 E.01685
G1 X125.692 Y88.349 E.01765
G1 X125.29 Y88.42 E.01473
G1 X98.43 Y96.83 E1.01623
G1 X98.086 Y96.984 E.01363
G1 X97.829 Y97.176 E.01157
G1 X97.56 Y97.495 E.01506
G1 X97.399 Y97.826 E.0133
G1 X96.369 Y100.76 E.11226
G1 X96.282 Y101.178 E.01541
G1 X95.033 Y118.959 E.64359
G1 X91.454 Y118.708 E.12955
G1 X92.919 Y97.852 E.75485
G1 X94.254 Y94.053 E.14541
G1 X123.264 Y75.58 E1.24177
;WIDTH:0.535176
G1 X123.628 Y75.369 E.01634
;WIDTH:0.570352
G1 X123.991 Y75.158 E.0175
G1 X124.518 Y74.809 E.02632
;WIDTH:0.594413
G1 X125.163 Y74.426 E.0327
G1 X125.328 Y74.293 E.00924
;WIDTH:0.547206
G1 X125.494 Y74.16 E.00845
;WIDTH:0.499999
G1 X126.053 Y73.804 E.02394
G1 X126.56 Y73.451 E.02231
G1 X127.093 Y72.958 E.02621
G1 X127.602 Y72.543 E.02372
G1 X128.137 Y72.16 E.02373
G1 X128.693 Y71.811 E.02373
G1 X129.26 Y71.503 E.02329
G1 X130.182 Y71.091 E.03647
G1 X130.79 Y70.874 E.02328
G1 X131.421 Y70.692 E.02373
G1 X132.05 Y70.552 E.02327
G1 X132.769 Y70.449 E.02622
G1 X133.279 Y70.394 E.01853
G1 X134.004 Y70.367 E.02618
G1 X134.669 Y70.391 E.02402
G1 X135.461 Y70.46 E.02871
G1 X135.346 Y70.51 E.00455
G1 X134.801 Y70.858 E.02334
G1 X134.38 Y71.256 E.02091
G1 X134.033 Y71.72 E.02091
G1 X133.771 Y72.236 E.02091
G1 X133.593 Y72.827 E.02228
G1 X133.537 Y73.462 E.02303
G1 X133.555 Y73.929 E.01686
G1 X133.679 Y74.496 E.02097
G1 X133.882 Y75.005 E.0198
G1 X134.176 Y75.477 E.02006
G1 X134.601 Y75.963 E.02331
G1 X135.073 Y76.33 E.02161
;WIDTH:0.541239
G1 X135.163 Y76.401 E.00451
;WIDTH:0.582478
G1 X135.253 Y76.472 E.00488
;WIDTH:0.623718
G1 X135.343 Y76.543 E.00526
;WIDTH:0.664957
G1 X135.433 Y76.614 E.00563
;WIDTH:0.706196
G1 X135.523 Y76.685 E.006
;WIDTH:0.707739
G1 X135.778 Y76.785 E.01438
G1 X135.826 Y76.784 E.00252
;WIDTH:0.680691
G1 X135.874 Y76.782 E.00241
;WIDTH:0.653642
G1 X136.075 Y76.801 E.00972
;WIDTH:0.615232
G1 X136.276 Y76.82 E.00911
;WIDTH:0.576821
G1 X136.476 Y76.839 E.0085
;WIDTH:0.53841
G1 X136.677 Y76.858 E.00789
;WIDTH:0.499999
G1 X137.255 Y76.845 E.02089
G1 X137.824 Y76.734 E.02091
G1 X138.425 Y76.493 E.02338
G1 X138.898 Y76.206 E.02001
G1 X139.34 Y75.816 E.02125
G1 X139.678 Y75.394 E.01952
G1 X139.964 Y74.885 E.02108
G1 X140.2 Y74.126 E.02872
G1 X140.251 Y73.787 E.01236
G1 X140.251 Y73.208 E.02089
G1 X140.157 Y72.653 E.02033
G1 X140.002 Y72.202 E.01724
G1 X140.404 Y72.47 E.01746
G1 X140.861 Y72.68 E.01814
G1 X141.442 Y72.728 E.02106
G1 X141.503 Y73.157 E.01567
G1 X141.718 Y73.609 E.01806
G1 X142.125 Y74.107 E.02324
G1 X142.697 Y74.766 E.03149
G1 X143.085 Y75.025 E.01685
G1 X143.47 Y75.142 E.01453
G1 X143.403 Y75.539 E.01453
G1 X143.417 Y75.786 E.00893
G1 X143.537 Y76.215 E.01608
G1 X143.847 Y76.923 E.0279
G1 X144.076 Y77.409 E.01939
G1 X144.396 Y77.787 E.01788
G1 X144.722 Y77.994 E.01397
G1 X144.55 Y78.341 E.01397
G1 X144.492 Y78.584 E.00903
G1 X144.486 Y79.041 E.0165
G1 X144.7 Y80.467 E.05206
G1 X144.861 Y80.811 E.01372
G1 X145.125 Y81.122 E.01475
G1 X144.853 Y81.427 E.01475
G1 X144.676 Y81.783 E.01437
G1 X144.567 Y82.327 E.02003
G1 X144.873 Y83.403 F42000
;WIDTH:0.516925
G1 F3600
G1 X144.874 Y83.542 E.00519
;WIDTH:0.541459
G1 X144.919 Y83.732 E.0077
;WIDTH:0.586712
G1 X144.964 Y83.922 E.0084
;WIDTH:0.631964
G1 X145.009 Y84.113 E.0091
G1 X145.19 Y84.323 E.01294
G1 X145.42 Y84.48 E.01292
G1 X145.142 Y84.48 E.01292
G1 X144.874 Y84.552 E.01294
G1 X144.814 Y84.61 E.00389
;WIDTH:0.587587
G1 X144.755 Y84.669 E.0036
;WIDTH:0.543209
G1 X144.696 Y84.728 E.0033
;WIDTH:0.498832
G1 X144.636 Y84.787 E.00301
;WIDTH:0.454454
G1 X144.494 Y85.002 E.00839
;WIDTH:0.405065
G1 X144.351 Y85.217 E.00738
;WIDTH:0.382672
G1 X144.117 Y85.68 E.01392
;WIDTH:0.421781
G1 X144.011 Y85.859 E.00622
;WIDTH:0.46089
G1 X143.905 Y86.038 E.00687
;WIDTH:0.499999
G1 X143.798 Y86.217 E.00751
G1 X143.703 Y86.525 E.01164
G1 X143.698 Y86.852 E.01182
G1 X143.789 Y87.174 E.0121
G1 X144.063 Y87.552 E.01685
G1 X144.273 Y87.742 E.0102
G1 X144.016 Y87.623 E.0102
G1 X143.562 Y87.518 E.01685
G1 X143.251 Y87.554 E.01127
G1 X142.991 Y87.657 E.0101
G1 X142.684 Y87.9 E.01417
G1 X141.808 Y88.91 E.04825
G1 X141.653 Y89.315 E.01567
G1 X141.643 Y89.635 E.01154
G1 X141.804 Y90.107 E.01802
G1 X141.951 Y90.348 E.0102
G1 X141.739 Y90.162 E.0102
G1 X141.3 Y89.924 E.01802
G1 X140.983 Y89.88 E.01154
G1 X140.671 Y89.924 E.01137
G1 X140.382 Y90.053 E.01145
G1 X139.25 Y90.781 E.0486
G1 X139.013 Y91.084 E.01389
G1 X138.901 Y91.39 E.01176
G1 X138.916 Y91.923 E.01923
G1 X138.989 Y92.195 E.0102
G1 X138.838 Y91.957 E.0102
G1 X138.455 Y91.587 E.01923
G1 X138.154 Y91.463 E.01176
G1 X137.967 Y91.432 E.00684
G1 X137.567 Y91.47 E.01451
G1 X136.806 Y91.682 E.02852
G1 X136.244 Y91.865 E.02133
G1 X135.926 Y92.114 E.01459
G1 X135.749 Y92.377 E.01145
G1 X135.634 Y92.851 E.0176
G1 X135.627 Y93.133 E.0102
G1 X135.549 Y92.862 E.0102
G1 X135.317 Y92.433 E.0176
G1 X135.078 Y92.224 E.01145
G1 X134.791 Y92.088 E.01147
G1 X134.467 Y92.036 E.01187
G1 X133.593 Y92.025 E.03154
G1 X133.06 Y92.049 E.01928
G1 X132.811 Y92.137 E.00953
G1 X132.442 Y92.423 E.01686
G1 X132.223 Y92.817 E.01627
G1 X132.137 Y93.086 E.01021
G1 X132.138 Y92.804 E.0102
G1 X132.051 Y92.361 E.01628
G1 X131.814 Y92.001 E.01558
G1 X131.467 Y91.758 E.01529
G1 X131.287 Y91.718 E.00667
;WIDTH:0.464961
G1 X131.106 Y91.679 E.00616
;WIDTH:0.429923
G1 X130.926 Y91.64 E.00564
;WIDTH:0.394885
G1 X130.225 Y91.435 E.0203
;WIDTH:0.355684
G1 X129.738 Y91.241 E.01295
;WIDTH:0.390429
G1 X129.568 Y91.146 E.00536
;WIDTH:0.425174
G1 X129.397 Y91.05 E.00589
;WIDTH:0.459919
G1 X129.227 Y90.955 E.00643
;WIDTH:0.499999
G1 X128.172 Y90.352 E.04386
G1 X127.628 Y89.988 E.02366
G1 X127.106 Y89.593 E.02362
G1 X126.509 Y89.08 E.02843
G1 X126.146 Y88.87 E.01512
G1 X125.816 Y88.806 E.01216
G1 X125.426 Y88.856 E.01419
G1 X98.485 Y97.292 E1.01928
G1 X98.137 Y97.513 E.0149
G1 X97.945 Y97.741 E.01076
G1 X97.83 Y97.978 E.0095
G1 X96.8 Y100.911 E.11226
G1 X96.738 Y101.21 E.01101
G1 X95.457 Y119.447 E.66009
G1 X90.966 Y119.131 E.16255
G1 X92.468 Y97.759 E.77358
G1 X93.875 Y93.752 E.15334
G1 X125.807 Y73.418 E1.36686
G1 X126.25 Y73.115 E.01936
G1 X126.793 Y72.613 E.02673
G1 X127.325 Y72.18 E.02475
G1 X127.882 Y71.78 E.02475
G1 X128.463 Y71.416 E.02475
G1 X129.057 Y71.093 E.02444
G1 X130.012 Y70.666 E.03775
G1 X130.649 Y70.439 E.02443
G1 X131.308 Y70.249 E.02475
G1 X131.968 Y70.102 E.02443
G1 X132.705 Y69.996 E.02686
G1 X133.25 Y69.938 E.01981
G1 X134.003 Y69.91 E.02721
G1 X134.703 Y69.935 E.0253
G1 X135.417 Y69.99 E.02585
G1 X136.188 Y70.117 E.02822
G1 X136.925 Y70.269 E.02717
;WIDTH:0.461092
G1 X137.108 Y70.301 E.00614
;WIDTH:0.422185
G1 X137.291 Y70.333 E.00557
;WIDTH:0.383277
G1 X137.89 Y70.509 E.01677
;WIDTH:0.388257
G1 X138.064 Y70.541 E.00482
;WIDTH:0.425422
G1 X138.237 Y70.573 E.00534
;WIDTH:0.462586
G1 X138.411 Y70.606 E.00586
;WIDTH:0.508659
G1 X138.494 Y70.604 E.00305
;WIDTH:0.554732
G1 X138.577 Y70.602 E.00335
;WIDTH:0.600805
G1 X138.66 Y70.6 E.00365
;WIDTH:0.646877
G1 X138.742 Y70.599 E.00395
G1 X138.984 Y70.45 E.01352
G1 X139.164 Y70.256 E.01263
G1 X139.127 Y70.519 E.01263
G1 X139.163 Y70.8 E.01352
G1 X139.206 Y70.878 E.00428
;WIDTH:0.613791
G1 X139.249 Y70.957 E.00404
;WIDTH:0.580704
G1 X139.588 Y71.391 E.0234
;WIDTH:0.542235
G1 X139.907 Y71.589 E.01479
;WIDTH:0.499999
G1 X140.643 Y72.08 E.03197
G1 X140.984 Y72.24 E.01359
G1 X141.422 Y72.275 E.01587
G1 X142.017 Y72.022 E.02334
G1 X142.235 Y71.843 E.0102
G1 X142.081 Y72.079 E.0102
G1 X141.895 Y72.698 E.02334
G1 X141.941 Y73.028 E.01202
G1 X142.095 Y73.351 E.0129
G1 X142.476 Y73.814 E.02166
G1 X142.961 Y74.387 E.02714
G1 X143.28 Y74.612 E.01407
G1 X143.599 Y74.709 E.01202
G1 X144.216 Y74.63 E.02246
G1 X144.476 Y74.52 E.0102
G1 X144.261 Y74.703 E.0102
G1 X143.915 Y75.22 E.02246
G1 X143.86 Y75.549 E.01202
G1 X143.87 Y75.725 E.00638
G1 X143.942 Y75.998 E.0102
G1 X144.427 Y77.102 E.04353
G1 X144.695 Y77.441 E.01559
G1 X144.975 Y77.619 E.01201
G1 X145.579 Y77.711 E.02204
G1 X145.859 Y77.677 E.0102
G1 X145.602 Y77.793 E.0102
G1 X145.133 Y78.184 E.02204
G1 X144.985 Y78.482 E.01201
G1 X144.944 Y78.656 E.00645
G1 X144.939 Y78.982 E.01178
G1 X145.085 Y80.106 E.04093
G1 X145.183 Y80.447 E.0128
G1 X145.465 Y80.823 E.01697
G1 X146.031 Y81.092 E.02263
G1 X146.309 Y81.138 E.0102
G1 X146.029 Y81.177 E.0102
G1 X145.456 Y81.431 E.02262
G1 X145.222 Y81.697 E.01281
G1 X145.058 Y82.131 E.01675
G1 X144.96 Y82.756 E.02282
;WIDTH:0.516925
G1 X144.873 Y83.256 E.01901
G1 X144.873 Y83.363 E.00403
;WIPE_START
G1 X144.874 Y83.542 E-.05355
G1 X144.919 Y83.732 E-.05868
G1 X144.964 Y83.922 E-.05868
G1 X145.009 Y84.113 E-.05868
G1 X145.19 Y84.323 E-.0834
G1 X145.42 Y84.48 E-.08328
G1 X145.142 Y84.48 E-.08328
G1 X144.874 Y84.552 E-.0834
G1 X144.814 Y84.61 E-.02508
G1 X144.786 Y84.639 E-.01197
;WIPE_END
G1 Z.4 F42000
G1 X143.94 Y85.298 Z.4
G1 Z.2
G1 E.6 F2400
;WIDTH:0.39379
G1 F3600
G1 X143.857 Y85.456 E.00495
;WIDTH:0.40942
G1 X143.797 Y85.558 E.00344
;WIDTH:0.441416
G1 X143.737 Y85.661 E.00374
;WIDTH:0.470708
G1 X143.588 Y85.834 E.00772
;WIDTH:0.499999
G1 X143.44 Y86.008 E.00825
G1 X142.817 Y86.425 E.02706
G1 X142.305 Y86.625 E.01984
G1 X141.813 Y86.718 E.01808
G1 X141.313 Y86.725 E.01808
G1 X140.818 Y86.646 E.01808
