; HEADER_BLOCK_START
; generated by OrcaSlicer 2.1.0 on 2025-02-15 at 18:50:06
; total layer number: 75
; filament_density: 1.27
; filament_diameter: 1.75
; max_z_height: 15.00
; HEADER_BLOCK_END

; THUMBNAIL_BLOCK_START

;
; THUMBNAIL_BLOCK_END

; THUMBNAIL_BLOCK_START

;
; THUMBNAIL_BLOCK_END

; external perimeters extrusion width = 0.42mm
; perimeters extrusion width = 0.45mm
; infill extrusion width = 0.45mm
; solid infill extrusion width = 0.42mm
; top infill extrusion width = 0.42mm
; support material extrusion width = 0.42mm
; first layer extrusion width = 0.50mm

; EXECUTABLE_BLOCK_START
EXCLUDE_OBJECT_DEFINE NAME=подпорка_для_мотора.stp_id_0_copy_0 CENTER=110,110 POLYGON=[[50.75,153.42],[114.173,68.6719],[114.527,68.301],[114.89,67.9384],[115.261,67.5842],[115.64,67.2386],[116.027,66.9018],[116.422,66.574],[116.824,66.2553],[117.233,65.946],[117.649,65.6461],[118.072,65.3558],[118.502,65.0754],[118.938,64.8048],[119.38,64.5444],[119.827,64.2942],[120.281,64.0543],[120.74,63.8249],[121.204,63.6061],[121.672,63.398],[122.146,63.2007],[122.624,63.0143],[123.106,62.839],[123.592,62.6748],[124.082,62.5218],[124.575,62.38],[125.071,62.2497],[125.57,62.1307],[126.071,62.0232],[126.575,61.9273],[127.081,61.843],[127.589,61.7703],[128.098,61.7093],[128.609,61.66],[129.121,61.6225],[129.633,61.5967],[130.146,61.5827],[130.659,61.5804],[131.172,61.59],[131.684,61.6113],[132.196,61.6443],[132.707,61.6891],[133.217,61.7457],[133.725,61.8139],[134.232,61.8938],[134.737,61.9853],[135.239,62.0884],[135.739,62.2029],[136.237,62.329],[136.731,62.4664],[137.222,62.6151],[137.709,62.775],[138.193,62.9461],[138.672,63.1283],[139.147,63.3214],[139.618,63.5254],[140.084,63.7402],[140.545,63.9655],[141,64.2014],[141.45,64.4477],[141.895,64.7043],[142.333,64.971],[142.765,65.2477],[143.19,65.5342],[143.609,65.8304],[144.021,66.1362],[144.426,66.4513],[144.823,66.7757],[145.213,67.1091],[145.595,67.4514],[145.969,67.8023],[146.335,68.1617],[146.693,68.5295],[147.042,68.9053],[147.382,69.2891],[147.714,69.6806],[148.036,70.0796],[148.349,70.4859],[148.653,70.8993],[148.947,71.3195],[149.232,71.7464],[149.506,72.1797],[149.771,72.6192],[150.025,73.0647],[150.269,73.5159],[150.503,73.9725],[150.726,74.4345],[150.939,74.9014],[151.14,75.373],[151.331,75.8492],[151.511,76.3296],[151.68,76.8141],[151.837,77.3023],[151.983,77.7939],[152.118,78.2888],[152.242,78.7867],[169.25,153.42],[169.25,158.42],[50.75,158.42],[50.75,153.42]]
M73 P0 R31
;TYPE:Custom
M140 S0
M104 S0 
START_PRINT EXTRUDER_TEMP=250 BED_TEMP=90
M106 P3 S153
G90
G21
M83 ; use relative distances for extrusion
; filament start gcode
M106 S127
M106 P2 S127
;LAYER_CHANGE
;Z:0.2
;HEIGHT:0.2
;BEFORE_LAYER_CHANGE
;0.2
G92 E0

G1 E-.6 F2400
;_SET_FAN_SPEED_CHANGING_LAYER
SET_VELOCITY_LIMIT ACCEL=500 ACCEL_TO_DECEL=250
SET_VELOCITY_LIMIT SQUARE_CORNER_VELOCITY=9
EXCLUDE_OBJECT_START NAME=подпорка_для_мотора.stp_id_0_copy_0
G1 Z.2 F42000
G1 X109.483 Y66.084
G1 Z.2
G1 E.6 F2400
;TYPE:Brim
;WIDTH:0.5
G1 F3600
G1 X109.873 Y65.481 E.02593
G1 X110.268 Y65.01 E.02218
G1 X110.63 Y64.627 E.01903
G1 X111.653 Y63.626 E.05169
G1 X112.51 Y62.863 E.04142
G1 X112.996 Y62.457 E.02287
G1 X114.103 Y61.6 E.05055
G1 X114.617 Y61.23 E.02286
G1 X115.571 Y60.592 E.04144
G1 X116.658 Y59.931 E.04592
G1 X117.885 Y59.263 E.05046
G1 X118.918 Y58.762 E.04143
G1 X119.496 Y58.504 E.02287
G1 X120.793 Y57.981 E.05049
G1 X121.995 Y57.562 E.04596
G1 X122.6 Y57.374 E.02287
G1 X123.706 Y57.07 E.0414
G1 X125.07 Y56.761 E.05049
G1 X126.323 Y56.541 E.04595
G1 X127.46 Y56.391 E.04141
G1 X128.09 Y56.329 E.02287
G1 X129.486 Y56.242 E.05049
G1 X130.76 Y56.225 E.04601
G1 X132.033 Y56.266 E.04596
G1 X133.173 Y56.353 E.04131
G1 X133.928 Y56.437 E.02742
G1 X135.065 Y56.603 E.04147
G1 X135.812 Y56.738 E.02741
G1 X136.933 Y56.981 E.04143
G1 X138.164 Y57.305 E.04596
G1 X138.891 Y57.525 E.02741
G1 X139.977 Y57.896 E.04143
G1 X141.163 Y58.359 E.04597
G1 X141.859 Y58.66 E.02741
G1 X142.897 Y59.153 E.04147
G1 X143.574 Y59.504 E.02754
G1 X144.572 Y60.065 E.04135
G1 X145.221 Y60.46 E.02741
G1 X146.181 Y61.09 E.04147
G1 X146.803 Y61.531 E.02753
G1 X147.812 Y62.302 E.04585
G1 X148.693 Y63.037 E.04143
G1 X149.259 Y63.544 E.02742
G1 X150.087 Y64.339 E.04147
G1 X150.616 Y64.883 E.02741
G1 X151.47 Y65.828 E.04597
G1 X152.201 Y66.712 E.04143
G1 X152.665 Y67.313 E.02742
G1 X153.334 Y68.247 E.04147
G1 X153.756 Y68.878 E.02741
G1 X154.359 Y69.855 E.04144
G1 X154.98 Y70.966 E.04596
G1 X155.326 Y71.642 E.02741
G1 X155.813 Y72.682 E.04147
G1 X156.112 Y73.38 E.02741
G1 X156.526 Y74.45 E.04143
G1 X156.934 Y75.655 E.04593
G1 X157.285 Y76.877 E.04592
G1 X157.58 Y78.114 E.04592
G1 X157.818 Y79.364 E.04592
G1 X157.999 Y80.623 E.04592
G1 X158.121 Y81.889 E.04592
G1 X158.185 Y83.158 E.04591
G1 X158.188 Y84.555 E.05042
G1 X158.106 Y86.138 E.05723
G1 X158.106 Y147.835 E2.22763
G1 X158.155 Y147.976 E.00538
G1 X158.335 Y148.063 E.00722
G1 X169.242 Y148.063 E.39382
G1 X169.958 Y148.112 E.02589
G1 X170.652 Y148.254 E.02561
G1 X171.324 Y148.49 E.02568
G1 X171.794 Y148.72 E.0189
G1 X172.476 Y149.153 E.02917
G1 X173.014 Y149.613 E.02558
G1 X173.486 Y150.143 E.02561
G1 X173.882 Y150.731 E.02561
G1 X174.196 Y151.368 E.02564
G1 X174.401 Y151.965 E.02278
G1 X174.551 Y152.66 E.02566
G1 X174.606 Y153.428 E.02781
G1 X174.606 Y158.412 E.17995
G1 X174.558 Y159.127 E.02589
G1 X174.415 Y159.822 E.02561
G1 X174.18 Y160.492 E.02565
G1 X173.904 Y161.046 E.02236
G1 X173.518 Y161.645 E.02571
G1 X173.056 Y162.184 E.02561
G1 X172.527 Y162.655 E.02561
G1 X171.939 Y163.052 E.02561
G1 X171.301 Y163.366 E.02566
G1 X170.757 Y163.555 E.02081
G1 X170.009 Y163.72 E.02763
G1 X169.242 Y163.776 E.02779
G1 X149.258 Y163.776 E.72154
G1 X148.542 Y163.728 E.02589
G1 X147.848 Y163.585 E.02561
G1 X147.181 Y163.351 E.02551
G1 X146.325 Y162.888 E.03513
G1 X145.756 Y162.466 E.02559
G1 X145.247 Y161.972 E.02561
G1 X144.811 Y161.414 E.02555
G1 X144.382 Y160.654 E.03153
G1 X117.914 Y103.254 E2.28219
G1 X117.659 Y102.584 E.02589
G1 X117.497 Y101.894 E.02561
G1 X117.43 Y101.186 E.02568
G1 X117.442 Y100.662 E.0189
G1 X117.549 Y99.862 E.02917
G1 X117.742 Y99.18 E.02558
G1 X118.026 Y98.53 E.02561
G1 X118.394 Y97.924 E.02561
G1 X118.841 Y97.373 E.02561
G1 X119.357 Y96.887 E.02561
G1 X119.935 Y96.475 E.02561
G1 X120.562 Y96.145 E.02558
G1 X121.31 Y95.877 E.02871
G1 X122.004 Y95.72 E.02567
G1 X122.71 Y95.658 E.02561
G1 X123.419 Y95.692 E.02561
G1 X124.115 Y95.82 E.02555
G1 X124.931 Y96.101 E.03117
G1 X125.925 Y96.507 E.03877
G1 X126.565 Y96.722 E.02438
G1 X127.215 Y96.904 E.02437
G1 X127.874 Y97.053 E.02438
G1 X128.542 Y97.169 E.02447
G1 X129.209 Y97.25 E.02428
G1 X129.885 Y97.298 E.02448
G1 X130.895 Y97.307 E.03645
G1 X131.566 Y97.27 E.02428
G1 X132.229 Y97.201 E.02406
G1 X133.239 Y97.03 E.03697
G1 X133.885 Y96.878 E.02396
G1 X134.533 Y96.691 E.02438
G1 X135.183 Y96.467 E.02479
G1 X135.811 Y96.214 E.02448
G1 X136.71 Y95.786 E.03593
G1 X137.302 Y95.457 E.02448
G1 X137.885 Y95.093 E.02479
G1 X138.438 Y94.706 E.02437
G1 X138.97 Y94.294 E.02428
G1 X139.484 Y93.853 E.02447
G1 X139.973 Y93.387 E.02438
G1 X140.438 Y92.898 E.02438
G1 X140.878 Y92.386 E.02437
G1 X141.291 Y91.852 E.02438
G1 X141.68 Y91.294 E.02457
G1 X142.196 Y90.445 E.03584
G1 X142.511 Y89.845 E.02448
G1 X142.799 Y89.222 E.02479
G1 X143.051 Y88.593 E.02448
G1 X143.364 Y87.648 E.03594
G1 X143.609 Y86.665 E.03656
G1 X143.731 Y85.998 E.02448
G1 X143.85 Y84.995 E.03647
G1 X143.887 Y84.319 E.02446
G1 X143.879 Y83.309 E.03645
G1 X143.831 Y82.633 E.02448
G1 X143.747 Y81.948 E.02491
G1 X143.561 Y80.956 E.03644
G1 X143.394 Y80.299 E.02447
G1 X143.085 Y79.338 E.03646
G1 X142.837 Y78.707 E.02448
G1 X142.409 Y77.793 E.03645
G1 X142.084 Y77.198 E.02448
G1 X141.553 Y76.356 E.03593
G1 X141.146 Y75.793 E.02509
G1 X140.506 Y75.018 E.03627
G1 X140.042 Y74.521 E.02456
G1 X139.307 Y73.829 E.03645
G1 X138.784 Y73.396 E.02448
G1 X137.966 Y72.801 E.03655
G1 X137.122 Y72.278 E.03584
G1 X136.522 Y71.957 E.02458
G1 X135.898 Y71.663 E.0249
G1 X134.96 Y71.291 E.03645
G1 X134.315 Y71.081 E.02448
G1 X133.351 Y70.834 E.03593
G1 X132.674 Y70.704 E.02489
G1 X132.002 Y70.611 E.0245
G1 X131.01 Y70.536 E.03592
G1 X130.332 Y70.528 E.02448
G1 X129.309 Y70.58 E.03697
G1 X128.638 Y70.656 E.02438
G1 X127.972 Y70.767 E.02438
G1 X127.313 Y70.911 E.02437
G1 X126.661 Y71.088 E.02438
G1 X126.02 Y71.298 E.02437
G1 X125.39 Y71.54 E.02437
G1 X124.772 Y71.813 E.02439
G1 X124.169 Y72.117 E.02436
G1 X123.593 Y72.445 E.02396
G1 X123.023 Y72.808 E.02438
G1 X122.473 Y73.199 E.02438
G1 X121.943 Y73.617 E.02437
G1 X121.109 Y74.384 E.0409
G1 X93.216 Y124.236 E2.06255
G1 X93.188 Y124.326 E.00341
G1 X91.158 Y145.773 E.77783
G1 X91.042 Y146.481 E.02589
G1 X90.834 Y147.16 E.02566
G1 X90.601 Y147.684 E.0207
G1 X90.201 Y148.359 E.02833
G1 X89.756 Y148.912 E.02564
G1 X89.34 Y149.317 E.02096
G1 X74.276 Y162.452 E.72162
G1 X73.705 Y162.885 E.02589
G1 X73.086 Y163.235 E.02568
G1 X72.597 Y163.44 E.01912
G1 X71.915 Y163.645 E.02573
G1 X71.212 Y163.755 E.02571
G1 X70.745 Y163.776 E.01686
G1 X50.758 Y163.776 E.72166
G1 X50.042 Y163.728 E.02589
G1 X49.348 Y163.585 E.02561
G1 X48.676 Y163.349 E.02568
G1 X48.206 Y163.119 E.0189
G1 X47.524 Y162.687 E.02917
G1 X46.986 Y162.226 E.02558
G1 X46.514 Y161.696 E.02561
G1 X46.118 Y161.108 E.02561
G1 X45.804 Y160.471 E.02566
G1 X45.614 Y159.926 E.02081
G1 X45.449 Y159.179 E.02763
G1 X45.394 Y158.411 E.02779
G1 X45.394 Y153.427 E.17995
G1 X45.442 Y152.712 E.02589
G1 X45.585 Y152.017 E.02561
G1 X45.82 Y151.347 E.02565
G1 X46.096 Y150.793 E.02236
G1 X46.482 Y150.194 E.02571
G1 X46.944 Y149.656 E.02561
G1 X47.473 Y149.184 E.02561
G1 X48.061 Y148.787 E.02561
G1 X48.699 Y148.474 E.02564
G1 X49.295 Y148.269 E.02278
G1 X49.99 Y148.119 E.02566
G1 X50.758 Y148.063 E.02781
G1 X63.958 Y148.063 E.4766
G1 X64.099 Y148.015 E.00538
G1 X64.158 Y147.945 E.00328
G1 X109.464 Y66.119 E3.37705
G1 X109.864 Y66.341 F42000
G1 F3600
G1 X109.873 Y66.323 E.00072
G1 X110.247 Y65.746 E.02481
G1 X110.607 Y65.317 E.02021
G1 X110.954 Y64.949 E.01827
G1 X111.967 Y63.958 E.05119
G1 X112.806 Y63.21 E.04058
G1 X113.28 Y62.814 E.02229
G1 X114.378 Y61.965 E.05012
G1 X114.88 Y61.605 E.02228
G1 X115.814 Y60.979 E.04063
G1 X116.889 Y60.326 E.04539
G1 X118.097 Y59.669 E.04968
G1 X119.109 Y59.177 E.04059
G1 X119.672 Y58.926 E.02229
G1 X120.951 Y58.41 E.04976
G1 X122.14 Y57.996 E.04549
G1 X122.731 Y57.813 E.02232
G1 X123.814 Y57.514 E.04056
G1 X125.157 Y57.21 E.04971
G1 X126.395 Y56.992 E.04542
G1 X127.51 Y56.846 E.0406
G1 X128.124 Y56.785 E.02229
G1 X129.5 Y56.699 E.04976
G1 X130.759 Y56.682 E.04546
G1 X132.005 Y56.723 E.045
G1 X133.128 Y56.808 E.04069
G1 X133.872 Y56.891 E.02702
G1 X134.989 Y57.053 E.04073
G1 X135.725 Y57.187 E.02701
G1 X136.829 Y57.427 E.04081
G1 X138.037 Y57.745 E.0451
G1 X138.748 Y57.96 E.02683
G1 X139.823 Y58.326 E.04098
G1 X140.986 Y58.78 E.0451
G1 X141.672 Y59.078 E.02699
G1 X142.691 Y59.562 E.04073
G1 X143.359 Y59.907 E.02714
G1 X144.343 Y60.461 E.04078
G1 X144.978 Y60.848 E.02684
G1 X145.921 Y61.467 E.04073
G1 X146.534 Y61.901 E.02712
G1 X147.525 Y62.657 E.04499
G1 X148.392 Y63.381 E.04081
G1 X148.949 Y63.881 E.02702
G1 X149.763 Y64.662 E.04073
G1 X150.285 Y65.198 E.027
G1 X151.122 Y66.125 E.04511
G1 X151.843 Y66.995 E.04081
G1 X152.3 Y67.588 E.02702
G1 X152.96 Y68.509 E.0409
G1 X153.372 Y69.127 E.02685
G1 X153.966 Y70.089 E.04081
G1 X154.575 Y71.179 E.0451
G1 X154.914 Y71.841 E.02682
G1 X155.395 Y72.866 E.0409
G1 X155.689 Y73.554 E.02702
G1 X156.098 Y74.608 E.04081
G1 X156.498 Y75.794 E.04519
G1 X156.844 Y76.996 E.04516
G1 X157.134 Y78.213 E.04516
G1 X157.368 Y79.442 E.04516
G1 X157.545 Y80.68 E.04516
G1 X157.665 Y81.919 E.04494
G1 X157.728 Y83.167 E.04513
G1 X157.731 Y84.547 E.04983
G1 X157.649 Y86.141 E.05763
G1 X157.649 Y147.823 E2.22709
G1 X157.678 Y147.995 E.00627
G1 X157.718 Y148.111 E.00446
G1 X157.821 Y148.284 E.00726
G1 X157.967 Y148.392 E.00654
G1 X158.121 Y148.467 E.0062
G1 X158.351 Y148.52 E.00851
G1 X169.222 Y148.52 E.39253
G1 X169.887 Y148.565 E.02405
G1 X170.539 Y148.699 E.02404
G1 X171.154 Y148.916 E.02355
G1 X171.576 Y149.123 E.017
G1 X172.195 Y149.516 E.02646
G1 X172.686 Y149.934 E.0233
G1 X173.129 Y150.431 E.02404
G1 X173.49 Y150.969 E.02337
G1 X173.769 Y151.536 E.02282
G1 X173.961 Y152.096 E.02136
G1 X174.095 Y152.715 E.02289
G1 X174.149 Y153.439 E.02622
G1 X174.149 Y158.392 E.17881
G1 X174.105 Y159.056 E.02405
G1 X173.976 Y159.691 E.02337
G1 X173.761 Y160.306 E.02352
G1 X173.502 Y160.826 E.02099
G1 X173.144 Y161.378 E.02374
G1 X172.722 Y161.869 E.02337
G1 X172.253 Y162.287 E.02271
G1 X171.716 Y162.65 E.02337
G1 X171.132 Y162.94 E.02356
G1 X170.639 Y163.112 E.01883
G1 X169.933 Y163.267 E.02611
G1 X169.22 Y163.319 E.02581
G1 X149.278 Y163.319 E.72004
G1 X148.613 Y163.274 E.02405
G1 X147.961 Y163.14 E.02404
G1 X147.357 Y162.926 E.02314
G1 X146.563 Y162.495 E.03261
G1 X146.046 Y162.111 E.02329
G1 X145.583 Y161.658 E.02337
G1 X145.187 Y161.151 E.02323
G1 X144.787 Y160.44 E.02945
G1 X118.338 Y103.081 E2.28059
G1 X118.1 Y102.459 E.02405
G1 X117.948 Y101.811 E.02404
G1 X117.889 Y101.177 E.02297
G1 X117.899 Y100.706 E.01704
G1 X118.001 Y99.945 E.0277
G1 X118.178 Y99.326 E.02326
G1 X118.429 Y98.749 E.02271
G1 X118.764 Y98.195 E.02337
G1 X119.183 Y97.678 E.02404
G1 X119.641 Y97.247 E.02271
G1 X120.167 Y96.87 E.02337
G1 X120.755 Y96.561 E.02398
G1 X121.431 Y96.319 E.0259
G1 X122.084 Y96.172 E.02418
G1 X122.729 Y96.116 E.02337
G1 X123.375 Y96.148 E.02337
G1 X124.008 Y96.267 E.02324
G1 X124.774 Y96.53 E.02924
G1 X125.784 Y96.942 E.03939
G1 X126.417 Y97.154 E.0241
G1 X127.089 Y97.343 E.02521
G1 X127.77 Y97.498 E.02521
G1 X128.46 Y97.618 E.0253
G1 X129.18 Y97.706 E.02618
G1 X129.886 Y97.756 E.02554
G1 X130.887 Y97.764 E.03615
G1 X131.588 Y97.727 E.02535
G1 X132.31 Y97.651 E.0262
G1 X133.311 Y97.481 E.03667
G1 X133.986 Y97.324 E.02503
G1 X134.685 Y97.122 E.02628
G1 X135.356 Y96.89 E.02563
G1 X136.012 Y96.625 E.02554
G1 X136.903 Y96.2 E.03563
G1 X137.547 Y95.842 E.02663
G1 X138.149 Y95.466 E.02563
G1 X138.721 Y95.066 E.0252
G1 X139.27 Y94.639 E.02511
G1 X139.801 Y94.182 E.02531
G1 X140.306 Y93.7 E.02521
G1 X140.787 Y93.193 E.02521
G1 X141.241 Y92.663 E.02521
G1 X141.668 Y92.111 E.02522
G1 X142.073 Y91.527 E.02563
G1 X142.584 Y90.686 E.03554
G1 X142.927 Y90.034 E.02663
G1 X143.212 Y89.417 E.02454
G1 X143.474 Y88.767 E.02529
G1 X143.808 Y87.753 E.03854
G1 X144.051 Y86.78 E.03621
G1 X144.185 Y86.048 E.02687
G1 X144.303 Y85.053 E.03616
G1 X144.343 Y84.348 E.0255
G1 X144.336 Y83.31 E.03749
G1 X144.284 Y82.574 E.02664
G1 X144.196 Y81.86 E.02598
G1 X144.003 Y80.84 E.03748
G1 X143.828 Y80.155 E.02551
G1 X143.509 Y79.167 E.0375
G1 X143.249 Y78.51 E.02551
G1 X142.808 Y77.57 E.0375
G1 X142.468 Y76.95 E.02551
G1 X141.921 Y76.085 E.03698
G1 X141.496 Y75.499 E.02614
G1 X140.837 Y74.702 E.03731
G1 X140.352 Y74.186 E.0256
G1 X139.595 Y73.474 E.0375
G1 X139.05 Y73.024 E.02552
G1 X138.239 Y72.434 E.03622
G1 X137.366 Y71.892 E.03711
G1 X136.741 Y71.555 E.02562
G1 X136.063 Y71.236 E.02707
G1 X135.097 Y70.855 E.03749
G1 X134.425 Y70.638 E.02551
G1 X133.469 Y70.392 E.03563
G1 X132.763 Y70.256 E.02596
G1 X132.032 Y70.155 E.02665
G1 X131.048 Y70.081 E.03561
G1 X130.342 Y70.071 E.02551
G1 X129.253 Y70.126 E.03937
G1 X128.56 Y70.206 E.02517
G1 X127.872 Y70.321 E.02521
G1 X127.19 Y70.471 E.02521
G1 X126.516 Y70.655 E.02521
G1 X125.853 Y70.873 E.0252
G1 X125.201 Y71.123 E.02521
G1 X124.563 Y71.407 E.02522
G1 X123.941 Y71.721 E.02518
G1 X123.344 Y72.061 E.02478
G1 X122.756 Y72.437 E.02521
G1 X122.211 Y72.824 E.02413
G1 X121.664 Y73.255 E.02515
G1 X120.808 Y74.04 E.04194
G1 X120.705 Y74.17 E.00598
G1 X92.821 Y124.007 E2.0619
G1 X92.732 Y124.293 E.01083
G1 X90.704 Y145.719 E.77707
G1 X90.593 Y146.385 E.02438
G1 X90.402 Y147.007 E.0235
G1 X90.19 Y147.48 E.01871
G1 X89.829 Y148.089 E.02557
G1 X89.422 Y148.598 E.0235
G1 X89.027 Y148.983 E.01993
G1 X73.991 Y162.094 E.7203
M73 P1 R31
G1 X73.445 Y162.507 E.02471
G1 X72.891 Y162.82 E.02297
G1 X72.436 Y163.011 E.01782
G1 X71.804 Y163.199 E.0238
G1 X71.173 Y163.299 E.02305
G1 X70.732 Y163.319 E.01596
G1 X50.778 Y163.319 E.72046
G1 X50.113 Y163.274 E.02405
