; HEADER_BLOCK_START
; generated by OrcaSlicer 2.1.0 on 2025-02-15 at 17:51:55
; total layer number: 75
; filament_density: 1.27
; filament_diameter: 1.75
; max_z_height: 15.00
; HEADER_BLOCK_END

; THUMBNAIL_BLOCK_START

;
; THUMBNAIL_BLOCK_END

; THUMBNAIL_BLOCK_START

;
; THUMBNAIL_BLOCK_END

; external perimeters extrusion width = 0.42mm
; perimeters extrusion width = 0.45mm
; infill extrusion width = 0.45mm
; solid infill extrusion width = 0.42mm
; top infill extrusion width = 0.42mm
; support material extrusion width = 0.42mm
; first layer extrusion width = 0.50mm

; EXECUTABLE_BLOCK_START
EXCLUDE_OBJECT_DEFINE NAME=подпорка_для_мотора.stp_id_0_copy_0 CENTER=108.449,152.952 POLYGON=[[49.1993,196.372],[112.622,111.624],[112.977,111.253],[113.339,110.89],[113.711,110.536],[114.09,110.191],[114.477,109.854],[114.871,109.526],[115.273,109.207],[115.682,108.898],[116.099,108.598],[116.521,108.308],[116.951,108.027],[117.387,107.757],[117.829,107.496],[118.277,107.246],[118.73,107.006],[119.189,106.777],[119.653,106.558],[120.122,106.35],[120.595,106.153],[121.073,105.966],[121.555,105.791],[122.041,105.627],[122.531,105.474],[123.024,105.332],[123.52,105.202],[124.019,105.083],[124.521,104.975],[125.024,104.879],[125.53,104.795],[126.038,104.722],[126.548,104.661],[127.058,104.612],[127.57,104.574],[128.082,104.549],[128.595,104.535],[129.108,104.532],[129.621,104.542],[130.133,104.563],[130.645,104.596],[131.156,104.641],[131.666,104.698],[132.175,104.766],[132.681,104.846],[133.186,104.937],[133.689,105.04],[134.189,105.155],[134.686,105.281],[135.18,105.418],[135.671,105.567],[136.158,105.727],[136.642,105.898],[137.122,106.08],[137.597,106.273],[138.067,106.477],[138.533,106.692],[138.994,106.918],[139.45,107.153],[139.9,107.4],[140.344,107.656],[140.782,107.923],[141.214,108.2],[141.639,108.486],[142.058,108.782],[142.47,109.088],[142.875,109.403],[143.272,109.728],[143.662,110.061],[144.044,110.403],[144.418,110.754],[144.784,111.114],[145.142,111.481],[145.491,111.857],[145.832,112.241],[146.163,112.633],[146.485,113.032],[146.799,113.438],[147.102,113.851],[147.397,114.272],[147.681,114.698],[147.956,115.132],[148.22,115.571],[148.474,116.017],[148.719,116.468],[148.952,116.925],[149.175,117.386],[149.388,117.853],[149.59,118.325],[149.78,118.801],[149.96,119.282],[150.129,119.766],[150.286,120.254],[150.433,120.746],[150.568,121.241],[150.691,121.739],[167.699,196.372],[167.699,201.372],[49.1993,201.372],[49.1993,196.372]]
M73 P0 R31
M106 S0
M106 P2 S0
;TYPE:Custom
M140 S0
M104 S0 
START_PRINT EXTRUDER_TEMP=250 BED_TEMP=80
G90
G21
M83 ; use relative distances for extrusion
; filament start gcode
M106 S0
M106 P2 S0
;LAYER_CHANGE
;Z:0.2
;HEIGHT:0.2
;BEFORE_LAYER_CHANGE
;0.2
G92 E0

G1 E-.6 F2400
;_SET_FAN_SPEED_CHANGING_LAYER
SET_VELOCITY_LIMIT ACCEL=500 ACCEL_TO_DECEL=250
SET_VELOCITY_LIMIT SQUARE_CORNER_VELOCITY=9
EXCLUDE_OBJECT_START NAME=подпорка_для_мотора.stp_id_0_copy_0
G1 Z.2 F42000
G1 X109.079 Y107.579
G1 Z.2
G1 E.6 F2400
;TYPE:Brim
;WIDTH:0.5
G1 F3600
G1 X110.102 Y106.578 E.05223
G1 X110.959 Y105.814 E.04186
G1 X111.445 Y105.409 E.02311
G1 X112.552 Y104.551 E.05108
G1 X113.067 Y104.182 E.0231
G1 X114.02 Y103.544 E.04188
G1 X115.107 Y102.883 E.04641
G1 X116.335 Y102.215 E.05099
G1 X117.367 Y101.714 E.04187
G1 X117.945 Y101.456 E.02311
G1 X119.242 Y100.933 E.05102
G1 X120.444 Y100.514 E.04645
G1 X121.049 Y100.326 E.02312
G1 X122.155 Y100.022 E.04184
G1 X123.519 Y99.713 E.05102
G1 X124.772 Y99.493 E.04643
G1 X125.909 Y99.343 E.04185
G1 X126.54 Y99.281 E.02311
G1 X127.935 Y99.194 E.05102
G1 X129.21 Y99.177 E.04649
G1 X130.482 Y99.218 E.04644
G1 X131.623 Y99.305 E.04175
G1 X132.377 Y99.389 E.0277
G1 X133.514 Y99.555 E.04191
G1 X134.261 Y99.69 E.0277
G1 X135.382 Y99.933 E.04187
G1 X136.613 Y100.257 E.04645
G1 X137.34 Y100.477 E.0277
G1 X138.426 Y100.848 E.04187
G1 X139.612 Y101.311 E.04645
G1 X140.309 Y101.612 E.0277
G1 X141.346 Y102.105 E.04191
G1 X142.023 Y102.456 E.02783
G1 X143.021 Y103.017 E.04178
G1 X143.67 Y103.412 E.0277
G1 X144.63 Y104.042 E.04191
G1 X145.253 Y104.483 E.02782
G1 X146.262 Y105.254 E.04633
G1 X147.142 Y105.989 E.04187
G1 X147.708 Y106.496 E.0277
G1 X148.536 Y107.291 E.0419
G1 X149.066 Y107.835 E.0277
G1 X149.919 Y108.78 E.04645
G1 X150.651 Y109.664 E.04187
G1 X151.114 Y110.265 E.0277
G1 X151.784 Y111.199 E.0419
G1 X152.205 Y111.83 E.0277
G1 X152.808 Y112.807 E.04187
G1 X153.429 Y113.918 E.04645
G1 X153.775 Y114.594 E.02769
G1 X154.263 Y115.634 E.04191
G1 X154.561 Y116.332 E.0277
G1 X154.976 Y117.402 E.04187
G1 X155.383 Y118.607 E.04641
G1 X155.735 Y119.829 E.04641
G1 X156.03 Y121.066 E.04641
G1 X156.268 Y122.315 E.0464
G1 X156.448 Y123.575 E.04641
G1 X156.57 Y124.841 E.04641
G1 X156.635 Y126.11 E.04639
G1 X156.638 Y127.507 E.05095
G1 X156.556 Y129.09 E.05783
G1 X156.556 Y190.787 E2.25107
G1 X156.604 Y190.928 E.00544
G1 X156.784 Y191.015 E.0073
G1 X167.692 Y191.015 E.39797
G1 X168.407 Y191.064 E.02616
G1 X169.102 Y191.206 E.02588
G1 X169.773 Y191.442 E.02595
G1 X170.243 Y191.672 E.0191
G1 X170.925 Y192.105 E.02948
G1 X171.463 Y192.565 E.02585
G1 X171.935 Y193.095 E.02588
G1 X172.331 Y193.683 E.02588
G1 X172.645 Y194.32 E.02591
G1 X172.85 Y194.917 E.02302
G1 X173 Y195.612 E.02593
G1 X173.056 Y196.38 E.0281
G1 X173.056 Y201.364 E.18185
G1 X173.007 Y202.079 E.02616
G1 X172.865 Y202.774 E.02588
G1 X172.629 Y203.444 E.02592
G1 X172.353 Y203.998 E.02259
G1 X171.967 Y204.597 E.02598
G1 X171.506 Y205.136 E.02588
G1 X170.976 Y205.607 E.02588
G1 X170.388 Y206.004 E.02588
G1 X169.75 Y206.318 E.02593
G1 X169.206 Y206.507 E.02103
G1 X168.459 Y206.672 E.02792
G1 X167.691 Y206.728 E.02808
G1 X147.707 Y206.728 E.72914
G1 X146.992 Y206.68 E.02616
G1 X146.297 Y206.537 E.02588
G1 X145.63 Y206.303 E.02578
G1 X144.774 Y205.84 E.0355
G1 X144.205 Y205.418 E.02585
G1 X143.697 Y204.924 E.02588
G1 X143.261 Y204.366 E.02582
G1 X142.831 Y203.606 E.03186
G1 X116.363 Y146.206 E2.30622
G1 X116.108 Y145.536 E.02616
G1 X115.947 Y144.846 E.02588
G1 X115.879 Y144.138 E.02595
G1 X115.892 Y143.614 E.0191
G1 X115.999 Y142.814 E.02948
G1 X116.192 Y142.132 E.02585
G1 X116.475 Y141.482 E.02588
G1 X116.843 Y140.876 E.02588
G1 X117.29 Y140.325 E.02588
G1 X117.807 Y139.839 E.02588
G1 X118.384 Y139.427 E.02588
G1 X119.011 Y139.097 E.02585
G1 X119.76 Y138.829 E.02902
G1 X120.453 Y138.672 E.02594
G1 X121.16 Y138.61 E.02588
G1 X121.868 Y138.644 E.02588
G1 X122.564 Y138.772 E.02582
G1 X123.381 Y139.053 E.0315
G1 X124.375 Y139.459 E.03918
G1 X125.015 Y139.674 E.02463
G1 X125.665 Y139.856 E.02463
G1 X126.323 Y140.005 E.02464
G1 X126.991 Y140.121 E.02473
G1 X127.658 Y140.202 E.02453
G1 X128.335 Y140.25 E.02474
G1 X129.344 Y140.259 E.03684
G1 X130.016 Y140.222 E.02453
G1 X130.678 Y140.153 E.02431
G1 X131.688 Y139.982 E.03736
G1 X132.334 Y139.83 E.02421
G1 X132.983 Y139.643 E.02463
G1 X133.632 Y139.419 E.02505
G1 X134.261 Y139.166 E.02474
G1 X135.159 Y138.738 E.03631
G1 X135.752 Y138.409 E.02474
G1 X136.334 Y138.045 E.02505
G1 X136.888 Y137.658 E.02463
G1 X137.419 Y137.246 E.02453
G1 X137.933 Y136.805 E.02473
G1 X138.422 Y136.339 E.02463
G1 X138.887 Y135.85 E.02463
G1 X139.327 Y135.338 E.02463
G1 X139.74 Y134.804 E.02463
G1 X140.129 Y134.246 E.02483
G1 X140.645 Y133.397 E.03621
G1 X140.96 Y132.797 E.02474
G1 X141.248 Y132.174 E.02505
G1 X141.501 Y131.545 E.02474
G1 X141.813 Y130.6 E.03632
G1 X142.058 Y129.617 E.03694
G1 X142.18 Y128.95 E.02474
G1 X142.299 Y127.947 E.03685
G1 X142.336 Y127.271 E.02472
G1 X142.328 Y126.261 E.03684
G1 X142.28 Y125.585 E.02474
G1 X142.196 Y124.9 E.02517
G1 X142.01 Y123.908 E.03682
G1 X141.844 Y123.251 E.02473
G1 X141.534 Y122.29 E.03684
G1 X141.286 Y121.659 E.02474
G1 X140.859 Y120.745 E.03684
G1 X140.533 Y120.15 E.02474
G1 X140.002 Y119.308 E.03631
G1 X139.595 Y118.745 E.02536
G1 X138.956 Y117.97 E.03666
G1 X138.491 Y117.473 E.02482
G1 X137.756 Y116.781 E.03684
G1 X137.234 Y116.348 E.02474
G1 X136.415 Y115.753 E.03694
G1 X135.571 Y115.23 E.03621
G1 X134.971 Y114.909 E.02483
G1 X134.348 Y114.615 E.02516
G1 X133.409 Y114.243 E.03683
G1 X132.764 Y114.033 E.02474
G1 X131.8 Y113.786 E.03631
G1 X131.123 Y113.656 E.02516
G1 X130.451 Y113.563 E.02475
G1 X129.459 Y113.488 E.03629
G1 X128.781 Y113.48 E.02474
G1 X127.758 Y113.532 E.03736
G1 X127.088 Y113.608 E.02463
G1 X126.422 Y113.719 E.02463
G1 X125.762 Y113.863 E.02463
G1 X125.111 Y114.04 E.02463
G1 X124.469 Y114.25 E.02463
G1 X123.839 Y114.492 E.02463
G1 X123.221 Y114.765 E.02465
G1 X122.619 Y115.069 E.02461
G1 X122.042 Y115.397 E.02421
G1 X121.472 Y115.76 E.02463
G1 X120.922 Y116.151 E.02463
G1 X120.392 Y116.569 E.02463
G1 X119.559 Y117.336 E.04133
G1 X91.666 Y167.188 E2.08426
G1 X91.638 Y167.278 E.00344
G1 X89.607 Y188.725 E.78601
G1 X89.492 Y189.433 E.02616
G1 X89.284 Y190.112 E.02593
G1 X89.05 Y190.636 E.02092
G1 X88.65 Y191.311 E.02863
G1 X88.205 Y191.864 E.02591
G1 X87.789 Y192.269 E.02118
G1 X72.725 Y205.404 E.72921
G1 X72.154 Y205.837 E.02616
G1 X71.535 Y206.187 E.02595
G1 X71.047 Y206.392 E.01932
G1 X70.364 Y206.597 E.026
G1 X69.661 Y206.707 E.02598
G1 X69.194 Y206.728 E.01704
G1 X49.207 Y206.728 E.72925
G1 X48.492 Y206.68 E.02616
G1 X47.797 Y206.537 E.02588
G1 X47.126 Y206.301 E.02595
G1 X46.656 Y206.071 E.0191
G1 X45.973 Y205.639 E.02948
G1 X45.435 Y205.178 E.02585
G1 X44.963 Y204.648 E.02588
G1 X44.567 Y204.06 E.02588
G1 X44.253 Y203.423 E.02593
G1 X44.064 Y202.878 E.02103
G1 X43.899 Y202.131 E.02792
G1 X43.843 Y201.363 E.02808
G1 X43.843 Y196.379 E.18185
G1 X43.891 Y195.664 E.02616
G1 X44.034 Y194.969 E.02588
G1 X44.269 Y194.299 E.02592
G1 X44.546 Y193.745 E.02259
G1 X44.932 Y193.146 E.02598
G1 X45.393 Y192.607 E.02588
G1 X45.922 Y192.136 E.02588
G1 X46.511 Y191.739 E.02588
G1 X47.148 Y191.426 E.02591
G1 X47.745 Y191.221 E.02302
G1 X48.439 Y191.071 E.02593
G1 X49.208 Y191.015 E.0281
G1 X62.408 Y191.015 E.48162
G1 X62.549 Y190.967 E.00544
G1 X62.608 Y190.897 E.00332
G1 X107.932 Y109.036 E3.41405
G1 X108.322 Y108.433 E.0262
G1 X108.717 Y107.962 E.02242
G1 X109.051 Y107.608 E.01778
G1 X109.384 Y107.922 F42000
G1 F3600
G1 X109.403 Y107.901 E.00102
G1 X110.417 Y106.91 E.05173
G1 X111.256 Y106.162 E.041
G1 X111.73 Y105.766 E.02252
G1 X112.827 Y104.917 E.05065
G1 X113.329 Y104.557 E.02252
G1 X114.264 Y103.931 E.04105
G1 X115.338 Y103.278 E.04587
G1 X116.547 Y102.621 E.0502
G1 X117.558 Y102.129 E.04102
G1 X118.122 Y101.877 E.02252
G1 X119.4 Y101.362 E.05029
G1 X120.589 Y100.948 E.04596
G1 X121.18 Y100.764 E.02255
G1 X122.263 Y100.466 E.04099
G1 X123.606 Y100.162 E.05023
G1 X124.845 Y99.944 E.0459
G1 X125.96 Y99.798 E.04103
G1 X126.574 Y99.737 E.02252
G1 X127.949 Y99.651 E.05029
G1 X129.208 Y99.634 E.04594
G1 X130.454 Y99.675 E.04547
G1 X131.578 Y99.76 E.04112
G1 X132.321 Y99.843 E.0273
G1 X133.438 Y100.005 E.04116
G1 X134.174 Y100.139 E.0273
G1 X135.279 Y100.379 E.04124
G1 X136.487 Y100.697 E.04558
G1 X137.198 Y100.912 E.02711
G1 X138.272 Y101.278 E.04141
G1 X139.436 Y101.732 E.04558
G1 X140.122 Y102.03 E.02728
G1 X141.141 Y102.514 E.04116
G1 X141.808 Y102.859 E.02743
G1 X142.793 Y103.413 E.04121
G1 X143.428 Y103.8 E.02713
G1 X144.371 Y104.419 E.04116
G1 X144.984 Y104.853 E.0274
G1 X145.974 Y105.609 E.04546
G1 X146.841 Y106.333 E.04124
G1 X147.399 Y106.833 E.0273
G1 X148.213 Y107.614 E.04116
G1 X148.734 Y108.15 E.02728
G1 X149.571 Y109.077 E.04558
G1 X150.292 Y109.947 E.04124
G1 X150.749 Y110.54 E.0273
G1 X151.409 Y111.46 E.04133
G1 X151.821 Y112.079 E.02713
G1 X152.415 Y113.041 E.04124
G1 X153.025 Y114.131 E.04558
G1 X153.363 Y114.793 E.02711
G1 X153.844 Y115.818 E.04133
G1 X154.139 Y116.506 E.0273
G1 X154.547 Y117.56 E.04124
G1 X154.948 Y118.746 E.04567
G1 X155.293 Y119.948 E.04564
G1 X155.583 Y121.165 E.04564
G1 X155.817 Y122.394 E.04564
G1 X155.994 Y123.632 E.04564
G1 X156.114 Y124.871 E.04541
G1 X156.177 Y126.119 E.0456
G1 X156.18 Y127.499 E.05035
G1 X156.099 Y129.093 E.05824
G1 X156.099 Y190.775 E2.25053
G1 X156.127 Y190.946 E.00634
G1 X156.168 Y191.063 E.00451
G1 X156.271 Y191.236 E.00734
G1 X156.416 Y191.344 E.00661
G1 X156.57 Y191.419 E.00626
G1 X156.8 Y191.472 E.0086
G1 X167.671 Y191.472 E.39666
G1 X168.336 Y191.517 E.0243
G1 X168.988 Y191.651 E.02429
G1 X169.603 Y191.868 E.0238
G1 X170.026 Y192.075 E.01718
G1 X170.645 Y192.468 E.02673
G1 X171.136 Y192.886 E.02354
G1 X171.579 Y193.383 E.02429
G1 X171.939 Y193.921 E.02362
G1 X172.218 Y194.488 E.02306
G1 X172.411 Y195.048 E.02159
G1 X172.544 Y195.667 E.02313
G1 X172.598 Y196.391 E.02649
G1 X172.599 Y201.344 E.18069
G1 X172.554 Y202.008 E.0243
G1 X172.425 Y202.643 E.02362
G1 X172.21 Y203.258 E.02377
G1 X171.951 Y203.778 E.02121
G1 X171.593 Y204.33 E.02399
G1 X171.172 Y204.821 E.02362
G1 X170.702 Y205.239 E.02295
G1 X170.166 Y205.602 E.02362
G1 X169.581 Y205.892 E.02381
G1 X169.089 Y206.064 E.01903
G1 X168.383 Y206.219 E.02638
G1 X167.669 Y206.271 E.02609
G1 X147.727 Y206.271 E.72762
G1 X147.063 Y206.226 E.0243
G1 X146.41 Y206.092 E.02429
G1 X145.806 Y205.878 E.02338
G1 X145.013 Y205.447 E.03295
G1 X144.495 Y205.063 E.02353
G1 X144.032 Y204.61 E.02362
G1 X143.637 Y204.103 E.02347
G1 X143.236 Y203.392 E.02976
G1 X116.787 Y146.033 E2.30459
G1 X116.549 Y145.411 E.0243
G1 X116.398 Y144.763 E.02429
G1 X116.338 Y144.129 E.02321
G1 X116.348 Y143.658 E.01722
G1 X116.45 Y142.897 E.02799
G1 X116.627 Y142.278 E.0235
G1 X116.878 Y141.701 E.02295
G1 X117.213 Y141.147 E.02362
G1 X117.632 Y140.63 E.02429
G1 X118.09 Y140.199 E.02295
G1 X118.617 Y139.822 E.02362
G1 X119.204 Y139.513 E.02423
G1 X119.88 Y139.271 E.02617
G1 X120.533 Y139.124 E.02443
G1 X121.178 Y139.068 E.02362
G1 X121.825 Y139.1 E.02362
G1 X122.457 Y139.219 E.02348
G1 X123.223 Y139.482 E.02955
G1 X124.233 Y139.894 E.0398
G1 X124.866 Y140.106 E.02435
G1 X125.538 Y140.295 E.02547
G1 X126.219 Y140.45 E.02547
G1 X126.909 Y140.57 E.02557
G1 X127.629 Y140.658 E.02646
G1 X128.335 Y140.708 E.02581
G1 X129.336 Y140.716 E.03653
G1 X130.037 Y140.679 E.02561
G1 X130.759 Y140.603 E.02647
G1 X131.76 Y140.433 E.03705
G1 X132.435 Y140.276 E.02529
G1 X133.135 Y140.074 E.02656
G1 X133.806 Y139.842 E.0259
G1 X134.461 Y139.577 E.02581
G1 X135.352 Y139.152 E.03601
G1 X135.997 Y138.794 E.02691
G1 X136.598 Y138.418 E.0259
G1 X137.17 Y138.018 E.02547
G1 X137.719 Y137.591 E.02537
G1 X138.25 Y137.134 E.02557
G1 X138.756 Y136.652 E.02547
G1 X139.236 Y136.145 E.02547
G1 X139.69 Y135.615 E.02547
G1 X140.117 Y135.063 E.02548
G1 X140.522 Y134.479 E.0259
G1 X141.033 Y133.638 E.03591
G1 X141.377 Y132.986 E.02691
G1 X141.662 Y132.369 E.02479
G1 X141.923 Y131.719 E.02556
G1 X142.258 Y130.705 E.03894
G1 X142.5 Y129.732 E.0366
G1 X142.634 Y129 E.02716
G1 X142.752 Y128.005 E.03654
G1 X142.793 Y127.3 E.02577
G1 X142.785 Y126.262 E.03789
G1 X142.734 Y125.526 E.02692
G1 X142.645 Y124.812 E.02625
G1 X142.452 Y123.792 E.03788
G1 X142.278 Y123.107 E.02578
G1 X141.958 Y122.119 E.03789
G1 X141.699 Y121.462 E.02578
G1 X141.258 Y120.521 E.03789
G1 X140.918 Y119.902 E.02578
G1 X140.37 Y119.037 E.03737
G1 X139.945 Y118.451 E.02641
G1 X139.287 Y117.654 E.03771
G1 X138.801 Y117.137 E.02587
G1 X138.044 Y116.426 E.03789
G1 X137.499 Y115.976 E.02579
G1 X136.688 Y115.386 E.0366
G1 X135.815 Y114.844 E.0375
G1 X135.19 Y114.507 E.02589
G1 X134.512 Y114.188 E.02735
G1 X133.546 Y113.807 E.03788
G1 X132.874 Y113.59 E.02578
G1 X131.918 Y113.344 E.03601
G1 X131.212 Y113.208 E.02623
G1 X130.481 Y113.107 E.02693
G1 X129.498 Y113.033 E.03599
G1 X128.791 Y113.023 E.02577
G1 X127.702 Y113.078 E.03979
G1 X127.01 Y113.158 E.02544
G1 X126.321 Y113.273 E.02547
G1 X125.639 Y113.423 E.02547
G1 X124.966 Y113.607 E.02547
G1 X124.302 Y113.824 E.02547
G1 X123.651 Y114.075 E.02547
G1 X123.012 Y114.359 E.02549
G1 X122.39 Y114.673 E.02544
G1 X121.794 Y115.013 E.02505
G1 X121.205 Y115.389 E.02548
G1 X120.66 Y115.776 E.02439
G1 X120.113 Y116.207 E.02541
G1 X119.257 Y116.992 E.04238
G1 X119.154 Y117.122 E.00604
G1 X91.27 Y166.959 E2.08361
G1 X91.182 Y167.245 E.01094
G1 X89.153 Y188.671 E.78524
G1 X89.043 Y189.337 E.02464
G1 X88.851 Y189.959 E.02375
G1 X88.639 Y190.432 E.01891
G1 X88.278 Y191.041 E.02584
G1 X87.872 Y191.55 E.02375
G1 X87.477 Y191.935 E.02014
G1 X72.44 Y205.046 E.72789
M73 P1 R31
