; HEADER_BLOCK_START
; generated by OrcaSlicer 2.1.0 on 2025-02-17 at 15:44:57
; total layer number: 75
; filament_density: 1.27
; filament_diameter: 1.75
; max_z_height: 15.00
; HEADER_BLOCK_END

; THUMBNAIL_BLOCK_START

;
; THUMBNAIL_BLOCK_END

; THUMBNAIL_BLOCK_START

;
; THUMBNAIL_BLOCK_END

; external perimeters extrusion width = 0.42mm
; perimeters extrusion width = 0.45mm
; infill extrusion width = 0.45mm
; solid infill extrusion width = 0.42mm
; top infill extrusion width = 0.42mm
; support material extrusion width = 0.42mm
; first layer extrusion width = 0.50mm

; EXECUTABLE_BLOCK_START
EXCLUDE_OBJECT_DEFINE NAME=подпорка_для_мотора.stp_id_0_copy_0 CENTER=111.219,124.795 POLYGON=[[51.9687,165.715],[115.392,85.967],[115.746,85.5958],[116.11,85.2327],[116.481,84.8782],[116.861,84.5323],[117.248,84.1951],[117.643,83.867],[118.046,83.5481],[118.455,83.2385],[118.872,82.9383],[119.295,82.6479],[119.726,82.3672],[120.162,82.0965],[120.604,81.8359],[121.053,81.5856],[121.507,81.3456],[121.966,81.1161],[122.431,80.8973],[122.9,80.6892],[123.374,80.4919],[123.853,80.3056],[124.336,80.1303],[124.822,79.9661],[125.312,79.8132],[125.806,79.6716],[126.303,79.5414],[126.802,79.4227],[127.305,79.3154],[127.809,79.2197],[128.316,79.1357],[128.824,79.0633],[129.334,79.0026],[129.845,78.9537],[130.357,78.9165],[130.87,78.8911],[131.384,78.8775],[131.897,78.8757],[132.411,78.8857],[132.924,78.9075],[133.436,78.9411],[133.948,78.9864],[134.458,79.0435],[134.967,79.1124],[135.474,79.1929],[135.979,79.285],[136.482,79.3887],[136.983,79.504],[137.48,79.6307],[137.975,79.7689],[138.466,79.9183],[138.954,80.079],[139.438,80.2509],[139.918,80.4339],[140.393,80.6279],[140.864,80.8327],[141.33,81.0483],[141.791,81.2745],[142.247,81.5113],[142.697,81.7585],[143.141,82.016],[143.579,82.2836],[144.011,82.5613],[144.437,82.8487],[144.856,83.1459],[145.268,83.4527],[145.672,83.7688],[146.07,84.0941],[146.459,84.4285],[146.841,84.7718],[147.215,85.1237],[147.581,85.4842],[147.938,85.8529],[148.287,86.2298],[148.627,86.6146],[148.958,87.0071],[149.28,87.4072],[149.593,87.8145],[149.896,88.2289],[150.19,88.6501],[150.474,89.078],[150.748,89.5123],[151.012,89.9528],[151.266,90.3993],[151.509,90.8515],[151.742,91.3091],[151.965,91.772],[152.176,92.2398],[152.377,92.7124],[152.567,93.1895],[152.746,93.6709],[152.914,94.1562],[153.071,94.6452],[153.216,95.1378],[153.35,95.6335],[153.473,96.1322],[170.469,165.715],[170.469,170.715],[51.9687,170.715],[51.9687,165.715]]
M73 P0 R39
M106 S0
M106 P2 S0
;TYPE:Custom
M140 S0
M104 S0 
START_PRINT EXTRUDER_TEMP=250 BED_TEMP=90
M106 P3 S153
G90
G21
M83 ; use relative distances for extrusion
; filament start gcode
M106 S0
M106 P2 S0
;LAYER_CHANGE
;Z:0.2
;HEIGHT:0.2
;BEFORE_LAYER_CHANGE
;0.2
G92 E0

G1 E-.6 F2400
;_SET_FAN_SPEED_CHANGING_LAYER
SET_VELOCITY_LIMIT ACCEL=500 ACCEL_TO_DECEL=250
SET_VELOCITY_LIMIT SQUARE_CORNER_VELOCITY=9
EXCLUDE_OBJECT_START NAME=подпорка_для_мотора.stp_id_0_copy_0
G1 Z.2 F42000
G1 X111.091 Y82.776
G1 Z.2
G1 E.6 F2400
;TYPE:Brim
;WIDTH:0.5
G1 F3600
G1 X111.487 Y82.305 E.02218
G1 X111.849 Y81.922 E.01906
G1 X112.873 Y80.919 E.05174
G1 X113.731 Y80.155 E.04147
G1 X114.221 Y79.747 E.02304
G1 X115.325 Y78.892 E.0504
G1 X116.369 Y78.162 E.046
G1 X117.337 Y77.545 E.04145
G1 X117.883 Y77.222 E.02289
G1 X119.113 Y76.554 E.05056
G1 X120.147 Y76.052 E.04148
G1 X120.726 Y75.794 E.02289
G1 X122.026 Y75.27 E.0506
G1 X122.623 Y75.055 E.02292
G1 X123.715 Y74.701 E.04146
G1 X124.942 Y74.361 E.04597
G1 X126.308 Y74.053 E.05055
G1 X126.931 Y73.936 E.02289
G1 X128.066 Y73.761 E.04148
G1 X129.332 Y73.622 E.04597
G1 X130.728 Y73.537 E.0505
G1 X132.007 Y73.52 E.04618
G1 X133.274 Y73.563 E.04576
G1 X134.419 Y73.651 E.04148
G1 X135.174 Y73.735 E.02744
G1 X136.312 Y73.902 E.04152
G1 X137.06 Y74.039 E.02744
G1 X138.183 Y74.284 E.04151
G1 X138.923 Y74.472 E.02757
G1 X140.024 Y74.793 E.04139
G1 X140.746 Y75.031 E.02744
G1 X141.824 Y75.428 E.04151
G1 X142.528 Y75.716 E.02745
G1 X143.577 Y76.186 E.04151
G1 X144.26 Y76.521 E.02745
G1 X145.273 Y77.062 E.04148
G1 X146.37 Y77.711 E.04602
G1 X147.009 Y78.122 E.02744
G1 X147.954 Y78.777 E.04151
G1 X148.564 Y79.231 E.02745
G1 X149.462 Y79.949 E.04152
G1 X150.039 Y80.444 E.02743
G1 X150.975 Y81.308 E.04602
G1 X151.784 Y82.124 E.04148
G1 X152.3 Y82.682 E.02744
G1 X153.052 Y83.552 E.04151
G1 X153.528 Y84.144 E.02745
G1 X154.218 Y85.064 E.04152
G1 X154.653 Y85.688 E.02744
G1 X155.277 Y86.652 E.04148
G1 X155.922 Y87.751 E.04602
G1 X156.282 Y88.42 E.02744
G1 X156.792 Y89.451 E.04151
G1 X157.105 Y90.143 E.02744
G1 X157.544 Y91.211 E.04167
G1 X157.808 Y91.919 E.02729
G1 X158.171 Y93.01 E.04152
G1 X158.352 Y93.618 E.02289
G1 X158.702 Y94.974 E.05056
G1 X158.938 Y96.098 E.04148
G1 X159.048 Y96.722 E.02289
G1 X159.24 Y98.109 E.05056
G1 X159.345 Y99.253 E.04147
G1 X159.388 Y100.012 E.02745
G1 X159.414 Y101.162 E.04152
G1 X159.408 Y101.796 E.02289
G1 X159.344 Y103.196 E.0506
G1 X159.291 Y103.827 E.02289
G1 X159.159 Y104.969 E.04149
G1 X158.973 Y106.138 E.04272
G1 X152.117 Y155.884 E1.81312
G1 X152.083 Y156.221 E.01223
G1 X152.078 Y156.632 E.01485
G1 X152.101 Y156.912 E.01015
G1 X152.165 Y157.297 E.01409
G1 X152.332 Y157.855 E.02103
G1 X152.566 Y158.357 E.01998
G1 X152.869 Y158.82 E.01998
G1 X153.234 Y159.236 E.01998
G1 X153.655 Y159.595 E.01998
G1 X154.122 Y159.892 E.01998
G1 X154.619 Y160.116 E.01969
G1 X154.886 Y160.204 E.01015
G1 X155.266 Y160.293 E.01409
G1 X155.678 Y160.346 E.01502
G1 X156.017 Y160.358 E.01223
G1 X170.461 Y160.358 E.52151
G1 X171.176 Y160.407 E.02589
G1 X171.871 Y160.549 E.02561
G1 X172.542 Y160.785 E.02568
G1 X173.012 Y161.015 E.0189
G1 X173.695 Y161.448 E.02917
G1 X174.233 Y161.908 E.02558
G1 X174.705 Y162.438 E.02561
G1 X175.101 Y163.026 E.02561
G1 X175.415 Y163.664 E.02566
G1 X175.604 Y164.208 E.02081
G1 X175.769 Y164.955 E.02763
G1 X175.825 Y165.723 E.02779
G1 X175.825 Y170.707 E.17995
G1 X175.777 Y171.422 E.02589
G1 X175.634 Y172.117 E.02561
G1 X175.399 Y172.787 E.02565
G1 X175.122 Y173.341 E.02236
G1 X174.736 Y173.94 E.02571
G1 X174.275 Y174.479 E.02561
G1 X173.745 Y174.951 E.02561
G1 X173.157 Y175.347 E.02561
G1 X172.52 Y175.661 E.02564
G1 X171.923 Y175.865 E.02278
G1 X171.229 Y176.015 E.02566
G1 X170.46 Y176.071 E.02781
G1 X128.997 Y176.071 E1.49706
G1 X128.378 Y176.052 E.02239
G1 X127.652 Y175.983 E.02633
G1 X126.913 Y175.859 E.02702
G1 X126.203 Y175.687 E.02641
G1 X125.734 Y175.544 E.0177
G1 X125.031 Y175.282 E.02706
G1 X124.366 Y174.978 E.02641
G1 X123.933 Y174.749 E.01769
G1 X123.291 Y174.358 E.02713
G1 X122.696 Y173.935 E.02635
G1 X122.314 Y173.628 E.01769
G1 X121.758 Y173.123 E.02713
G1 X121.255 Y172.596 E.0263
G1 X120.778 Y172.019 E.02702
G1 X120.355 Y171.424 E.02636
G1 X119.964 Y170.784 E.02707
G1 X119.734 Y170.351 E.0177
G1 X119.43 Y169.685 E.02646
G1 X119.251 Y169.225 E.01782
G1 X119.023 Y168.513 E.027
G1 X118.902 Y168.037 E.01774
G1 X118.803 Y167.555 E.01775
G1 X118.699 Y166.832 E.02636
G1 X118.639 Y165.843 E.03578
G1 X118.637 Y118.307 E1.71634
G1 X118.686 Y117.592 E.02589
G1 X118.829 Y116.897 E.02561
G1 X119.064 Y116.227 E.02565
G1 X119.34 Y115.673 E.02236
G1 X119.726 Y115.074 E.02571
G1 X120.187 Y114.535 E.02561
G1 X120.717 Y114.064 E.02561
G1 X121.305 Y113.667 E.02561
G1 X121.942 Y113.354 E.02561
G1 X122.611 Y113.13 E.02548
G1 X123.647 Y112.966 E.03786
G1 X124.354 Y112.962 E.02555
G1 X125.057 Y113.053 E.02561
G1 X125.743 Y113.238 E.02565
G1 X126.82 Y113.68 E.04201
G1 X127.463 Y113.914 E.02473
G1 X128.108 Y114.112 E.02436
G1 X128.751 Y114.275 E.02396
G1 X129.427 Y114.41 E.0249
G1 X130.413 Y114.544 E.03593
G1 X131.09 Y114.593 E.02448
G1 X131.765 Y114.608 E.02437
G1 X132.773 Y114.566 E.03645
G1 X133.448 Y114.496 E.02448
G1 X134.115 Y114.392 E.02438
G1 X134.776 Y114.254 E.02437
G1 X135.429 Y114.084 E.02438
G1 X136.083 Y113.877 E.02479
G1 X136.719 Y113.639 E.02448
G1 X137.638 Y113.229 E.03636
G1 X138.238 Y112.914 E.02447
G1 X138.822 Y112.569 E.02448
G1 X139.646 Y112.01 E.03595
G1 X140.193 Y111.586 E.02498
G1 X140.939 Y110.928 E.03593
G1 X141.42 Y110.449 E.0245
G1 X142.087 Y109.692 E.03643
G1 X142.503 Y109.156 E.02448
G1 X143.071 Y108.321 E.03647
G1 X143.416 Y107.738 E.02446
G1 X143.736 Y107.127 E.02489
G1 X144.019 Y106.514 E.02438
G1 X144.378 Y105.586 E.03593
G1 X144.583 Y104.94 E.02448
G1 X144.827 Y103.96 E.03645
G1 X144.951 Y103.282 E.0249
G1 X145.039 Y102.613 E.02437
G1 X145.092 Y101.94 E.02438
G1 X145.112 Y101.265 E.02437
G1 X145.097 Y100.587 E.0245
G1 X145.013 Y99.595 E.03592
G1 X144.915 Y98.925 E.02448
G1 X144.782 Y98.263 E.02438
G1 X144.614 Y97.597 E.02479
G1 X144.415 Y96.952 E.02438
G1 X144.184 Y96.317 E.02437
G1 X143.922 Y95.696 E.02438
G1 X143.628 Y95.088 E.02437
G1 X143.303 Y94.493 E.02448
G1 X142.772 Y93.651 E.03593
G1 X142.375 Y93.101 E.02448
G1 X141.945 Y92.566 E.02479
G1 X141.496 Y92.062 E.02438
G1 X141.023 Y91.581 E.02437
G1 X140.523 Y91.122 E.02448
G1 X139.738 Y90.488 E.03645
G1 X139.185 Y90.096 E.02448
G1 X138.338 Y89.572 E.03593
G1 X137.741 Y89.252 E.02448
G1 X137.13 Y88.964 E.02438
G1 X136.492 Y88.701 E.02489
G1 X135.55 Y88.381 E.03593
G1 X134.896 Y88.204 E.02448
G1 X134.236 Y88.06 E.02437
G1 X133.57 Y87.95 E.02438
G1 X132.899 Y87.874 E.02437
G1 X132.226 Y87.831 E.02437
G1 X131.55 Y87.823 E.02438
G1 X130.528 Y87.875 E.03697
G1 X129.857 Y87.952 E.02438
G1 X129.191 Y88.062 E.02438
G1 X128.532 Y88.206 E.02437
G1 X127.88 Y88.383 E.02438
G1 X127.238 Y88.593 E.02437
G1 X126.608 Y88.835 E.02437
G1 X125.99 Y89.108 E.02439
G1 X125.398 Y89.407 E.02394
G1 X124.811 Y89.74 E.02437
G1 X124.242 Y90.103 E.02438
G1 X123.691 Y90.494 E.02437
G1 X123.161 Y90.912 E.02437
G1 X122.328 Y91.679 E.0409
G1 X94.435 Y141.531 E2.06255
G1 X94.407 Y141.621 E.00341
G1 X92.564 Y161.085 E.7059
G1 X92.448 Y161.933 E.0309
G1 X92.291 Y162.661 E.02692
G1 X92.087 Y163.36 E.02628
G1 X91.828 Y164.06 E.02694
G1 X91.527 Y164.723 E.02628
G1 X91.171 Y165.377 E.02689
G1 X90.633 Y166.198 E.03546
G1 X90.183 Y166.773 E.02635
G1 X89.684 Y167.327 E.02692
G1 X89.058 Y167.921 E.03116
G1 X82.638 Y173.518 E.30751
G1 X82.157 Y173.913 E.02248
G1 X81.76 Y174.204 E.01776
G1 X80.918 Y174.734 E.03593
G1 X80.485 Y174.965 E.01773
G1 X79.819 Y175.271 E.02647
G1 X78.885 Y175.609 E.03584
G1 X78.16 Y175.805 E.02713
G1 X77.679 Y175.904 E.01771
G1 X76.694 Y176.034 E.03587
G1 X75.827 Y176.071 E.03135
G1 X51.976 Y176.071 E.86115
G1 X51.261 Y176.023 E.02589
G1 X50.566 Y175.88 E.02561
G1 X49.895 Y175.644 E.02568
G1 X49.425 Y175.414 E.0189
G1 X48.743 Y174.982 E.02917
G1 X48.205 Y174.521 E.02558
G1 X47.733 Y173.991 E.02561
G1 X47.337 Y173.403 E.02561
G1 X47.022 Y172.766 E.02566
G1 X46.833 Y172.221 E.02081
G1 X46.668 Y171.474 E.02763
G1 X46.612 Y170.706 E.02779
G1 X46.612 Y165.722 E.17995
G1 X46.661 Y165.007 E.02589
G1 X46.803 Y164.312 E.02561
G1 X47.039 Y163.642 E.02565
G1 X47.315 Y163.088 E.02236
G1 X47.701 Y162.489 E.02571
G1 X48.162 Y161.951 E.02561
G1 X48.692 Y161.479 E.02561
G1 X49.28 Y161.083 E.02561
G1 X49.918 Y160.768 E.02566
G1 X50.462 Y160.579 E.02081
G1 X51.209 Y160.414 E.02763
G1 X51.977 Y160.358 E.02779
G1 X65.295 Y160.358 E.48088
G1 X65.807 Y160.334 E.01849
G1 X66.282 Y160.261 E.01736
G1 X66.745 Y160.141 E.01727
G1 X67.193 Y159.973 E.01727
G1 X67.622 Y159.76 E.01729
G1 X68.025 Y159.504 E.01725
G1 X68.401 Y159.208 E.01727
G1 X68.744 Y158.875 E.01727
G1 X68.956 Y158.631 E.01166
G1 X69.234 Y158.247 E.01713
G1 X69.429 Y157.921 E.0137
G1 X110.702 Y83.379 E3.07643
G1 X111.07 Y82.809 E.02448
G1 X111.454 Y83.058 F42000
G1 F3600
G1 X111.465 Y83.041 E.00073
G1 X111.825 Y82.613 E.02022
G1 X112.173 Y82.244 E.0183
G1 X113.188 Y81.251 E.05124
G1 X114.028 Y80.503 E.04062
G1 X114.505 Y80.105 E.02246
G1 X115.598 Y79.259 E.04991
G1 X116.625 Y78.54 E.04523
G1 X117.575 Y77.936 E.04064
G1 X118.106 Y77.621 E.02231
G1 X119.325 Y76.959 E.05008
G1 X120.338 Y76.468 E.04064
G1 X120.902 Y76.216 E.02231
G1 X122.191 Y75.697 E.05017
G1 X122.773 Y75.487 E.02234
G1 X123.844 Y75.139 E.04064
G1 X125.057 Y74.804 E.04544
G1 X126.403 Y74.5 E.04982
G1 X127.01 Y74.386 E.02231
G1 X128.123 Y74.215 E.04067
G1 X129.368 Y74.078 E.0452
G1 X130.742 Y73.994 E.04971
G1 X132.006 Y73.978 E.04563
G1 X133.246 Y74.019 E.0448
G1 X134.374 Y74.106 E.04086
G1 X135.118 Y74.189 E.02704
G1 X136.236 Y74.353 E.04078
G1 X136.973 Y74.488 E.02705
G1 X138.08 Y74.729 E.04094
G1 X138.805 Y74.914 E.027
G1 X139.886 Y75.229 E.04065
G1 X140.597 Y75.464 E.02705
G1 X141.661 Y75.856 E.04094
G1 X142.351 Y76.137 E.02688
G1 X143.385 Y76.601 E.04094
G1 X144.053 Y76.929 E.02688
G1 X145.051 Y77.462 E.04085
G1 X146.128 Y78.099 E.04515
G1 X146.753 Y78.501 E.02685
G1 X147.686 Y79.147 E.04094
G1 X148.283 Y79.591 E.02688
G1 X149.168 Y80.299 E.04095
G1 X149.736 Y80.787 E.02702
G1 X150.655 Y81.635 E.04515
G1 X151.452 Y82.439 E.04085
G1 X151.961 Y82.988 E.02705
G1 X152.699 Y83.843 E.04077
G1 X153.169 Y84.427 E.02705
G1 X153.849 Y85.334 E.04095
G1 X154.275 Y85.945 E.02688
G1 X154.889 Y86.895 E.04085
G1 X155.522 Y87.973 E.04515
G1 X155.875 Y88.628 E.02685
G1 X156.378 Y89.644 E.04095
G1 X156.687 Y90.327 E.02704
G1 X157.118 Y91.375 E.04093
G1 X157.376 Y92.069 E.02672
G1 X157.735 Y93.145 E.04098
G1 X157.911 Y93.738 E.02231
G1 X158.258 Y95.081 E.05008
G1 X158.488 Y96.182 E.04064
G1 X158.596 Y96.791 E.02231
G1 X158.786 Y98.165 E.05008
G1 X158.889 Y99.285 E.0406
G1 X158.931 Y100.028 E.02688
G1 X158.957 Y101.162 E.04098
G1 X158.951 Y101.78 E.02231
G1 X158.887 Y103.169 E.05017
G1 X158.836 Y103.784 E.02231
G1 X158.706 Y104.904 E.04069
G1 X158.52 Y106.077 E.04287
G1 X151.665 Y155.819 E1.81297
G1 X151.626 Y156.222 E.01463
G1 X151.621 Y156.621 E.01441
G1 X151.651 Y156.993 E.01347
G1 X151.713 Y157.364 E.01358
G1 X151.892 Y157.978 E.02307
G1 X152.148 Y158.542 E.02239
G1 X152.481 Y159.062 E.0223
G1 X152.944 Y159.589 E.02531
G1 X153.417 Y159.986 E.0223
G1 X153.942 Y160.312 E.0223
G1 X154.483 Y160.553 E.02138
G1 X154.787 Y160.65 E.01152
G1 X155.155 Y160.737 E.01365
G1 X155.615 Y160.799 E.01676
G1 X156.02 Y160.815 E.01464
G1 X170.45 Y160.816 E.52102
G1 X171.124 Y160.862 E.02438
G1 X171.758 Y160.994 E.02337
G1 X172.358 Y161.205 E.02297
G1 X172.782 Y161.411 E.01704
G1 X173.414 Y161.811 E.027
G1 X173.918 Y162.242 E.02396
G1 X174.337 Y162.712 E.02271
G1 X174.699 Y163.248 E.02337
G1 X174.989 Y163.833 E.02356
G1 X175.161 Y164.325 E.01883
G1 X175.317 Y165.031 E.02611
G1 X175.368 Y165.745 E.02581
G1 X175.368 Y170.687 E.17845
G1 X175.323 Y171.351 E.02405
G1 X175.194 Y171.986 E.02337
G1 X174.98 Y172.601 E.02352
G1 X174.72 Y173.121 E.02099
G1 X174.363 Y173.673 E.02374
G1 X173.954 Y174.151 E.02271
G1 X173.471 Y174.583 E.02337
G1 X172.919 Y174.955 E.02404
G1 X172.352 Y175.234 E.02282
G1 X171.793 Y175.426 E.02136
G1 X171.154 Y175.562 E.02358
G1 X170.449 Y175.614 E.02553
G1 X129.007 Y175.614 E1.49631
G1 X128.402 Y175.595 E.02184
G1 X127.706 Y175.529 E.02524
G1 X127.01 Y175.412 E.02549
G1 X126.327 Y175.247 E.02536
G1 X125.884 Y175.112 E.01672
G1 X125.211 Y174.861 E.02595
G1 X124.571 Y174.57 E.02537
G1 X124.155 Y174.349 E.01701
G1 X123.539 Y173.974 E.02607
G1 X122.975 Y173.573 E.02495
G1 X122.608 Y173.278 E.017
G1 X122.081 Y172.799 E.02572
G1 X121.594 Y172.288 E.02548
G1 X121.144 Y171.744 E.02549
G1 X120.739 Y171.176 E.02518
G1 X120.364 Y170.562 E.02601
G1 X120.146 Y170.153 E.01672
G1 X119.853 Y169.511 E.02548
G1 X119.684 Y169.076 E.01683
G1 X119.464 Y168.39 E.02601
G1 X119.348 Y167.937 E.01689
G1 X119.253 Y167.472 E.01713
G1 X119.155 Y166.791 E.02484
G1 X119.096 Y165.825 E.03495
G1 X119.095 Y118.327 E1.71496
G1 X119.142 Y117.644 E.02471
G1 X119.273 Y117.011 E.02337
G1 X119.483 Y116.413 E.02286
G1 X119.742 Y115.893 E.02099
G1 X120.1 Y115.341 E.02374
G1 X120.522 Y114.85 E.02337
G1 X121.006 Y114.42 E.02337
G1 X121.543 Y114.06 E.02337
G1 X122.125 Y113.775 E.02337
G1 X122.731 Y113.574 E.02306
G1 X123.674 Y113.425 E.03446
G1 X124.317 Y113.419 E.02322
G1 X124.977 Y113.504 E.02404
G1 X125.604 Y113.675 E.02346
G1 X126.643 Y114.101 E.04055
G1 X127.332 Y114.352 E.02646
G1 X127.999 Y114.556 E.02518
G1 X128.665 Y114.724 E.02479
G1 X129.37 Y114.864 E.02596
G1 X130.348 Y114.996 E.03563
G1 X131.053 Y115.049 E.02554
G1 X131.75 Y115.065 E.02518
G1 X132.788 Y115.023 E.03749
