; HEADER_BLOCK_START
; generated by OrcaSlicer 2.1.0 on 2025-02-17 at 17:05:37
; total layer number: 75
; filament_density: 1.27
; filament_diameter: 1.75
; max_z_height: 15.00
; HEADER_BLOCK_END

; THUMBNAIL_BLOCK_START

;
; THUMBNAIL_BLOCK_END

; THUMBNAIL_BLOCK_START

;
; THUMBNAIL_BLOCK_END

; external perimeters extrusion width = 0.42mm
; perimeters extrusion width = 0.45mm
; infill extrusion width = 0.45mm
; solid infill extrusion width = 0.42mm
; top infill extrusion width = 0.42mm
; support material extrusion width = 0.42mm
; first layer extrusion width = 0.50mm

; EXECUTABLE_BLOCK_START
EXCLUDE_OBJECT_DEFINE NAME=подпорка_для_мотора.stp_id_0_copy_0 CENTER=110,110 POLYGON=[[56,66.5805],[164,66.5805],[164,71.5805],[157.996,133.124],[157.943,133.635],[157.879,134.144],[157.802,134.652],[157.714,135.158],[157.615,135.662],[157.504,136.163],[157.381,136.662],[157.247,137.157],[157.102,137.65],[156.945,138.139],[156.777,138.624],[156.598,139.106],[156.409,139.583],[156.208,140.055],[155.996,140.523],[155.774,140.986],[155.541,141.444],[155.297,141.896],[155.043,142.342],[154.779,142.783],[154.505,143.217],[154.221,143.645],[153.928,144.066],[153.624,144.481],[153.312,144.888],[152.99,145.288],[152.659,145.681],[152.319,146.065],[151.97,146.442],[151.612,146.811],[151.247,147.171],[150.873,147.523],[150.491,147.867],[150.101,148.201],[149.704,148.526],[149.299,148.843],[148.887,149.149],[148.468,149.446],[148.043,149.734],[147.611,150.012],[147.172,150.279],[146.728,150.537],[146.278,150.784],[145.822,151.021],[145.361,151.247],[144.895,151.462],[144.424,151.667],[143.949,151.861],[143.469,152.044],[142.985,152.216],[142.497,152.377],[142.006,152.526],[141.512,152.664],[141.014,152.791],[140.513,152.906],[140.011,153.01],[139.505,153.102],[138.998,153.183],[138.489,153.252],[137.979,153.309],[137.467,153.354],[136.955,153.388],[136.442,153.409],[135.928,153.419],[135.415,153.418],[134.902,153.404],[134.389,153.379],[133.877,153.342],[133.365,153.293],[132.855,153.232],[132.347,153.159],[131.84,153.075],[131.336,152.98],[130.834,152.873],[130.334,152.754],[129.837,152.624],[129.344,152.482],[128.853,152.329],[128.367,152.165],[127.884,151.99],[127.406,151.803],[126.932,151.606],[126.462,151.398],[125.997,151.179],[125.538,150.95],[125.084,150.71],[124.636,150.459],[124.193,150.199],[123.757,149.928],[123.327,149.647],[122.903,149.357],[122.487,149.057],[122.077,148.747],[121.674,148.428],[121.279,148.1],[120.892,147.763],[120.512,147.417],[120.141,147.062],[119.778,146.699],[119.423,146.328],[56,71.5805],[56,66.5805]]
M73 P0 R35
M106 S0
M106 P2 S0
;TYPE:Custom
M140 S0
M104 S0 
START_PRINT EXTRUDER_TEMP=250 BED_TEMP=90
M106 P3 S153
G90
G21
M83 ; use relative distances for extrusion
; filament start gcode
M106 S0
M106 P2 S0
;LAYER_CHANGE
;Z:0.2
;HEIGHT:0.2
;BEFORE_LAYER_CHANGE
;0.2
G92 E0

G1 E-.6 F2400
;_SET_FAN_SPEED_CHANGING_LAYER
SET_VELOCITY_LIMIT ACCEL=500 ACCEL_TO_DECEL=250
SET_VELOCITY_LIMIT SQUARE_CORNER_VELOCITY=9
EXCLUDE_OBJECT_START NAME=подпорка_для_мотора.stp_id_0_copy_0
G1 Z.2 F42000
G1 X56.04 Y63.378
G1 Z.2
G1 E.6 F2400
;TYPE:Brim
;WIDTH:0.5
G1 F3600
G1 X56.533 Y62.966 E.02317
G1 X57.078 Y62.634 E.02308
G1 X57.864 Y62.322 E.03052
G1 X58.544 Y62.176 E.0251
G1 X59.122 Y62.138 E.02091
G1 X87.461 Y62.138 E1.02321
G1 X88.105 Y62.186 E.02335
G1 X88.997 Y62.417 E.03323
G1 X89.638 Y62.707 E.02544
G1 X90.397 Y63.24 E.03349
G1 X92.488 Y65.063 E.10012
G1 X92.892 Y65.438 E.01993
G1 X93.364 Y65.935 E.02474
G1 X93.652 Y66.278 E.01617
G1 X93.924 Y66.633 E.01613
G1 X94.293 Y67.181 E.02386
G1 X94.635 Y67.775 E.02475
G1 X94.834 Y68.175 E.01613
G1 X95.014 Y68.584 E.01613
G1 X95.243 Y69.199 E.0237
G1 X95.486 Y70.067 E.03255
G1 X95.615 Y70.739 E.02471
G1 X95.673 Y71.183 E.01618
G1 X97.535 Y90.829 E.71251
G1 X97.602 Y91.089 E.00968
G1 X125.624 Y141.175 E2.07219
M73 P0 R34
G1 X126.057 Y141.604 E.02204
G1 X126.609 Y142.087 E.02644
G1 X127.175 Y142.533 E.02602
G1 X127.762 Y142.951 E.02604
G1 X128.371 Y143.338 E.02604
G1 X128.998 Y143.694 E.02604
G1 X129.632 Y144.014 E.02562
G1 X130.291 Y144.305 E.02604
G1 X130.964 Y144.564 E.02604
G1 X131.65 Y144.788 E.02604
G1 X132.346 Y144.977 E.02604
G1 X133.05 Y145.131 E.02604
G1 X133.762 Y145.249 E.02604
G1 X134.478 Y145.331 E.02604
G1 X135.556 Y145.386 E.03895
G1 X136.28 Y145.378 E.02614
G1 X136.999 Y145.333 E.02604
G1 X137.716 Y145.252 E.02604
G1 X138.428 Y145.135 E.02604
G1 X139.132 Y144.982 E.02604
G1 X139.84 Y144.791 E.02646
G1 X140.525 Y144.567 E.02604
G1 X141.199 Y144.31 E.02604
G1 X141.859 Y144.018 E.02604
G1 X142.503 Y143.694 E.02604
G1 X143.13 Y143.338 E.02604
G1 X143.738 Y142.95 E.02604
G1 X144.326 Y142.533 E.02604
G1 X144.892 Y142.086 E.02604
G1 X145.435 Y141.611 E.02604
G1 X145.955 Y141.108 E.02614
G1 X146.673 Y140.321 E.03843
G1 X147.126 Y139.757 E.02614
G1 X147.549 Y139.173 E.02604
G1 X147.942 Y138.568 E.02604
G1 X148.304 Y137.944 E.02604
G1 X148.633 Y137.303 E.02604
G1 X148.931 Y136.646 E.02604
G1 X149.194 Y135.974 E.02604
G1 X149.424 Y135.291 E.02604
G1 X149.619 Y134.596 E.02604
G1 X149.778 Y133.893 E.02604
G1 X149.902 Y133.183 E.02604
G1 X149.99 Y132.467 E.02604
G1 X150.042 Y131.747 E.02604
G1 X150.057 Y131.027 E.02602
G1 X150.036 Y130.306 E.02605
G1 X149.937 Y129.231 E.03895
G1 X149.826 Y128.516 E.02614
G1 X149.592 Y127.463 E.03895
G1 X149.392 Y126.767 E.02614
G1 X149.028 Y125.752 E.03895
G1 X148.741 Y125.087 E.02614
G1 X148.253 Y124.125 E.03895
G1 X147.885 Y123.501 E.02614
G1 X147.479 Y122.887 E.02657
G1 X146.838 Y122.038 E.03842
G1 X146.366 Y121.489 E.02614
G1 X145.859 Y120.956 E.02656
G1 X145.078 Y120.233 E.03843
G1 X144.518 Y119.774 E.02614
G1 X143.641 Y119.146 E.03895
G1 X143.014 Y118.755 E.02667
G1 X142.078 Y118.249 E.03842
G1 X141.418 Y117.944 E.02625
G1 X140.415 Y117.555 E.03886
G1 X139.716 Y117.334 E.02644
G1 X139.013 Y117.15 E.02624
G1 X137.951 Y116.944 E.03905
G1 X136.895 Y116.819 E.03843
G1 X136.16 Y116.779 E.02656
G1 X135.436 Y116.777 E.02614
G1 X134.356 Y116.841 E.03905
G1 X133.302 Y116.984 E.03843
G1 X132.592 Y117.126 E.02614
G1 X131.892 Y117.303 E.02605
G1 X131.192 Y117.519 E.02644
G1 X130.514 Y117.766 E.02606
G1 X129.813 Y118.062 E.02748
G1 X129.199 Y118.278 E.02352
G1 X128.572 Y118.399 E.02304
G1 X127.656 Y118.41 E.03307
G1 X126.93 Y118.294 E.02653
G1 X126.321 Y118.095 E.02313
G1 X125.747 Y117.809 E.02317
G1 X125.222 Y117.44 E.02317
G1 X124.756 Y116.999 E.02317
G1 X124.362 Y116.495 E.02309
G1 X123.971 Y115.771 E.02972
G1 X123.723 Y115.066 E.02698
G1 X123.609 Y114.436 E.02313
G1 X123.589 Y113.793 E.02321
G1 X123.648 Y113.239 E.02012
G1 X131.764 Y65.839 E1.73632
G1 X131.921 Y65.208 E.02348
G1 X132.166 Y64.615 E.02317
G1 X132.495 Y64.064 E.02317
G1 X132.903 Y63.568 E.02321
G1 X133.342 Y63.164 E.02154
G1 X133.865 Y62.785 E.0233
G1 X134.434 Y62.49 E.02317
G1 X135.041 Y62.281 E.02317
G1 X135.675 Y62.164 E.02325
G1 X136.15 Y62.138 E.01719
G1 X160.878 Y62.138 E.89281
G1 X161.526 Y62.186 E.02348
G1 X162.148 Y62.327 E.02304
G1 X162.992 Y62.684 E.03307
G1 X163.61 Y63.08 E.02653
G1 X164.089 Y63.506 E.02313
G1 X164.5 Y63.999 E.02317
G1 X164.833 Y64.545 E.02308
G1 X165.144 Y65.331 E.03052
G1 X165.29 Y66.01 E.0251
G1 X165.328 Y66.588 E.02091
G1 X165.328 Y71.572 E.17995
G1 X165.28 Y72.22 E.02348
G1 X165.14 Y72.843 E.02304
G1 X164.783 Y73.686 E.03307
G1 X164.386 Y74.305 E.02653
G1 X163.96 Y74.783 E.02313
G1 X163.467 Y75.195 E.02317
G1 X162.922 Y75.527 E.02308
G1 X162.136 Y75.839 E.03052
G1 X161.456 Y75.985 E.0251
G1 X160.878 Y76.023 E.02091
G1 X155.434 Y76.023 E.19657
G1 X155.293 Y76.071 E.00538
G1 X155.212 Y76.197 E.00538
G1 X155.208 Y76.282 E.00311
G1 X162.101 Y126.298 E1.82293
G1 X162.348 Y127.948 E.06025
G1 X162.422 Y128.661 E.02588
G1 X162.5 Y129.788 E.04075
G1 X162.525 Y130.505 E.02593
G1 X162.526 Y131.634 E.04076
G1 X162.501 Y132.352 E.02592
G1 X162.424 Y133.478 E.04076
G1 X162.35 Y134.192 E.02592
G1 X162.196 Y135.309 E.04072
G1 X161.973 Y136.52 E.04445
G1 X161.67 Y137.821 E.04823
G1 X161.331 Y139.008 E.04458
G1 X160.976 Y140.075 E.0406
G1 X160.764 Y140.65 E.02213
G1 X160.255 Y141.886 E.04828
G1 X159.731 Y143.004 E.04458
G1 X159.209 Y144.001 E.0406
G1 X158.907 Y144.534 E.02214
G1 X158.264 Y145.585 E.0445
G1 X157.573 Y146.605 E.04446
G1 X156.837 Y147.591 E.04445
G1 X156.056 Y148.543 E.04445
G1 X155.16 Y149.534 E.04823
G1 X154.29 Y150.407 E.04449
G1 X153.843 Y150.826 E.02214
G1 X152.996 Y151.571 E.04072
G1 X151.952 Y152.405 E.04824
G1 X150.955 Y153.127 E.04445
G1 X150.015 Y153.747 E.04067
G1 X148.957 Y154.379 E.0445
G1 X148.325 Y154.727 E.02604
G1 X147.227 Y155.279 E.04437
G1 X146.102 Y155.78 E.04445
G1 X145.054 Y156.194 E.04068
G1 X143.89 Y156.595 E.04445
G1 X142.708 Y156.943 E.0445
G1 X142.012 Y157.12 E.02591
G1 X140.808 Y157.38 E.0445
G1 X139.693 Y157.57 E.04082
G1 X138.474 Y157.723 E.04435
G1 X137.759 Y157.787 E.02591
G1 X136.529 Y157.851 E.0445
G1 X135.402 Y157.86 E.04068
G1 X134.171 Y157.816 E.04446
G1 X132.943 Y157.715 E.04449
G1 X132.231 Y157.63 E.02591
G1 X131.013 Y157.44 E.0445
G1 X129.907 Y157.217 E.04072
G1 X129.209 Y157.051 E.02592
G1 X128.021 Y156.723 E.0445
G1 X126.949 Y156.375 E.04068
G1 X125.796 Y155.944 E.04446
G1 X124.663 Y155.459 E.04449
G1 X124.011 Y155.152 E.02604
G1 X122.919 Y154.588 E.04438
G1 X121.941 Y154.028 E.04067
G1 X120.9 Y153.368 E.0445
G1 X120.308 Y152.962 E.02592
G1 X119.318 Y152.229 E.0445
G1 X118.443 Y151.519 E.04067
G1 X117.445 Y150.63 E.04827
G1 X116.639 Y149.842 E.04069
G1 X116.217 Y149.403 E.02201
G1 X115.853 Y148.97 E.02041
G1 X115.533 Y148.473 E.02132
G1 X78.493 Y81.575 E2.76095
G1 X78.024 Y80.803 E.03261
G1 X77.493 Y80.077 E.03248
G1 X76.916 Y79.412 E.03179
G1 X76.285 Y78.798 E.03178
G1 X75.606 Y78.238 E.03178
G1 X74.882 Y77.737 E.03178
G1 X74.122 Y77.3 E.03167
G1 X73.604 Y77.047 E.02082
G1 X73.065 Y76.82 E.02111
G1 X72.235 Y76.537 E.03167
G1 X71.381 Y76.323 E.03179
G1 X70.512 Y76.18 E.03178
G1 X69.619 Y76.11 E.03236
G1 X59.123 Y76.023 E.37895
G1 X58.474 Y75.975 E.02351
G1 X57.853 Y75.834 E.023
G1 X56.925 Y75.431 E.03651
G1 X56.39 Y75.081 E.02308
G1 X55.911 Y74.655 E.02317
G1 X55.5 Y74.162 E.02317
G1 X55.167 Y73.616 E.02308
G1 X54.856 Y72.83 E.03052
G1 X54.71 Y72.151 E.0251
G1 X54.672 Y71.573 E.02091
G1 X54.672 Y66.589 E.17995
G1 X54.72 Y65.941 E.02348
G1 X54.86 Y65.319 E.023
G1 X55.263 Y64.392 E.03651
G1 X55.613 Y63.857 E.02308
G1 X56.013 Y63.407 E.02173
G1 X56.352 Y63.714 F42000
G1 F3600
G1 X56.792 Y63.345 E.02072
G1 X57.273 Y63.05 E.02038
G1 X57.987 Y62.766 E.02774
G1 X58.597 Y62.632 E.02257
G1 X59.141 Y62.595 E.01968
G1 X87.449 Y62.596 E1.02207
G1 X88.043 Y62.642 E.02151
G1 X88.855 Y62.854 E.0303
G1 X89.421 Y63.114 E.0225
G1 X90.121 Y63.605 E.03087
G1 X92.183 Y65.404 E.09882
G1 X92.574 Y65.766 E.01924
G1 X93.02 Y66.237 E.02341
G1 X93.55 Y66.896 E.03054
G1 X93.902 Y67.419 E.02276
G1 X94.23 Y67.988 E.0237
G1 X94.419 Y68.366 E.01527
G1 X94.592 Y68.76 E.01552
G1 X94.806 Y69.336 E.02219
G1 X95.04 Y70.167 E.03117
G1 X95.163 Y70.808 E.02358
G1 X95.219 Y71.232 E.01545
G1 X97.079 Y90.863 E.71196
G1 X97.158 Y91.197 E.0124
G1 X97.208 Y91.32 E.00477
G1 X125.221 Y141.389 E2.07152
G1 X125.309 Y141.506 E.00528
G1 X125.733 Y141.926 E.02154
G1 X126.305 Y142.428 E.02751
G1 X126.889 Y142.89 E.02686
G1 X127.495 Y143.321 E.02687
G1 X128.122 Y143.722 E.02687
G1 X128.769 Y144.09 E.02687
G1 X129.423 Y144.42 E.02645
G1 X130.103 Y144.722 E.02686
G1 X130.798 Y144.989 E.02687
G1 X131.505 Y145.221 E.02687
G1 X132.223 Y145.417 E.02687
G1 X132.95 Y145.577 E.02687
G1 X133.684 Y145.699 E.02687
G1 X134.422 Y145.785 E.02684
G1 X135.528 Y145.843 E.03999
G1 X136.282 Y145.835 E.02721
G1 X137.025 Y145.79 E.02687
G1 X137.764 Y145.707 E.02687
G1 X138.499 Y145.587 E.02687
G1 X139.226 Y145.43 E.02687
G1 X139.956 Y145.233 E.02729
G1 X140.664 Y145.003 E.02688
G1 X141.359 Y144.738 E.02687
G1 X142.04 Y144.438 E.02687
G1 X142.705 Y144.104 E.02687
G1 X143.378 Y143.721 E.02795
G1 X144.005 Y143.321 E.02687
G1 X144.612 Y142.889 E.02687
G1 X145.195 Y142.428 E.02687
G1 X145.755 Y141.937 E.02687
G1 X146.296 Y141.413 E.02721
G1 X147.008 Y140.632 E.03813
G1 X147.48 Y140.046 E.0272
G1 X147.917 Y139.443 E.02687
G1 X148.323 Y138.82 E.02687
G1 X148.697 Y138.176 E.02687
G1 X149.038 Y137.515 E.02687
G1 X149.346 Y136.837 E.02687
G1 X149.619 Y136.145 E.02687
G1 X149.856 Y135.439 E.02687
G1 X150.058 Y134.723 E.02687
G1 X150.223 Y133.997 E.02687
G1 X150.352 Y133.264 E.02687
G1 X150.443 Y132.526 E.02687
G1 X150.497 Y131.784 E.02687
G1 X150.514 Y131.04 E.02686
G1 X150.493 Y130.297 E.02685
G1 X150.393 Y129.194 E.03999
G1 X150.278 Y128.45 E.02718
G1 X150.039 Y127.368 E.03999
G1 X149.832 Y126.644 E.02718
G1 X149.459 Y125.601 E.03999
G1 X149.163 Y124.91 E.02718
G1 X148.662 Y123.922 E.03999
G1 X148.28 Y123.272 E.0272
G1 X147.841 Y122.608 E.02873
G1 X147.205 Y121.766 E.03811
G1 X146.695 Y121.171 E.02829
G1 X146.167 Y120.618 E.02762
G1 X145.392 Y119.9 E.03813
G1 X144.81 Y119.423 E.02717
G1 X143.91 Y118.777 E.03999
G1 X143.26 Y118.369 E.02772
G1 X142.299 Y117.849 E.03946
G1 X141.614 Y117.531 E.02728
G1 X140.584 Y117.13 E.0399
G1 X139.858 Y116.899 E.02751
G1 X139.096 Y116.701 E.02841
G1 X138.044 Y116.496 E.03872
G1 X136.952 Y116.366 E.0397
G1 X136.188 Y116.323 E.02762
G1 X135.404 Y116.321 E.0283
G1 X134.334 Y116.385 E.03872
G1 X133.244 Y116.531 E.0397
G1 X132.505 Y116.677 E.0272
G1 X131.754 Y116.867 E.02797
G1 X131.032 Y117.09 E.02728
G1 X130.333 Y117.346 E.0269
G1 X129.644 Y117.637 E.02699
G1 X129.088 Y117.833 E.02127
G1 X128.538 Y117.94 E.02026
G1 X127.701 Y117.952 E.0302
G1 X127.049 Y117.85 E.02385
G1 X126.505 Y117.674 E.02063
G1 X125.991 Y117.419 E.02072
G1 X125.52 Y117.091 E.02072
G1 X125.103 Y116.697 E.02072
G1 X124.74 Y116.234 E.02125
G1 X124.395 Y115.595 E.02621
G1 X124.17 Y114.959 E.02436
G1 X124.065 Y114.377 E.02135
G1 X124.047 Y113.819 E.02015
G1 X124.102 Y113.297 E.01895
G1 X132.211 Y65.938 E1.73485
G1 X132.36 Y65.342 E.02219
G1 X132.58 Y64.812 E.02072
G1 X132.876 Y64.32 E.02072
G1 X133.243 Y63.876 E.0208
G1 X133.638 Y63.513 E.01936
G1 X134.097 Y63.181 E.02045
G1 X134.606 Y62.916 E.02072
G1 X135.148 Y62.728 E.02072
G1 X135.72 Y62.621 E.02101
G1 X136.159 Y62.596 E.01587
G1 X160.866 Y62.596 E.89207
G1 X161.448 Y62.639 E.02109
G1 X161.996 Y62.761 E.02026
G1 X162.767 Y63.085 E.0302
G1 X163.341 Y63.453 E.02463
G1 X163.766 Y63.833 E.02058
G1 X164.133 Y64.275 E.02072
G1 X164.427 Y64.76 E.02049
G1 X164.701 Y65.453 E.0269
G1 X164.837 Y66.084 E.02329
G1 X164.871 Y66.608 E.01896
G1 X164.871 Y71.55 E.17845
G1 X164.828 Y72.143 E.02146
G1 X164.698 Y72.714 E.02114
G1 X164.381 Y73.462 E.02932
G1 X164.013 Y74.036 E.02463
G1 X163.633 Y74.461 E.02058
G1 X163.192 Y74.827 E.02072
G1 X162.706 Y75.121 E.02049
G1 X161.992 Y75.402 E.02772
G1 X161.403 Y75.529 E.02176
G1 X160.859 Y75.566 E.01968
G1 X155.446 Y75.566 E.19545
G1 X155.158 Y75.635 E.0107
G1 X154.985 Y75.738 E.00725
G1 X154.837 Y75.938 E.00899
G1 X154.752 Y76.246 E.01154
G1 X161.648 Y126.36 E1.82647
G1 X161.895 Y128.009 E.06021
G1 X161.967 Y128.703 E.02521
G1 X162.044 Y129.814 E.04019
G1 X162.068 Y130.516 E.02536
G1 X162.069 Y131.629 E.04019
G1 X162.045 Y132.33 E.02535
G1 X161.968 Y133.441 E.04019
G1 X161.896 Y134.139 E.02536
G1 X161.745 Y135.233 E.03988
G1 X161.525 Y136.43 E.04392
G1 X161.226 Y137.709 E.04744
G1 X160.894 Y138.876 E.04381
G1 X160.546 Y139.921 E.03978
G1 X160.339 Y140.481 E.02156
G1 X159.838 Y141.699 E.04755
G1 X159.32 Y142.804 E.04405
G1 X158.809 Y143.78 E.03978
G1 X158.514 Y144.3 E.02158
G1 X157.881 Y145.335 E.04381
G1 X157.199 Y146.342 E.04393
G1 X156.475 Y147.312 E.04369
G1 X155.707 Y148.247 E.04368
G1 X154.826 Y149.221 E.04744
G1 X153.97 Y150.081 E.04378
G1 X153.534 Y150.489 E.02158
G1 X152.704 Y151.218 E.03987
G1 X151.678 Y152.039 E.04746
G1 X150.698 Y152.749 E.0437
G1 X149.769 Y153.362 E.04016
G1 X148.731 Y153.982 E.04364
G1 X148.11 Y154.323 E.02562
G1 X147.028 Y154.867 E.04371
G1 X145.928 Y155.358 E.04349
G1 X144.893 Y155.766 E.04018
G1 X143.748 Y156.16 E.04372
G1 X142.589 Y156.501 E.04361
G1 X141.905 Y156.675 E.02549
G1 X140.718 Y156.932 E.04386
G1 X139.623 Y157.118 E.0401
G1 X138.423 Y157.269 E.04367
G1 X137.725 Y157.331 E.02531
G1 X136.512 Y157.394 E.04385
G1 X135.405 Y157.403 E.03995
