; HEADER_BLOCK_START
; generated by OrcaSlicer 2.1.0 on 2025-03-06 at 19:46:43
; total layer number: 100
; filament_density: 1.27
; filament_diameter: 1.75
; max_z_height: 20.00
; HEADER_BLOCK_END

; THUMBNAIL_BLOCK_START

;
; THUMBNAIL_BLOCK_END

; THUMBNAIL_BLOCK_START

;
; THUMBNAIL_BLOCK_END

; external perimeters extrusion width = 0.42mm
; perimeters extrusion width = 0.45mm
; infill extrusion width = 0.45mm
; solid infill extrusion width = 0.42mm
; top infill extrusion width = 0.42mm
; support material extrusion width = 0.42mm
; first layer extrusion width = 0.50mm

; EXECUTABLE_BLOCK_START
EXCLUDE_OBJECT_DEFINE NAME=распорка.stp_id_0_copy_0 CENTER=110,110 POLYGON=[[94.6705,94.8766],[96.2759,94.8766],[125.33,103.853],[125.33,116.147],[96.2759,125.123],[94.6705,125.123],[94.6705,94.8766]]
M73 P0 R15
M106 S0
M106 P2 S0
;TYPE:Custom
M140 S0
M104 S0 
START_PRINT EXTRUDER_TEMP=250 BED_TEMP=90
M106 P3 S153
G90
G21
M83 ; use relative distances for extrusion
; filament start gcode
M106 S0
M106 P2 S0
;LAYER_CHANGE
;Z:0.2
;HEIGHT:0.2
;BEFORE_LAYER_CHANGE
;0.2
G92 E0

G1 E-.6 F2400
;_SET_FAN_SPEED_CHANGING_LAYER
SET_VELOCITY_LIMIT ACCEL=500 ACCEL_TO_DECEL=250
SET_VELOCITY_LIMIT SQUARE_CORNER_VELOCITY=9
EXCLUDE_OBJECT_START NAME=распорка.stp_id_0_copy_0
G1 Z.2 F42000
G1 X96.442 Y98.712
G1 Z.2
G1 E.6 F2400
;TYPE:Inner wall
;WIDTH:0.499999
G1 F3600
G1 X97.022 Y99.498 E.03528
G1 X97.659 Y100.273 E.03622
G1 X98.335 Y101.015 E.03622
G1 X99.047 Y101.72 E.03622
G1 X99.796 Y102.389 E.03621
G1 X100.577 Y103.017 E.03621
G1 X101.39 Y103.605 E.03621
G1 X102.231 Y104.151 E.03622
G1 X103.1 Y104.652 E.03621
G1 X103.993 Y105.108 E.03622
G1 X104.568 Y105.367 E.02276
G1 X105.844 Y105.88 E.04966
G1 X106.866 Y106.212 E.03878
G1 X108.02 Y106.514 E.04306
G1 X108.765 Y106.675 E.02754
G1 X110.252 Y106.899 E.05431
G1 X111.753 Y107.009 E.05432
G1 X113.195 Y107.007 E.05209
G1 X114.687 Y106.89 E.05401
G1 X115.729 Y106.738 E.03801
G1 X116.732 Y106.538 E.03696
G1 X118.12 Y106.172 E.05182
G1 X119.116 Y105.837 E.03794
G1 X119.659 Y105.624 E.02105
G1 X123.558 Y105.624 E.1408
G1 X123.558 Y114.376 E.316
G1 X119.659 Y114.376 E.1408
G1 X119.039 Y114.136 E.02399
G1 X118.067 Y113.814 E.03696
G1 X116.681 Y113.448 E.05177
G1 X115.647 Y113.248 E.03802
G1 X114.633 Y113.106 E.03696
G1 X113.196 Y112.993 E.05208
G1 X111.682 Y112.991 E.05464
G1 X110.372 Y113.092 E.04746
G1 X109.635 Y113.18 E.02679
G1 X108.153 Y113.452 E.05439
G1 X106.699 Y113.837 E.05431
G1 X105.298 Y114.325 E.05357
G1 X104.717 Y114.569 E.02276
G1 X103.471 Y115.152 E.04966
G1 X102.591 Y115.634 E.03621
G1 X101.721 Y116.173 E.03696
G1 X100.55 Y117.002 E.0518
G1 X99.718 Y117.679 E.03873
G1 X98.663 Y118.65 E.05177
G1 X97.937 Y119.412 E.03802
G1 X97.284 Y120.174 E.03621
G1 X96.442 Y121.305 E.05092
G1 X96.442 Y98.752 E.81428
G1 X95.985 Y97.148 F42000
G1 F3600
G1 X96.254 Y97.604 E.01912
G1 X96.795 Y98.421 E.03537
G1 X97.376 Y99.209 E.03537
G1 X97.998 Y99.966 E.03537
G1 X98.657 Y100.691 E.03537
G1 X99.353 Y101.38 E.03537
G1 X100.083 Y102.033 E.03537
G1 X100.846 Y102.648 E.03537
G1 X101.639 Y103.222 E.03537
G1 X102.461 Y103.755 E.03537
G1 X103.309 Y104.245 E.03536
G1 X104.181 Y104.691 E.03537
G1 X105.352 Y105.2 E.0461
G1 X105.988 Y105.446 E.02463
G1 X106.987 Y105.772 E.03793
G1 X108.118 Y106.067 E.04221
G1 X108.835 Y106.223 E.02648
G1 X110.287 Y106.444 E.05304
G1 X111.752 Y106.552 E.05305
G1 X113.177 Y106.55 E.05145
G1 X114.636 Y106.436 E.05281
G1 X115.64 Y106.29 E.03666
G1 X116.616 Y106.096 E.0359
G1 X117.988 Y105.734 E.05125
G1 X118.949 Y105.411 E.03661
G1 X119.572 Y105.167 E.02416
G1 X124.015 Y105.167 E.16042
G1 X124.015 Y114.833 E.349
G1 X119.572 Y114.833 E.16042
G1 X118.895 Y114.569 E.02626
G1 X117.951 Y114.256 E.0359
G1 X116.579 Y113.894 E.05121
G1 X115.582 Y113.7 E.03667
G1 X114.598 Y113.561 E.03591
G1 X113.177 Y113.45 E.05144
G1 X111.699 Y113.448 E.05337
G1 X110.424 Y113.546 E.04618
G1 X109.716 Y113.629 E.02573
G1 X108.269 Y113.894 E.05312
G1 X106.848 Y114.269 E.05304
G1 X105.475 Y114.747 E.05251
G1 X104.326 Y115.245 E.04521
G1 X103.69 Y115.553 E.02552
G1 X102.831 Y116.024 E.03537
G1 X101.985 Y116.546 E.0359
G1 X100.827 Y117.366 E.05123
G1 X100.027 Y118.015 E.03718
G1 X98.984 Y118.975 E.05121
G1 X98.283 Y119.711 E.03667
G1 X97.645 Y120.454 E.03537
G1 X97.037 Y121.241 E.0359
G1 X96.264 Y122.382 E.04977
G1 X95.985 Y122.852 E.01975
G1 X95.985 Y97.188 E.92664
G1 X95.746 Y95.734 F42000
G1 F3600
G1 X96.151 Y96.528 E.0322
G1 X96.636 Y97.352 E.03452
G1 X97.163 Y98.15 E.03452
G1 X97.73 Y98.92 E.03452
G1 X98.336 Y99.659 E.03452
G1 X98.979 Y100.367 E.03452
G1 X99.658 Y101.04 E.03452
G1 X100.37 Y101.678 E.03452
G1 X101.114 Y102.278 E.03452
G1 X101.888 Y102.839 E.03452
G1 X102.69 Y103.36 E.03452
G1 X103.518 Y103.839 E.03452
G1 X104.369 Y104.274 E.03452
G1 X105.518 Y104.774 E.04525
G1 X106.132 Y105.012 E.02378
G1 X107.108 Y105.331 E.03709
G1 X108.217 Y105.621 E.04136
G1 X108.904 Y105.771 E.02542
G1 X110.322 Y105.988 E.05177
G1 X111.752 Y106.095 E.05178
G1 X113.159 Y106.093 E.05081
G1 X114.585 Y105.981 E.05162
G1 X115.552 Y105.841 E.03531
G1 X116.499 Y105.654 E.03484
G1 X117.856 Y105.296 E.05068
G1 X118.778 Y104.987 E.03509
G1 X119.486 Y104.71 E.02747
G1 X124.472 Y104.71 E.18004
G1 X124.472 Y115.29 E.38201
G1 X119.486 Y115.29 E.18004
G1 X118.75 Y115.003 E.02854
G1 X117.834 Y114.698 E.03484
G1 X116.477 Y114.34 E.05066
G1 X115.517 Y114.153 E.03531
G1 X114.562 Y114.017 E.03485
G1 X113.159 Y113.907 E.0508
G1 X111.716 Y113.905 E.0521
G1 X110.476 Y114 E.0449
G1 X109.797 Y114.079 E.02467
G1 X108.385 Y114.336 E.05185
G1 X106.998 Y114.701 E.05177
G1 X105.651 Y115.168 E.05145
G1 X105.07 Y115.412 E.02276
G1 X103.909 Y115.954 E.04627
G1 X103.07 Y116.413 E.03452
G1 X102.249 Y116.92 E.03484
G1 X101.103 Y117.73 E.05067
G1 X100.337 Y118.351 E.03562
G1 X99.304 Y119.301 E.05066
G1 X98.629 Y120.009 E.03531
G1 X98.006 Y120.734 E.03452
G1 X97.416 Y121.497 E.03484
G1 X96.63 Y122.657 E.05058
G1 X96.13 Y123.509 E.03566
G1 X95.746 Y124.266 E.03065
G1 X95.528 Y124.266 E.00791
G1 X95.528 Y95.734 E1.0302
G1 X95.706 Y95.734 E.00645
G1 X96.027 Y95.277 F42000
;TYPE:Outer wall
G1 F3600
G1 X96.545 Y96.297 E.04131
G1 X97.018 Y97.101 E.03367
G1 X97.531 Y97.879 E.03367
G1 X98.084 Y98.63 E.03367
G1 X98.674 Y99.352 E.03367
G1 X99.301 Y100.042 E.03367
G1 X99.963 Y100.7 E.03367
G1 X100.657 Y101.322 E.03367
G1 X101.383 Y101.908 E.03367
G1 X102.138 Y102.456 E.03367
G1 X102.919 Y102.964 E.03367
G1 X103.726 Y103.432 E.03367
G1 X104.556 Y103.858 E.03367
G1 X105.684 Y104.348 E.0444
G1 X106.276 Y104.578 E.02293
G1 X107.23 Y104.89 E.03624
G1 X108.315 Y105.175 E.04051
G1 X108.974 Y105.32 E.02436
G1 X110.356 Y105.532 E.0505
G1 X111.751 Y105.638 E.05051
G1 X113.141 Y105.636 E.05018
G1 X114.534 Y105.527 E.05045
G1 X115.464 Y105.393 E.03394
G1 X116.382 Y105.212 E.03378
G1 X117.725 Y104.858 E.05013
G1 X118.614 Y104.56 E.03387
G1 X119.4 Y104.253 E.03046
G1 X124.93 Y104.253 E.19966
G1 X124.93 Y115.747 E.41502
G1 X119.4 Y115.747 E.19966
G1 X118.605 Y115.436 E.03082
G1 X117.717 Y115.14 E.03378
G1 X116.375 Y114.786 E.05012
G1 X115.453 Y114.605 E.03395
G1 X114.526 Y114.473 E.03379
G1 X113.141 Y114.364 E.05016
G1 X111.733 Y114.362 E.05084
G1 X110.528 Y114.454 E.04362
G1 X109.879 Y114.529 E.02361
G1 X108.5 Y114.779 E.05058
G1 X107.15 Y115.132 E.0504
G1 X105.828 Y115.59 E.0505
G1 X104.722 Y116.069 E.04352
G1 X104.128 Y116.355 E.02382
G1 X103.31 Y116.802 E.03367
G1 X102.513 Y117.293 E.03378
G1 X101.379 Y118.094 E.05012
G1 X100.646 Y118.688 E.03405
G1 X99.625 Y119.628 E.05012
G1 X98.976 Y120.308 E.03394
G1 X98.367 Y121.014 E.03367
G1 X97.794 Y121.754 E.03378
G1 X97.016 Y122.901 E.05004
G1 X96.538 Y123.716 E.03412
G1 X96.027 Y124.723 E.04079
G1 X95.07 Y124.723 E.03455
G1 X95.07 Y95.277 E1.0632
M73 P1 R15
G1 X95.987 Y95.277 E.03309
;WIPE_START
G1 X96.545 Y96.297 E-.34883
G1 X96.969 Y97.018 E-.25117
;WIPE_END
G1 Z.4 F42000
G1 X97.208 Y120.051 Z.4
G1 Z.2
G1 E.6 F2400
;TYPE:Bottom surface
;WIDTH:0.501679
G1 F6300
G1 X96.785 Y119.628 E.0217
G1 X96.785 Y118.979 E.02351
G1 X97.361 Y119.556 E.02955
G1 X97.661 Y119.207 E.01667
G1 X96.785 Y118.33 E.04493
G1 X96.785 Y117.681 E.02351
G1 X97.978 Y118.875 E.06115
G1 X98.295 Y118.543 E.01663
G1 X96.785 Y117.033 E.07741
G1 X96.785 Y116.384 E.02351
G1 X98.622 Y118.221 E.09416
G1 X98.96 Y117.91 E.01664
G1 X96.785 Y115.735 E.11148
G1 X96.785 Y115.086 E.02351
G1 X99.298 Y117.599 E.12879
G1 X99.644 Y117.297 E.01666
G1 X96.785 Y114.438 E.14655
G1 X96.785 Y113.789 E.02351
G1 X100.002 Y117.006 E.16487
G1 X100.363 Y116.718 E.01673
G1 X96.785 Y113.14 E.18339
G1 X96.785 Y112.491 E.02351
G1 X100.743 Y116.45 E.20287
G1 X101.123 Y116.181 E.01687
G1 X96.785 Y111.842 E.22235
G1 X96.785 Y111.194 E.02351
G1 X101.503 Y115.912 E.24183
G1 X101.898 Y115.658 E.01701
G1 X96.785 Y110.545 E.26206
G1 X96.785 Y109.896 E.02351
G1 X102.3 Y115.411 E.28265
G1 X102.714 Y115.176 E.01725
G1 X96.785 Y109.247 E.30386
G1 X96.785 Y108.598 E.02351
G1 X103.132 Y114.946 E.32533
G1 X103.562 Y114.728 E.01748
G1 X96.785 Y107.95 E.34736
G1 X96.785 Y107.301 E.02351
G1 X104 Y114.517 E.36981
G1 X104.444 Y114.312 E.01772
G1 X96.785 Y106.652 E.39255
G1 X96.785 Y106.003 E.02351
G1 X104.903 Y114.122 E.41605
G1 X105.365 Y113.935 E.01807
G1 X96.785 Y105.355 E.43977
G1 X96.785 Y104.706 E.02351
G1 X105.848 Y113.769 E.46448
G1 X106.33 Y113.602 E.01849
G1 X96.785 Y104.057 E.48919
G1 X96.785 Y103.408 E.02351
G1 X106.825 Y113.448 E.51455
G1 X107.338 Y113.313 E.01924
G1 X96.785 Y102.759 E.54085
G1 X96.785 Y102.111 E.02351
G1 X107.851 Y113.177 E.56715
G1 X108.384 Y113.061 E.01977
G1 X96.785 Y101.462 E.59447
G1 X96.785 Y100.813 E.02351
G1 X108.932 Y112.961 E.62255
G1 X109.48 Y112.86 E.02019
G1 X96.785 Y100.164 E.65063
G1 X96.785 Y99.745 E.01519
G1 X97.403 Y100.502 E.03542
M73 P2 R15
G1 X98.091 Y101.256 E.03699
G1 X98.816 Y101.974 E.03698
G1 X99.506 Y102.592 E.03357
G1 X100.298 Y103.236 E.03698
G1 X101.053 Y103.784 E.03382
G1 X110.054 Y112.785 E.46129
G1 X110.634 Y112.717 E.02117
G1 X102.786 Y104.869 E.40221
G1 X103.765 Y105.379 E.04
G1 X104.094 Y105.528 E.01309
G1 X111.246 Y112.679 E.3665
G1 X111.864 Y112.649 E.02245
G1 X105.222 Y106.006 E.34044
G1 X105.645 Y106.172 E.01649
G1 X106.233 Y106.369 E.02245
G1 X112.516 Y112.652 E.32202
G1 X113.168 Y112.655 E.02362
G1 X107.159 Y106.646 E.30797
G1 X108.027 Y106.865 E.03244
G1 X113.865 Y112.703 E.29919
G1 X114.571 Y112.76 E.02567
G1 X108.844 Y107.033 E.29349
G1 X109.608 Y107.148 E.02799
G1 X115.314 Y112.855 E.29246
M73 P2 R14
G1 X116.092 Y112.983 E.02855
G1 X110.359 Y107.251 E.29377
G1 X111.061 Y107.305 E.02552
G1 X116.917 Y113.16 E.30009
G1 X117.798 Y113.393 E.03304
G1 X111.753 Y107.348 E.30981
G1 X112.401 Y107.346 E.02346
G1 X118.723 Y113.668 E.32401
G1 X119.151 Y113.811 E.01634
G1 X119.723 Y114.033 E.02226
G1 X119.736 Y114.033 E.00047
G1 X113.048 Y107.345 E.34277
G1 X113.665 Y107.313 E.02239
G1 X120.385 Y114.033 E.3444
G1 X121.034 Y114.033 E.02351
G1 X114.265 Y107.265 E.34689
G1 X114.861 Y107.211 E.02167
G1 X121.683 Y114.033 E.34961
G1 X122.331 Y114.033 E.02351
G1 X115.428 Y107.13 E.35378
G1 X115.983 Y107.036 E.02039
G1 X122.98 Y114.033 E.3586
G1 X123.216 Y114.033 E.00853
G1 X123.216 Y113.62 E.01499
G1 X116.527 Y106.931 E.3428
G1 X117.05 Y106.805 E.01949
G1 X123.216 Y112.971 E.316
G1 X123.216 Y112.322 E.02351
G1 X117.563 Y106.669 E.2897
G1 X118.076 Y106.534 E.01924
G1 X123.216 Y111.673 E.26339
G1 X123.216 Y111.024 E.02351
G1 X118.573 Y106.382 E.23794
G1 X119.059 Y106.219 E.01858
G1 X123.216 Y110.376 E.21302
G1 X123.216 Y109.727 E.02351
G1 X119.53 Y106.042 E.18887
G1 X119.723 Y105.967 E.0075
G1 X120.104 Y105.967 E.01381
G1 X123.216 Y109.078 E.15945
G1 X123.216 Y108.429 E.02351
G1 X120.753 Y105.967 E.1262
G1 X121.402 Y105.967 E.02351
G1 X123.216 Y107.781 E.09295
G1 X123.216 Y107.132 E.02351
G1 X122.051 Y105.967 E.0597
G1 X122.699 Y105.967 E.02351
G1 X123.421 Y106.689 E.03699
M106 S227
M106 P2 S127
;LAYER_CHANGE
;Z:0.4
;HEIGHT:0.2
;BEFORE_LAYER_CHANGE
;0.4
G92 E0

;WIPE_START
G1 F6300
G1 X122.699 Y105.967 E-.30626
G1 X122.051 Y105.967 E-.19463
G1 X122.284 Y106.2 E-.09911
;WIPE_END
EXCLUDE_OBJECT_END NAME=распорка.stp_id_0_copy_0
;_SET_FAN_SPEED_CHANGING_LAYER
SET_VELOCITY_LIMIT ACCEL=12000 ACCEL_TO_DECEL=6000
M104 S270 ; set nozzle temperature
M140 S80 ; set bed temperature
SET_VELOCITY_LIMIT SQUARE_CORNER_VELOCITY=12
EXCLUDE_OBJECT_START NAME=распорка.stp_id_0_copy_0
G1 Z.4 F42000
G1 X96.087 Y97.523 Z.4
G1 E.6 F2400
SET_VELOCITY_LIMIT ACCEL=5000 ACCEL_TO_DECEL=2500 SQUARE_CORNER_VELOCITY=7
;TYPE:Inner wall
;WIDTH:0.449999
G1 F8893
G1 X96.715 Y98.484 E.03692
G1 X97.3 Y99.277 E.03167
G1 X97.925 Y100.038 E.03167
G1 X98.588 Y100.766 E.03167
G1 X99.287 Y101.459 E.03167
G1 X100.022 Y102.115 E.03167
G1 X100.789 Y102.733 E.03167
G1 X101.586 Y103.31 E.03167
G1 X102.413 Y103.846 E.03167
G1 X103.266 Y104.338 E.03167
G1 X104.153 Y104.79 E.03202
G1 X105.048 Y105.191 E.03155
G1 X105.96 Y105.544 E.03143
G1 X106.966 Y105.872 E.03402
G1 X108.09 Y106.166 E.03738
G1 X108.825 Y106.325 E.02417
G1 X110.285 Y106.546 E.04749
G1 X111.758 Y106.654 E.04749
G1 X113.236 Y106.648 E.04754
G1 X114.646 Y106.537 E.04548
G1 X115.664 Y106.389 E.03307
G1 X116.696 Y106.181 E.03387
G1 X117.812 Y105.888 E.03709
G1 X118.543 Y105.661 E.02461
G1 X119.582 Y105.269 E.0357
G1 X123.913 Y105.269 E.13929
G1 X123.913 Y114.731 E.30426
G1 X119.591 Y114.731 E.13899
G1 X118.923 Y114.471 E.02304
G1 X117.971 Y114.156 E.03225
G1 X116.56 Y113.787 E.04691
G1 X115.593 Y113.599 E.03168
G1 X114.599 Y113.459 E.03226
G1 X113.173 Y113.347 E.04602
G1 X111.887 Y113.346 E.04134
G1 X111.164 Y113.376 E.02326
G1 X109.69 Y113.53 E.04766
G1 X108.237 Y113.797 E.04749
G1 X106.827 Y114.169 E.04692
G1 X105.892 Y114.48 E.03168
G1 X104.966 Y114.844 E.032
G1 X103.638 Y115.465 E.04714
G1 X102.774 Y115.939 E.03167
G1 X101.927 Y116.463 E.03202
G1 X100.765 Y117.284 E.04576
G1 X99.954 Y117.944 E.03364
G1 X98.912 Y118.903 E.04553
G1 X98.192 Y119.661 E.03363
G1 X97.286 Y120.739 E.04529
G1 X96.674 Y121.574 E.0333
G1 X96.087 Y122.479 E.03468
G1 X96.087 Y97.563 E.80121
SET_VELOCITY_LIMIT ACCEL=12000 ACCEL_TO_DECEL=6000 SQUARE_CORNER_VELOCITY=12
M73 P3 R14
G1 X95.68 Y95.936 F42000
SET_VELOCITY_LIMIT ACCEL=5000 ACCEL_TO_DECEL=2500 SQUARE_CORNER_VELOCITY=7
G1 F8893
G1 X96.022 Y96.609 E.02428
G1 X96.511 Y97.439 E.03099
G1 X97.043 Y98.243 E.03099
G1 X97.615 Y99.019 E.03099
G1 X98.226 Y99.764 E.031
G1 X98.875 Y100.477 E.03099
G1 X99.559 Y101.156 E.03099
G1 X100.277 Y101.798 E.03099
G1 X101.028 Y102.403 E.03099
G1 X101.808 Y102.969 E.031
G1 X102.617 Y103.493 E.03099
G1 X103.452 Y103.976 E.03099
G1 X104.32 Y104.419 E.03134
G1 X105.196 Y104.812 E.03088
G1 X106.088 Y105.158 E.03076
G1 X107.074 Y105.479 E.03335
G1 X108.178 Y105.768 E.03671
G1 X108.887 Y105.923 E.02333
G1 X110.316 Y106.14 E.04648
G1 X111.758 Y106.247 E.04648
G1 X113.205 Y106.242 E.04653
G1 X114.601 Y106.133 E.04504
G1 X115.585 Y105.99 E.03199
G1 X116.598 Y105.786 E.0332
G1 X117.693 Y105.498 E.03642
G1 X118.399 Y105.28 E.02377
G1 X119.507 Y104.862 E.03809
G1 X124.32 Y104.862 E.15477
G1 X124.32 Y115.138 E.33044
G1 X119.514 Y115.138 E.15455
G1 X118.794 Y114.857 E.02484
G1 X117.867 Y114.55 E.03141
G1 X116.481 Y114.186 E.04607
G1 X115.535 Y114.002 E.03101
G1 X114.567 Y113.865 E.03142
G1 X113.156 Y113.754 E.04552
G1 X111.902 Y113.753 E.04032
G1 X111.204 Y113.781 E.02247
G1 X109.762 Y113.931 E.0466
G1 X108.34 Y114.191 E.04648
G1 X106.955 Y114.555 E.04608
G1 X106.04 Y114.86 E.03101
G1 X105.137 Y115.213 E.03116
G1 X103.833 Y115.822 E.0463
G1 X102.987 Y116.285 E.031
G1 X102.162 Y116.795 E.03118
G1 X101.012 Y117.608 E.04531
G1 X100.229 Y118.243 E.0324
G1 X99.198 Y119.193 E.04508
G1 X98.503 Y119.922 E.0324
G1 X97.606 Y120.991 E.04485
G1 X97.014 Y121.798 E.03223
G1 X96.478 Y122.615 E.03141
G1 X95.68 Y124.014 E.05179
G1 X95.68 Y95.976 E.9016
SET_VELOCITY_LIMIT ACCEL=12000 ACCEL_TO_DECEL=6000 SQUARE_CORNER_VELOCITY=12
G1 X95.905 Y95.479 F42000
SET_VELOCITY_LIMIT ACCEL=5000 ACCEL_TO_DECEL=2500 SQUARE_CORNER_VELOCITY=7
G1 F8893
G1 X96.373 Y96.403 E.0333
G1 X96.851 Y97.215 E.03032
G1 X97.371 Y98.002 E.03032
G1 X97.93 Y98.761 E.03032
G1 X98.527 Y99.491 E.03032
G1 X99.162 Y100.188 E.03032
