; HEADER_BLOCK_START
; generated by OrcaSlicer 2.1.0 on 2025-03-06 at 19:21:32
; total layer number: 16
; filament_density: 1.27
; filament_diameter: 1.75
; max_z_height: 3.20
; HEADER_BLOCK_END

; THUMBNAIL_BLOCK_START

;
; THUMBNAIL_BLOCK_END

; THUMBNAIL_BLOCK_START

;
; THUMBNAIL_BLOCK_END

; external perimeters extrusion width = 0.42mm
; perimeters extrusion width = 0.45mm
; infill extrusion width = 0.45mm
; solid infill extrusion width = 0.42mm
; top infill extrusion width = 0.42mm
; support material extrusion width = 0.42mm
; first layer extrusion width = 0.50mm

; EXECUTABLE_BLOCK_START
EXCLUDE_OBJECT_DEFINE NAME=распорка.stp_id_0_copy_0 CENTER=110,110 POLYGON=[[93.375,95.5],[95.1161,95.5],[126.625,103.5],[126.625,116.5],[95.1161,124.5],[93.375,124.5],[93.375,95.5]]
M73 P0 R2
M106 S0
M106 P2 S0
;TYPE:Custom
M140 S0
M104 S0 
START_PRINT EXTRUDER_TEMP=250 BED_TEMP=90
M106 P3 S153
G90
G21
M83 ; use relative distances for extrusion
; filament start gcode
M106 S0
M106 P2 S0
;LAYER_CHANGE
;Z:0.2
;HEIGHT:0.2
;BEFORE_LAYER_CHANGE
;0.2
G92 E0

G1 E-.6 F2400
;_SET_FAN_SPEED_CHANGING_LAYER
SET_VELOCITY_LIMIT ACCEL=500 ACCEL_TO_DECEL=250
SET_VELOCITY_LIMIT SQUARE_CORNER_VELOCITY=9
EXCLUDE_OBJECT_START NAME=распорка.stp_id_0_copy_0
G1 Z.2 F42000
G1 X95.146 Y99.17
G1 Z.2
G1 E.6 F2400
;TYPE:Inner wall
;WIDTH:0.499999
G1 F3600
G1 X95.931 Y100.274 E.04888
G1 X96.583 Y101.084 E.03755
G1 X97.274 Y101.861 E.03755
G1 X98.018 Y102.616 E.03827
G1 X99.126 Y103.616 E.05389
G1 X99.995 Y104.303 E.03998
G1 X101.22 Y105.159 E.05399
G1 X102.252 Y105.78 E.04347
G1 X103.061 Y106.219 E.03324
G1 X104.017 Y106.677 E.03827
G1 X105.065 Y107.105 E.04088
G1 X106.43 Y107.587 E.05225
G1 X107.809 Y107.956 E.05154
G1 X108.445 Y108.101 E.02354
G1 X109.864 Y108.333 E.05193
G1 X110.5 Y108.413 E.02316
G1 X111.941 Y108.504 E.05211
G1 X112.577 Y108.521 E.02297
G1 X114.019 Y108.469 E.05211
G1 X114.654 Y108.423 E.02298
G1 X115.706 Y108.293 E.03825
G1 X117.204 Y108.016 E.05504
G1 X118.229 Y107.76 E.03813
G1 X119.224 Y107.458 E.03755
G1 X120.405 Y107.024 E.04542
G1 X121.164 Y106.708 E.02967
G1 X122.103 Y106.263 E.03755
G1 X123.036 Y105.761 E.03822
G1 X123.832 Y105.271 E.03376
G1 X124.854 Y105.271 E.0369
M73 P1 R2
G1 X124.854 Y114.729 E.34147
G1 X123.832 Y114.729 E.0369
G1 X122.951 Y114.19 E.03728
G1 X122.033 Y113.702 E.03755
G1 X121.091 Y113.26 E.03755
G1 X120.129 Y112.864 E.03755
G1 X119.149 Y112.517 E.03755
G1 X118.133 Y112.214 E.03827
G1 X116.634 Y111.865 E.05559
G1 X115.588 Y111.69 E.03827
G1 X114.156 Y111.536 E.05202
G1 X113.018 Y111.483 E.04112
G1 X112.461 Y111.485 E.0201
G1 X110.939 Y111.547 E.05499
G1 X110.382 Y111.605 E.02023
G1 X108.878 Y111.816 E.05486
G1 X108.319 Y111.93 E.02057
G1 X106.852 Y112.287 E.05452
G1 X105.511 Y112.725 E.05093
G1 X104.884 Y112.957 E.02416
G1 X103.926 Y113.363 E.03755
G1 X102.991 Y113.817 E.03755
G1 X102.078 Y114.316 E.03755
G1 X101.192 Y114.86 E.03755
G1 X100.318 Y115.46 E.03827
G1 X99.138 Y116.374 E.05389
G1 X98.309 Y117.108 E.03997
G1 X97.262 Y118.15 E.05334
G1 X96.52 Y118.992 E.04053
G1 X95.611 Y120.154 E.05326
G1 X95.146 Y120.829 E.0296
G1 X95.146 Y99.21 E.78057
G1 X94.689 Y97.553 F42000
G1 F3600
G1 X95.133 Y98.313 E.03177
G1 X95.689 Y99.164 E.03674
G1 X96.287 Y99.988 E.03673
G1 X96.925 Y100.781 E.03673
G1 X97.601 Y101.541 E.03674
G1 X98.324 Y102.276 E.03725
G1 X99.421 Y103.266 E.05334
G1 X100.257 Y103.928 E.03849
G1 X101.469 Y104.776 E.05342
G1 X102.47 Y105.379 E.0422
G1 X103.26 Y105.807 E.03243
G1 X104.19 Y106.254 E.03725
G1 X105.238 Y106.682 E.04088
G1 X105.941 Y106.942 E.02707
G1 X106.554 Y107.147 E.02335
G1 X107.912 Y107.511 E.05073
G1 X108.525 Y107.651 E.02273
G1 X109.922 Y107.88 E.05112
G1 X110.536 Y107.957 E.02234
G1 X111.954 Y108.047 E.0513
M73 P2 R2
G1 X112.568 Y108.064 E.02216
G1 X113.987 Y108.013 E.05129
G1 X114.599 Y107.969 E.02217
G1 X115.623 Y107.844 E.03724
G1 X117.095 Y107.572 E.05402
G1 X118.097 Y107.322 E.0373
G1 X119.071 Y107.028 E.03673
G1 X120.23 Y106.602 E.0446
G1 X120.968 Y106.295 E.02886
G1 X121.888 Y105.859 E.03673
G1 X122.796 Y105.372 E.03722
G1 X123.702 Y104.814 E.03843
G1 X125.311 Y104.814 E.05807
G1 X125.311 Y115.186 E.37448
G1 X123.702 Y115.186 E.05807
G1 X122.736 Y114.593 E.04094
G1 X121.837 Y114.115 E.03674
G1 X120.917 Y113.682 E.03674
G1 X119.976 Y113.295 E.03673
G1 X119.017 Y112.955 E.03673
G1 X118.029 Y112.659 E.03725
G1 X116.557 Y112.316 E.05457
G1 X115.539 Y112.144 E.03725
G1 X114.468 Y112.029 E.03891
G1 X113.633 Y111.966 E.03022
G1 X113.02 Y111.94 E.02217
G1 X111.599 Y111.967 E.0513
G1 X110.986 Y112.002 E.02216
G1 X109.581 Y112.168 E.05112
G1 X108.969 Y112.264 E.02234
G1 X107.597 Y112.566 E.05073
G1 X106.988 Y112.724 E.02273
G1 X105.668 Y113.154 E.05012
G1 X105.062 Y113.378 E.02334
G1 X104.125 Y113.775 E.03673
G1 X103.209 Y114.218 E.03673
G1 X102.317 Y114.706 E.03673
G1 X101.449 Y115.238 E.03673
G1 X100.598 Y115.821 E.03725
G1 X99.43 Y116.726 E.05334
G1 X98.632 Y117.432 E.03848
G1 X97.596 Y118.464 E.0528
G1 X96.88 Y119.274 E.03903
G1 X95.979 Y120.425 E.0528
G1 X95.368 Y121.318 E.03904
G1 X94.689 Y122.45 E.04767
G1 X94.689 Y97.593 E.89749
M73 P3 R2
G1 X94.586 Y96.357 F42000
G1 F3600
G1 X95.015 Y97.204 E.03428
G1 X95.516 Y98.063 E.03592
G1 X96.06 Y98.896 E.03592
G1 X96.644 Y99.702 E.03592
G1 X97.267 Y100.477 E.03592
G1 X97.927 Y101.221 E.03592
G1 X98.63 Y101.937 E.03623
G1 X99.716 Y102.917 E.0528
G1 X100.519 Y103.553 E.03698
G1 X101.718 Y104.392 E.05286
G1 X102.689 Y104.978 E.04092
G1 X103.458 Y105.396 E.03161
G1 X104.363 Y105.831 E.03623
G1 X105.411 Y106.259 E.04088
G1 X106.088 Y106.509 E.02605
G1 X106.679 Y106.708 E.02253
G1 X108.014 Y107.065 E.04991
G1 X108.606 Y107.201 E.02191
G1 X109.981 Y107.427 E.0503
G1 X110.572 Y107.502 E.02152
G1 X111.967 Y107.591 E.05048
G1 X112.558 Y107.607 E.02134
G1 X113.955 Y107.557 E.05047
G1 X114.545 Y107.515 E.02135
G1 X115.541 Y107.394 E.03622
G1 X116.985 Y107.128 E.05301
G1 X117.965 Y106.885 E.03648
G1 X118.917 Y106.597 E.03592
G1 X120.056 Y106.179 E.04379
G1 X120.773 Y105.882 E.02804
G1 X121.673 Y105.456 E.03592
G1 X122.556 Y104.983 E.03621
G1 X123.573 Y104.357 E.0431
G1 X125.768 Y104.357 E.07925
G1 X125.768 Y115.643 E.40749
G1 X123.573 Y115.643 E.07925
G1 X122.52 Y114.996 E.04461
G1 X121.642 Y114.528 E.03592
G1 X120.742 Y114.104 E.03592
G1 X119.823 Y113.725 E.03592
G1 X118.885 Y113.392 E.03592
G1 X117.924 Y113.104 E.03623
G1 X116.48 Y112.766 E.05355
G1 X115.49 Y112.599 E.03623
G1 X114.419 Y112.483 E.03891
G1 X113.612 Y112.423 E.0292
G1 X113.022 Y112.397 E.02135
G1 X111.624 Y112.424 E.05049
G1 X111.039 Y112.456 E.02114
G1 X109.65 Y112.62 E.0505
G1 X109.061 Y112.711 E.02152
G1 X107.711 Y113.009 E.04991
G1 X107.123 Y113.16 E.02191
G1 X106.565 Y113.334 E.02113
G1 X105.24 Y113.799 E.0507
G1 X104.324 Y114.187 E.03592
G1 X103.428 Y114.62 E.03592
G1 X102.555 Y115.097 E.03592
G1 X101.706 Y115.616 E.03592
G1 X100.878 Y116.182 E.03623
G1 X99.722 Y117.078 E.05281
G1 X98.954 Y117.756 E.03698
G1 X97.929 Y118.777 E.05226
G1 X97.24 Y119.555 E.03753
G1 X96.348 Y120.695 E.05226
G1 X95.76 Y121.553 E.03753
G1 X95.006 Y122.81 E.05292
G1 X94.586 Y123.643 E.03369
M73 P4 R2
G1 X94.232 Y123.643 E.01277
G1 X94.232 Y96.357 E.98518
G1 X94.546 Y96.357 E.01132
G1 X94.867 Y95.9 F42000
;TYPE:Outer wall
G1 F3600
G1 X95.41 Y96.974 E.04345
G1 X95.899 Y97.814 E.0351
G1 X96.43 Y98.629 E.0351
G1 X97 Y99.416 E.0351
G1 X97.609 Y100.174 E.0351
G1 X98.254 Y100.901 E.0351
G1 X98.937 Y101.598 E.03521
G1 X100.012 Y102.568 E.05228
G1 X100.781 Y103.179 E.03547
G1 X101.968 Y104.009 E.0523
G1 X102.908 Y104.576 E.03964
G1 X103.657 Y104.984 E.03079
G1 X104.533 Y105.406 E.03511
G1 X105.584 Y105.835 E.04098
G1 X106.234 Y106.076 E.02503
G1 X106.804 Y106.268 E.02171
G1 X108.117 Y106.62 E.0491
G1 X108.686 Y106.751 E.02109
G1 X110.039 Y106.973 E.04949
G1 X110.608 Y107.046 E.02071
G1 X111.981 Y107.134 E.04967
G1 X112.545 Y107.15 E.02039
G1 X113.923 Y107.101 E.04979
G1 X114.49 Y107.061 E.02053
G1 X115.456 Y106.945 E.03511
G1 X116.875 Y106.685 E.05209
G1 X117.833 Y106.447 E.03565
G1 X118.764 Y106.166 E.0351
G1 X119.881 Y105.757 E.04297
G1 X120.578 Y105.469 E.02722
G1 X121.457 Y105.053 E.0351
G1 X122.317 Y104.593 E.0352
G1 X123.444 Y103.9 E.04777
G1 X126.225 Y103.9 E.10042
G1 X126.225 Y116.1 E.44049
G1 X123.444 Y116.1 E.10042
M73 P5 R2
G1 X122.305 Y115.4 E.04827
G1 X121.447 Y114.942 E.03511
G1 X120.568 Y114.527 E.0351
G1 X119.669 Y114.156 E.0351
G1 X118.753 Y113.83 E.0351
G1 X117.822 Y113.55 E.03511
G1 X116.403 Y113.217 E.05263
G1 X115.444 Y113.053 E.03511
G1 X114.37 Y112.938 E.03901
G1 X113.592 Y112.88 E.02818
G1 X113.024 Y112.854 E.02054
G1 X111.648 Y112.88 E.04967
G1 X111.082 Y112.911 E.02046
G1 X109.72 Y113.072 E.04955
G1 X109.153 Y113.159 E.02071
G1 X107.825 Y113.451 E.04909
G1 X107.259 Y113.597 E.0211
G1 X105.982 Y114.013 E.04848
G1 X105.418 Y114.22 E.02171
G1 X104.522 Y114.598 E.0351
G1 X103.647 Y115.021 E.0351
G1 X102.793 Y115.487 E.0351
G1 X101.964 Y115.994 E.0351
G1 X101.158 Y116.543 E.03521
G1 X100.014 Y117.43 E.05228
G1 X99.277 Y118.08 E.03547
G1 X98.261 Y119.091 E.05174
G1 X97.6 Y119.837 E.03601
G1 X96.717 Y120.966 E.05174
G1 X96.152 Y121.788 E.03601
G1 X95.407 Y123.031 E.05233
G1 X94.867 Y124.1 E.04325
G1 X93.775 Y124.1 E.03943
G1 X93.775 Y95.9 E1.01819
G1 X94.827 Y95.9 E.03798
;WIPE_START
G1 X95.41 Y96.974 E-.3666
G1 X95.802 Y97.646 E-.2334
;WIPE_END
G1 Z.4 F42000
G1 X95.911 Y119.555 Z.4
M73 P6 R2
G1 Z.2
G1 E.6 F2400
;TYPE:Bottom surface
;WIDTH:0.500124
G1 F6300
G1 X95.489 Y119.133 E.02155
G1 X95.489 Y118.486 E.02335
G1 X96.048 Y119.045 E.02854
G1 X96.332 Y118.683 E.01663
G1 X95.489 Y117.84 E.04304
G1 X95.489 Y117.193 E.02335
G1 X96.637 Y118.341 E.05863
G1 X96.942 Y118 E.01654
G1 X95.489 Y116.547 E.07421
G1 X95.489 Y115.9 E.02335
G1 X97.259 Y117.67 E.0904
G1 X97.583 Y117.347 E.01651
G1 X95.489 Y115.253 E.10695
G1 X95.489 Y114.607 E.02335
G1 X97.907 Y117.025 E.1235
G1 X98.241 Y116.712 E.01652
G1 X95.489 Y113.96 E.14055
G1 X95.489 Y113.314 E.02335
G1 X98.585 Y116.41 E.15812
G1 X98.929 Y116.107 E.01655
G1 X95.489 Y112.667 E.17569
M73 P7 R2
G1 X95.489 Y112.021 E.02335
G1 X99.291 Y115.822 E.19417
G1 X99.655 Y115.54 E.01664
G1 X95.489 Y111.374 E.21277
G1 X95.489 Y110.727 E.02335
G1 X100.019 Y115.257 E.23137
G1 X100.398 Y114.99 E.01676
G1 X95.489 Y110.081 E.25074
G1 X95.489 Y109.434 E.02335
G1 X100.782 Y114.728 E.27036
G1 X101.171 Y114.469 E.01684
G1 X95.489 Y108.788 E.2902
G1 X95.489 Y108.141 E.02335
G1 X101.573 Y114.225 E.31074
M73 P8 R2
G1 X101.975 Y113.98 E.017
G1 X95.489 Y107.494 E.33127
G1 X95.489 Y106.848 E.02335
G1 X102.394 Y113.753 E.35268
G1 X102.813 Y113.526 E.01722
G1 X95.489 Y106.201 E.37409
G1 X95.489 Y105.555 E.02335
G1 X103.246 Y113.311 E.39617
G1 X103.682 Y113.101 E.01749
G1 X95.489 Y104.908 E.41845
G1 X95.489 Y104.262 E.02335
G1 X104.131 Y112.904 E.44142
M73 P9 R2
G1 X104.585 Y112.711 E.0178
G1 X95.489 Y103.615 E.46459
G1 X95.489 Y102.968 E.02335
G1 X105.051 Y112.53 E.48837
G1 X105.523 Y112.356 E.01819
G1 X95.489 Y102.322 E.51251
G1 X95.489 Y101.675 E.02335
G1 X106.007 Y112.193 E.53719
G1 X106.499 Y112.039 E.01864
G1 X95.489 Y101.029 E.56234
M73 P10 R2
G1 X95.489 Y100.382 E.02335
G1 X107.002 Y111.895 E.58802
G1 X107.515 Y111.762 E.01916
G1 X101.458 Y105.704 E.30939
G1 X101.902 Y105.977 E.01883
G1 X102.939 Y106.538 E.04258
G1 X108.04 Y111.639 E.26053
G1 X108.575 Y111.528 E.01976
G1 X104.141 Y107.094 E.2265
G1 X105.233 Y107.54 E.04263
G1 X109.124 Y111.431 E.19872
G1 X109.683 Y111.344 E.02045
G1 X106.22 Y107.88 E.17689
G1 X107.128 Y108.141 E.0341
G1 X110.26 Y111.274 E.16002
M73 P11 R2
G1 X110.845 Y111.212 E.02124
G1 X107.98 Y108.347 E.14635
G1 X108.79 Y108.51 E.02983
G1 X111.454 Y111.175 E.13611
G1 X112.072 Y111.146 E.02234
G1 X109.565 Y108.639 E.12806
G1 X110.309 Y108.736 E.02709
G1 X112.715 Y111.142 E.12289
G1 X113.376 Y111.157 E.02389
G1 X111.016 Y108.797 E.12054
G1 X111.705 Y108.838 E.02491
G1 X114.054 Y111.188 E.12001
G1 X114.769 Y111.257 E.02595
G1 X112.371 Y108.859 E.1225
G1 X113.014 Y108.855 E.02321
G1 X115.494 Y111.335 E.12669
G1 X116.26 Y111.454 E.028
G1 X113.643 Y108.837 E.13368
M73 P12 R2
G1 X114.248 Y108.796 E.02192
G1 X117.068 Y111.615 E.144
G1 X117.913 Y111.814 E.03136
G1 X114.842 Y108.744 E.15682
G1 X115.421 Y108.675 E.02103
G1 X118.801 Y112.055 E.17264
G1 X119.337 Y112.218 E.02022
G1 X119.763 Y112.371 E.01636
G1 X115.981 Y108.589 E.19319
G1 X116.528 Y108.49 E.0201
G1 X120.814 Y112.775 E.21889
G1 X121.308 Y112.98 E.01931
G1 X121.989 Y113.304 E.02725
G1 X117.076 Y108.391 E.25096
G1 X117.6 Y108.268 E.01943
G1 X123.387 Y114.055 E.2956
G1 X123.929 Y114.386 E.02291
G1 X124.364 Y114.386 E.01574
G1 X118.118 Y108.14 E.31901
M73 P13 R2
G1 X118.624 Y107.998 E.01894
G1 X124.511 Y113.886 E.3007
G1 X124.511 Y113.239 E.02335
G1 X119.119 Y107.848 E.27537
G1 X119.604 Y107.686 E.01846
G1 X124.511 Y112.593 E.25062
G1 X124.511 Y111.946 E.02335
G1 X120.08 Y107.515 E.22631
G1 X120.547 Y107.336 E.01807
G1 X124.511 Y111.3 E.20246
G1 X124.511 Y110.653 E.02335
G1 X121.004 Y107.146 E.17913
G1 X121.454 Y106.95 E.01775
G1 X124.511 Y110.006 E.15611
M73 P14 R2
G1 X124.511 Y109.36 E.02335
G1 X121.893 Y106.742 E.13372
G1 X122.329 Y106.531 E.01748
G1 X124.511 Y108.713 E.11146
G1 X124.511 Y108.067 E.02335
G1 X122.75 Y106.306 E.08994
G1 X123.169 Y106.078 E.01722
G1 X124.511 Y107.42 E.06855
G1 X124.511 Y106.773 E.02335
G1 X123.57 Y105.833 E.04804
G1 X123.929 Y105.614 E.01516
G1 X123.998 Y105.614 E.00251
G1 X124.717 Y106.333 E.0367
M106 S227
M106 P2 S127
;LAYER_CHANGE
;Z:0.4
;HEIGHT:0.2
;BEFORE_LAYER_CHANGE
;0.4
G92 E0

;WIPE_START
G1 F6300
G1 X123.998 Y105.614 E-.30486
G1 X123.929 Y105.614 E-.02084
G1 X123.57 Y105.833 E-.12595
G1 X123.92 Y106.183 E-.14835
;WIPE_END
EXCLUDE_OBJECT_END NAME=распорка.stp_id_0_copy_0
;_SET_FAN_SPEED_CHANGING_LAYER
SET_VELOCITY_LIMIT ACCEL=12000 ACCEL_TO_DECEL=6000
M104 S270 ; set nozzle temperature
M140 S80 ; set bed temperature
SET_VELOCITY_LIMIT SQUARE_CORNER_VELOCITY=12
EXCLUDE_OBJECT_START NAME=распорка.stp_id_0_copy_0
G1 Z.4 F42000
G1 X94.791 Y97.931 Z.4
G1 E.6 F2400
SET_VELOCITY_LIMIT ACCEL=5000 ACCEL_TO_DECEL=2500 SQUARE_CORNER_VELOCITY=7
;TYPE:Inner wall
;WIDTH:0.449999
G1 F8282
G1 X95.059 Y98.386 E.01698
G1 X95.879 Y99.612 E.04742
G1 X96.537 Y100.47 E.03477
G1 X97.501 Y101.585 E.0474
G1 X98.247 Y102.344 E.03423
G1 X98.999 Y103.037 E.03288
G1 X99.798 Y103.703 E.03344
G1 X100.985 Y104.577 E.0474
G1 X101.88 Y105.153 E.03423
G1 X102.533 Y105.53 E.02426
G1 X103.679 Y106.129 E.04156
G1 X104.589 Y106.539 E.0321
G1 X106.043 Y107.09 E.05001
G1 X107.02 Y107.391 E.03288
G1 X108.011 Y107.644 E.03288
G1 X109.013 Y107.848 E.03288
G1 X110.024 Y108.001 E.03288
G1 X111.041 Y108.105 E.03288
G1 X112.062 Y108.158 E.03288
G1 X113.07 Y108.161 E.03242
G1 X114.117 Y108.112 E.03371
G1 X115.647 Y107.943 E.04949
G1 X117.138 Y107.667 E.04875
G1 X118.13 Y107.419 E.03288
G1 X119.108 Y107.122 E.03288
G1 X120.226 Y106.712 E.0383
G1 X121.442 Y106.192 E.04253
G1 X122.393 Y105.712 E.03424
G1 X123.282 Y105.206 E.03288
G1 X123.739 Y104.916 E.01743
G1 X125.209 Y104.916 E.04725
G1 X125.209 Y115.084 E.32695
G1 X123.739 Y115.084 E.04725
G1 X123.222 Y114.758 E.01965
G1 X122.332 Y114.256 E.03288
G1 X121.402 Y113.791 E.03344
G1 X120.046 Y113.212 E.0474
G1 X119.043 Y112.856 E.03423
G1 X118.048 Y112.559 E.0334
G1 X116.616 Y112.224 E.04727
M73 P15 R2
G1 X115.52 Y112.039 E.03576
G1 X114.179 Y111.898 E.04336
G1 X113.592 Y111.857 E.01892
G1 X113.015 Y111.838 E.01853
G1 X111.993 Y111.844 E.03287
G1 X110.972 Y111.9 E.03288
G1 X109.955 Y112.007 E.03288
G1 X108.945 Y112.164 E.03288
G1 X107.944 Y112.371 E.03288
G1 X106.954 Y112.627 E.03288
G1 X105.929 Y112.95 E.03456
G1 X104.797 Y113.379 E.03893
G1 X104.077 Y113.685 E.02513
G1 X102.873 Y114.285 E.04328
G1 X102.26 Y114.621 E.02247
G1 X101.389 Y115.156 E.03288
G1 X100.543 Y115.734 E.03295
G1 X99.681 Y116.391 E.03483
G1 X98.592 Y117.327 E.04619
G1 X97.51 Y118.405 E.0491
G1 X96.766 Y119.251 E.03621
G1 X95.883 Y120.383 E.04619
G1 X95.059 Y121.614 E.04763
G1 X94.791 Y122.069 E.01697
G1 X94.791 Y97.971 E.7749
SET_VELOCITY_LIMIT ACCEL=12000 ACCEL_TO_DECEL=6000 SQUARE_CORNER_VELOCITY=12
G1 X94.482 Y96.528 F42000
