; HEADER_BLOCK_START
; generated by OrcaSlicer 2.1.0 on 2025-03-06 at 19:34:53
; total layer number: 16
; filament_density: 1.27
; filament_diameter: 1.75
; max_z_height: 3.20
; HEADER_BLOCK_END

; THUMBNAIL_BLOCK_START

;
; THUMBNAIL_BLOCK_END

; THUMBNAIL_BLOCK_START

;
; THUMBNAIL_BLOCK_END

; external perimeters extrusion width = 0.42mm
; perimeters extrusion width = 0.45mm
; infill extrusion width = 0.45mm
; solid infill extrusion width = 0.42mm
; top infill extrusion width = 0.42mm
; support material extrusion width = 0.42mm
; first layer extrusion width = 0.50mm

; EXECUTABLE_BLOCK_START
EXCLUDE_OBJECT_DEFINE NAME=распорка.stp_id_0_copy_0 CENTER=110,110 POLYGON=[[94.4545,94.9805],[96.0826,94.9805],[125.545,104.083],[125.545,115.917],[96.0826,125.019],[94.4545,125.019],[94.4545,94.9805]]
M73 P0 R2
M106 S0
M106 P2 S0
;TYPE:Custom
M140 S0
M104 S0 
START_PRINT EXTRUDER_TEMP=250 BED_TEMP=90
M106 P3 S153
G90
G21
M83 ; use relative distances for extrusion
; filament start gcode
M106 S0
M106 P2 S0
;LAYER_CHANGE
;Z:0.2
;HEIGHT:0.2
;BEFORE_LAYER_CHANGE
;0.2
G92 E0

G1 E-.6 F2400
;_SET_FAN_SPEED_CHANGING_LAYER
SET_VELOCITY_LIMIT ACCEL=500 ACCEL_TO_DECEL=250
SET_VELOCITY_LIMIT SQUARE_CORNER_VELOCITY=9
EXCLUDE_OBJECT_START NAME=распорка.stp_id_0_copy_0
G1 Z.2 F42000
G1 X96.226 Y98.792
G1 Z.2
G1 E.6 F2400
;TYPE:Inner wall
;WIDTH:0.499999
G1 F3600
G1 X96.859 Y99.652 E.03855
G1 X97.504 Y100.437 E.03668
G1 X98.188 Y101.187 E.03668
G1 X98.91 Y101.902 E.03668
G1 X99.668 Y102.579 E.03668
G1 X100.459 Y103.216 E.03668
G1 X101.282 Y103.811 E.03668
G1 X102.135 Y104.364 E.03668
G1 X103.014 Y104.871 E.03668
G1 X103.919 Y105.333 E.03668
G1 X104.494 Y105.592 E.02276
G1 X105.794 Y106.115 E.05059
G1 X106.779 Y106.438 E.03742
G1 X108.193 Y106.808 E.05279
G1 X109.685 Y107.077 E.05472
G1 X110.758 Y107.198 E.03901
G1 X111.778 Y107.259 E.03687
G1 X113.249 Y107.257 E.05313
G1 X114.604 Y107.149 E.04907
G1 X115.323 Y107.061 E.02616
G1 X116.862 Y106.772 E.05655
G1 X117.805 Y106.532 E.03513
G1 X119.235 Y106.072 E.05424
G1 X119.79 Y105.854 E.02151
G1 X123.774 Y105.854 E.14385
G1 X123.774 Y114.146 E.29936
M73 P1 R2
G1 X119.79 Y114.146 E.14385
G1 X119.159 Y113.901 E.02445
G1 X118.175 Y113.575 E.03742
G1 X116.659 Y113.183 E.05652
G1 X115.436 Y112.96 E.04489
G1 X114.712 Y112.859 E.02638
G1 X113.178 Y112.743 E.05557
G1 X111.724 Y112.741 E.05248
G1 X110.659 Y112.811 E.03853
G1 X109.632 Y112.932 E.03736
G1 X108.193 Y113.192 E.05279
G1 X106.719 Y113.578 E.05501
G1 X105.241 Y114.092 E.05649
G1 X104.66 Y114.336 E.02276
G1 X103.373 Y114.939 E.05133
G1 X102.106 Y115.652 E.05246
G1 X101.214 Y116.235 E.03848
G1 X100.394 Y116.834 E.03668
G1 X99.605 Y117.474 E.03668
G1 X98.836 Y118.169 E.03742
G1 X97.818 Y119.207 E.0525
G1 X97.112 Y120.032 E.0392
G1 X96.226 Y121.204 E.05306
G1 X96.226 Y98.832 E.80778
G1 X95.769 Y97.216 F42000
G1 F3600
G1 X96.076 Y97.736 E.02182
G1 X96.624 Y98.564 E.03583
G1 X97.213 Y99.362 E.03583
G1 X97.842 Y100.129 E.03583
G1 X98.51 Y100.863 E.03583
G1 X99.215 Y101.562 E.03583
G1 X99.955 Y102.223 E.03583
G1 X100.728 Y102.846 E.03583
G1 X101.531 Y103.428 E.03583
G1 X102.364 Y103.968 E.03583
G1 X103.223 Y104.465 E.03583
G1 X104.107 Y104.917 E.03583
G1 X105.301 Y105.435 E.04702
G1 X105.938 Y105.681 E.02463
G1 X106.894 Y105.996 E.03637
G1 X108.292 Y106.361 E.05215
G1 X109.75 Y106.625 E.05352
G1 X110.787 Y106.741 E.03767
G1 X111.777 Y106.801 E.03581
G1 X113.231 Y106.8 E.05249
G1 X114.551 Y106.695 E.0478
G1 X115.241 Y106.611 E.0251
G1 X116.751 Y106.328 E.05549
M73 P2 R2
G1 X117.666 Y106.097 E.03407
G1 X119.069 Y105.646 E.05319
G1 X119.704 Y105.397 E.02463
G1 X124.231 Y105.397 E.16347
G1 X124.231 Y114.603 E.33237
G1 X119.704 Y114.603 E.16347
G1 X119.014 Y114.334 E.02673
G1 X118.058 Y114.017 E.03636
G1 X116.571 Y113.631 E.05546
G1 X115.371 Y113.413 E.04404
G1 X114.676 Y113.315 E.02533
G1 X113.177 Y113.2 E.05429
G1 X111.739 Y113.198 E.05192
G1 X110.711 Y113.266 E.03719
G1 X109.713 Y113.382 E.03629
G1 X108.292 Y113.639 E.05215
G1 X106.852 Y114.015 E.05374
G1 X105.418 Y114.514 E.0548
G1 X104.237 Y115.027 E.04652
G1 X103.597 Y115.338 E.02567
G1 X102.344 Y116.043 E.05191
G1 X101.483 Y116.605 E.03713
G1 X100.681 Y117.19 E.03583
G1 X99.91 Y117.815 E.03583
G1 X99.162 Y118.489 E.03636
G1 X98.155 Y119.516 E.05192
G1 X97.476 Y120.307 E.03765
G1 X96.61 Y121.454 E.05191
G1 X96.045 Y122.314 E.03713
G1 X95.769 Y122.784 E.0197
G1 X95.769 Y97.256 E.92174
G1 X95.553 Y95.838 F42000
G1 F3600
G1 X95.966 Y96.65 E.03289
G1 X96.458 Y97.484 E.03498
G1 X96.992 Y98.293 E.03498
G1 X97.567 Y99.073 E.03498
M73 P3 R2
G1 X98.181 Y99.822 E.03498
G1 X98.832 Y100.539 E.03498
G1 X99.52 Y101.222 E.03498
G1 X100.242 Y101.868 E.03498
G1 X100.996 Y102.476 E.03498
G1 X101.781 Y103.045 E.03498
G1 X102.593 Y103.573 E.03498
G1 X103.432 Y104.058 E.03498
G1 X104.294 Y104.5 E.03498
G1 X105.467 Y105.009 E.04618
G1 X106.081 Y105.247 E.02378
G1 X107.01 Y105.554 E.03531
G1 X108.39 Y105.914 E.05151
G1 X109.817 Y106.172 E.05233
G1 X110.816 Y106.285 E.03631
G1 X111.777 Y106.344 E.03475
G1 X113.213 Y106.343 E.05186
G1 X114.497 Y106.241 E.04652
G1 X115.159 Y106.162 E.02404
G1 X116.64 Y105.885 E.05443
G1 X117.527 Y105.662 E.03301
G1 X118.897 Y105.222 E.05195
G1 X119.617 Y104.94 E.02793
G1 X124.688 Y104.94 E.18309
G1 X124.688 Y115.06 E.36538
G1 X119.617 Y115.06 E.18309
G1 X118.869 Y114.768 E.029
G1 X117.941 Y114.459 E.0353
G1 X116.483 Y114.08 E.0544
G1 X115.306 Y113.865 E.0432
G1 X114.64 Y113.771 E.02428
G1 X113.177 Y113.657 E.05301
G1 X111.754 Y113.656 E.05137
G1 X110.763 Y113.72 E.03585
G1 X109.794 Y113.832 E.03522
G1 X108.39 Y114.086 E.05151
G1 X106.984 Y114.453 E.05247
G1 X105.595 Y114.935 E.0531
G1 X104.435 Y115.439 E.04567
G1 X103.821 Y115.736 E.02462
G1 X102.582 Y116.434 E.05136
G1 X101.752 Y116.975 E.03577
G1 X100.968 Y117.545 E.03498
G1 X100.215 Y118.155 E.03498
G1 X99.488 Y118.809 E.0353
G1 X98.492 Y119.825 E.05137
G1 X97.841 Y120.583 E.03609
G1 X96.984 Y121.718 E.05136
G1 X96.439 Y122.546 E.03577
G1 X95.946 Y123.388 E.03526
G1 X95.553 Y124.162 E.03134
G1 X95.312 Y124.162 E.00872
G1 X95.312 Y95.838 E1.02269
M73 P4 R2
G1 X95.513 Y95.838 E.00727
G1 X95.834 Y95.381 F42000
;TYPE:Outer wall
G1 F3600
G1 X96.36 Y96.418 E.04201
G1 X96.839 Y97.233 E.03413
G1 X97.36 Y98.022 E.03414
G1 X97.92 Y98.783 E.03413
G1 X98.519 Y99.515 E.03414
G1 X99.155 Y100.215 E.03413
G1 X99.825 Y100.881 E.03414
G1 X100.529 Y101.512 E.03414
G1 X101.265 Y102.107 E.03414
G1 X102.03 Y102.662 E.03414
G1 X102.823 Y103.177 E.03414
G1 X103.641 Y103.651 E.03413
G1 X104.482 Y104.083 E.03413
G1 X105.633 Y104.583 E.04533
G1 X106.225 Y104.813 E.02293
G1 X107.126 Y105.111 E.03425
G1 X108.489 Y105.468 E.05088
G1 X109.883 Y105.72 E.05114
G1 X110.845 Y105.829 E.03495
G1 X111.776 Y105.887 E.03369
G1 X113.195 Y105.886 E.05123
G1 X114.444 Y105.787 E.04525
G1 X115.076 Y105.712 E.02298
G1 X116.529 Y105.442 E.05337
G1 X117.388 Y105.226 E.03195
G1 X118.734 Y104.795 E.05103
G1 X119.531 Y104.483 E.03092
G1 X125.145 Y104.483 E.20271
G1 X125.145 Y115.517 E.39838
G1 X119.531 Y115.517 E.20271
G1 X118.724 Y115.201 E.03128
G1 X117.825 Y114.901 E.03424
G1 X116.395 Y114.528 E.05334
G1 X115.241 Y114.317 E.04236
G1 X114.605 Y114.226 E.02322
G1 X113.176 Y114.114 E.05173
G1 X111.769 Y114.113 E.05082
G1 X110.815 Y114.174 E.03449
G1 X109.875 Y114.282 E.03415
G1 X108.489 Y114.532 E.05088
G1 X107.117 Y114.891 E.05119
M73 P5 R2
G1 X105.772 Y115.357 E.05141
G1 X104.633 Y115.851 E.04482
G1 X104.045 Y116.134 E.02356
G1 X102.819 Y116.825 E.05082
G1 X102.02 Y117.345 E.03441
G1 X101.256 Y117.901 E.03413
G1 X100.521 Y118.495 E.03414
G1 X99.815 Y119.129 E.03424
G1 X98.829 Y120.134 E.05082
G1 X98.206 Y120.858 E.03452
G1 X97.357 Y121.981 E.05082
G1 X96.833 Y122.777 E.0344
G1 X96.353 Y123.595 E.03423
G1 X95.834 Y124.619 E.04148
G1 X94.855 Y124.619 E.03536
G1 X94.855 Y95.381 E1.0557
G1 X95.794 Y95.381 E.03391
;WIPE_START
G1 X96.36 Y96.418 E-.35461
G1 X96.775 Y97.123 E-.24539
;WIPE_END
G1 Z.4 F42000
G1 X100.891 Y103.698 Z.4
G1 Z.2
G1 E.6 F2400
;TYPE:Bottom surface
;WIDTH:0.503073
G1 F6300
G1 X109.765 Y112.572 E.45616
G1 X110.347 Y112.504 E.02132
G1 X103.187 Y105.344 E.36805
M73 P6 R2
G1 X103.691 Y105.604 E.02061
G1 X104.431 Y105.937 E.02949
G1 X110.943 Y112.449 E.33473
G1 X111.556 Y112.412 E.02235
G1 X105.522 Y106.377 E.31021
G1 X106.508 Y106.713 E.03789
G1 X112.196 Y112.4 E.29235
G1 X112.849 Y112.403 E.02374
G1 X107.399 Y106.953 E.28015
G1 X108.051 Y107.125 E.0245
G1 X108.261 Y107.164 E.00776
G1 X113.519 Y112.422 E.27031
G1 X114.227 Y112.48 E.02583
G1 X109.058 Y107.311 E.26571
M73 P7 R2
G1 X109.835 Y107.436 E.02859
G1 X114.941 Y112.543 E.2625
G1 X115.703 Y112.654 E.02799
G1 X110.572 Y107.523 E.26376
G1 X111.271 Y107.571 E.02546
G1 X116.503 Y112.803 E.26894
G1 X116.791 Y112.859 E.01065
G1 X117.361 Y113.01 E.02143
G1 X111.952 Y107.601 E.27805
G1 X112.6 Y107.598 E.02357
G1 X118.245 Y113.243 E.29018
G1 X119.208 Y113.556 E.0368
G1 X113.248 Y107.596 E.30635
G1 X113.862 Y107.559 E.02233
G1 X120.106 Y113.803 E.32099
M73 P8 R2
G1 X120.757 Y113.803 E.02365
G1 X114.464 Y107.51 E.32349
G1 X115.046 Y107.442 E.02132
G1 X121.407 Y113.803 E.32699
G1 X122.058 Y113.803 E.02365
G1 X115.609 Y107.354 E.3315
G1 X116.161 Y107.255 E.02036
G1 X122.709 Y113.803 E.33662
G1 X123.36 Y113.803 E.02365
G1 X116.712 Y107.155 E.34173
G1 X117.236 Y107.029 E.0196
G1 X123.431 Y113.224 E.31847
M73 P9 R2
G1 X123.431 Y112.573 E.02365
G1 X117.756 Y106.898 E.29174
G1 X118.257 Y106.748 E.019
G1 X123.431 Y111.922 E.266
G1 X123.431 Y111.272 E.02365
G1 X118.75 Y106.59 E.24065
G1 X119.243 Y106.432 E.01882
G1 X123.431 Y110.621 E.2153
G1 X123.431 Y109.97 E.02365
G1 X119.713 Y106.252 E.19114
G1 X119.854 Y106.197 E.00551
G1 X120.309 Y106.197 E.01653
G1 X123.431 Y109.319 E.16049
G1 X123.431 Y108.669 E.02365
G1 X120.96 Y106.197 E.12704
G1 X121.611 Y106.197 E.02365
G1 X123.431 Y108.018 E.09359
M73 P10 R2
G1 X123.431 Y107.367 E.02365
G1 X122.262 Y106.197 E.06014
G1 X122.912 Y106.197 E.02365
G1 X123.637 Y106.922 E.03726
;WIPE_START
G1 X122.912 Y106.197 E-.30751
G1 X122.262 Y106.197 E-.19523
G1 X122.491 Y106.426 E-.09726
;WIPE_END
G1 Z.4 F42000
G1 X109.381 Y112.839 Z.4
G1 Z.2
G1 E.6 F2400
G1 F6300
G1 X96.569 Y100.027 E.65862
G1 X96.569 Y100.678 E.02365
G1 X108.655 Y112.764 E.62129
G1 X108.105 Y112.865 E.02031
G1 X96.569 Y101.328 E.59304
M73 P11 R2
G1 X96.569 Y101.979 E.02365
G1 X107.587 Y112.998 E.5664
G1 X107.072 Y113.134 E.01935
G1 X96.569 Y102.63 E.53994
G1 X96.569 Y103.281 E.02365
G1 X106.559 Y113.271 E.51354
G1 X106.076 Y113.439 E.01858
G1 X96.569 Y103.931 E.48873
G1 X96.569 Y104.582 E.02365
G1 X105.593 Y113.607 E.46392
M73 P12 R2
G1 X105.111 Y113.775 E.01858
G1 X96.569 Y105.233 E.43911
G1 X96.569 Y105.884 E.02365
G1 X104.652 Y113.967 E.41554
G1 X104.196 Y114.162 E.01803
G1 X96.569 Y106.534 E.39208
G1 X96.569 Y107.185 E.02365
G1 X103.756 Y114.372 E.36945
G1 X103.315 Y114.583 E.01774
G1 X96.569 Y107.836 E.34682
G1 X96.569 Y108.487 E.02365
M73 P13 R2
G1 X102.899 Y114.817 E.32541
G1 X102.482 Y115.051 E.01737
G1 X96.569 Y109.137 E.304
G1 X96.569 Y109.788 E.02365
G1 X102.066 Y115.286 E.2826
G1 X101.662 Y115.533 E.0172
G1 X96.569 Y110.439 E.26185
G1 X96.569 Y111.09 E.02365
G1 X101.269 Y115.79 E.24163
G1 X100.882 Y116.053 E.01703
G1 X96.569 Y111.74 E.22171
G1 X96.569 Y112.391 E.02365
G1 X100.505 Y116.327 E.20233
G1 X100.133 Y116.607 E.01689
M73 P14 R2
G1 X96.569 Y113.042 E.18324
G1 X96.569 Y113.693 E.02365
G1 X99.773 Y116.897 E.1647
G1 X99.414 Y117.189 E.01681
G1 X96.569 Y114.343 E.14625
G1 X96.569 Y114.994 E.02365
G1 X99.07 Y117.495 E.12857
G1 X98.726 Y117.802 E.01675
G1 X96.569 Y115.645 E.1109
G1 X96.569 Y116.296 E.02365
G1 X98.401 Y118.128 E.09419
G1 X98.079 Y118.457 E.01673
G1 X96.569 Y116.946 E.07763
G1 X96.569 Y117.597 E.02365
G1 X97.757 Y118.785 E.06107
G1 X97.441 Y119.12 E.01673
G1 X96.569 Y118.248 E.04482
G1 X96.569 Y118.899 E.02365
G1 X97.139 Y119.469 E.02934
G1 X96.843 Y119.824 E.01679
G1 X96.363 Y119.344 E.02469
M106 S227
M106 P2 S127
;LAYER_CHANGE
;Z:0.4
;HEIGHT:0.2
;BEFORE_LAYER_CHANGE
;0.4
G92 E0

;WIPE_START
G1 F6300
G1 X96.843 Y119.824 E-.20374
G1 X97.139 Y119.469 E-.1386
M73 P15 R2
G1 X96.569 Y118.899 E-.24214
G1 X96.569 Y118.847 E-.01552
;WIPE_END
EXCLUDE_OBJECT_END NAME=распорка.stp_id_0_copy_0
;_SET_FAN_SPEED_CHANGING_LAYER
SET_VELOCITY_LIMIT ACCEL=12000 ACCEL_TO_DECEL=6000
M104 S270 ; set nozzle temperature
M140 S80 ; set bed temperature
SET_VELOCITY_LIMIT SQUARE_CORNER_VELOCITY=12
EXCLUDE_OBJECT_START NAME=распорка.stp_id_0_copy_0
G1 Z.4 F42000
G1 X95.871 Y97.591 Z.4
G1 E.6 F2400
SET_VELOCITY_LIMIT ACCEL=5000 ACCEL_TO_DECEL=2500 SQUARE_CORNER_VELOCITY=7
;TYPE:Inner wall
;WIDTH:0.449999
G1 F8747
G1 X96.544 Y98.627 E.03973
G1 X97.136 Y99.43 E.03208
G1 X97.769 Y100.201 E.03208
G1 X98.441 Y100.939 E.03208
G1 X99.15 Y101.641 E.03208
G1 X99.894 Y102.305 E.03208
G1 X100.671 Y102.931 E.03208
G1 X101.479 Y103.516 E.03208
G1 X102.316 Y104.059 E.03208
G1 X103.18 Y104.557 E.03208
G1 X104.068 Y105.011 E.03208
G1 X104.979 Y105.419 E.03208
G1 X105.909 Y105.779 E.03208
G1 X106.874 Y106.096 E.03266
G1 X108.27 Y106.461 E.04638
G1 X109.734 Y106.726 E.04786
G1 X110.769 Y106.843 E.03348
G1 X111.783 Y106.904 E.03266
G1 X113.218 Y106.902 E.04613
G1 X114.256 Y106.832 E.03346
G1 X115.183 Y106.723 E.03003
G1 X115.74 Y106.636 E.01812
G1 X116.736 Y106.437 E.03266
G1 X118.138 Y106.067 E.04664
G1 X119.11 Y105.739 E.03298
G1 X119.722 Y105.499 E.02115
G1 X124.129 Y105.499 E.14171
G1 X124.129 Y114.501 E.28945
G1 X119.722 Y114.501 E.14171
G1 X119.043 Y114.236 E.02345
G1 X118.078 Y113.917 E.03266
G1 X116.691 Y113.551 E.04613
G1 X115.67 Y113.352 E.03346
G1 X114.745 Y113.22 E.03003
G1 X114.185 Y113.161 E.01812
G1 X113.171 Y113.098 E.03266
G1 X111.737 Y113.096 E.04613
G1 X110.698 Y113.164 E.03349
G1 X109.689 Y113.283 E.03266
G1 X108.27 Y113.539 E.04638
G1 X106.83 Y113.916 E.04786
G1 X105.842 Y114.245 E.03348
G1 X104.896 Y114.616 E.03266
G1 X103.558 Y115.243 E.04753
G1 X102.683 Y115.722 E.03208
G1 X101.819 Y116.257 E.03266
G1 X100.647 Y117.085 E.04615
G1 X99.826 Y117.753 E.03404
G1 X98.77 Y118.725 E.04615
G1 X98.041 Y119.492 E.03401
G1 X97.146 Y120.556 E.04472
G1 X96.503 Y121.432 E.03493
G1 X95.871 Y122.413 E.03754
G1 X95.871 Y97.631 E.79691
SET_VELOCITY_LIMIT ACCEL=12000 ACCEL_TO_DECEL=6000 SQUARE_CORNER_VELOCITY=12
G1 X95.464 Y95.995 F42000
SET_VELOCITY_LIMIT ACCEL=5000 ACCEL_TO_DECEL=2500 SQUARE_CORNER_VELOCITY=7
G1 F8747
G1 X95.837 Y96.73 E.02651
G1 X96.333 Y97.571 E.03141
G1 X96.872 Y98.386 E.03141
G1 X97.451 Y99.172 E.03141
G1 X98.071 Y99.927 E.03141
G1 X98.728 Y100.65 E.03141
G1 X99.422 Y101.338 E.03141
G1 X100.15 Y101.989 E.03141
G1 X100.91 Y102.602 E.03141
G1 X101.701 Y103.175 E.03141
G1 X102.52 Y103.706 E.03141
G1 X103.366 Y104.195 E.03141
G1 X104.235 Y104.64 E.03141
G1 X105.127 Y105.04 E.03141
G1 X106.037 Y105.393 E.03141
G1 X106.977 Y105.702 E.03182
G1 X108.357 Y106.063 E.04588
G1 X109.793 Y106.322 E.04692
G1 X110.795 Y106.436 E.03241
G1 X111.782 Y106.497 E.03182
G1 X113.203 Y106.495 E.04569
G1 X114.208 Y106.428 E.03239
G1 X115.121 Y106.321 E.02955
G1 X115.662 Y106.236 E.01759
G1 X116.632 Y106.044 E.03182
G1 X118.017 Y105.678 E.04606
G1 X118.961 Y105.36 E.03204
G1 X119.645 Y105.092 E.02362
G1 X124.536 Y105.092 E.15727
G1 X124.536 Y114.908 E.31563
G1 X119.645 Y114.908 E.15727
G1 X118.914 Y114.622 E.02526
G1 X117.975 Y114.311 E.03182
G1 X116.601 Y113.948 E.04569
G1 X115.612 Y113.755 E.03239
G1 X114.702 Y113.625 E.02955
G1 X114.158 Y113.568 E.01759
G1 X113.171 Y113.505 E.03182
G1 X111.75 Y113.503 E.04569
G1 X110.744 Y113.568 E.03241
G1 X109.761 Y113.683 E.03182
G1 X108.357 Y113.937 E.04588
G1 X106.946 Y114.306 E.04692
G1 X105.989 Y114.624 E.03241
G1 X105.068 Y114.985 E.03182
G1 X103.753 Y115.6 E.04669
G1 X102.896 Y116.069 E.03141
G1 X102.054 Y116.589 E.03182
G1 X100.894 Y117.41 E.0457
G1 X100.101 Y118.053 E.03281
G1 X99.056 Y119.015 E.0457
G1 X98.353 Y119.754 E.03279
G1 X97.466 Y120.808 E.04428
G1 X96.843 Y121.656 E.03384
G1 X96.3 Y122.483 E.03182
G1 X95.464 Y123.948 E.05424
G1 X95.464 Y96.035 E.89758
SET_VELOCITY_LIMIT ACCEL=12000 ACCEL_TO_DECEL=6000 SQUARE_CORNER_VELOCITY=12
M73 P16 R2
G1 X95.712 Y95.583 F42000
