; HEADER_BLOCK_START
; generated by OrcaSlicer 2.1.0 on 2024-12-14 at 15:18:58
; total layer number: 60
; filament_density: 1.27
; filament_diameter: 1.75
; max_z_height: 12.00
; HEADER_BLOCK_END

; THUMBNAIL_BLOCK_START

;
; THUMBNAIL_BLOCK_END

; THUMBNAIL_BLOCK_START

;
; THUMBNAIL_BLOCK_END

; external perimeters extrusion width = 0.42mm
; perimeters extrusion width = 0.45mm
; infill extrusion width = 0.45mm
; solid infill extrusion width = 0.42mm
; top infill extrusion width = 0.42mm
; support material extrusion width = 0.42mm
; first layer extrusion width = 0.50mm

; external perimeters extrusion width = 0.42mm
; perimeters extrusion width = 0.45mm
; infill extrusion width = 0.45mm
; solid infill extrusion width = 0.42mm
; top infill extrusion width = 0.42mm
; support material extrusion width = 0.42mm
; first layer extrusion width = 0.50mm

; EXECUTABLE_BLOCK_START
EXCLUDE_OBJECT_DEFINE NAME=Стул_ВВ.stp_id_0_copy_0 CENTER=117.116,109.084 POLYGON=[[104.617,108.89],[104.629,108.504],[104.652,108.117],[104.688,107.732],[104.711,107.54],[104.736,107.348],[104.764,107.157],[104.796,106.966],[104.83,106.776],[104.867,106.586],[104.907,106.397],[104.95,106.208],[104.996,106.02],[105.045,105.833],[105.097,105.647],[105.152,105.461],[105.209,105.276],[105.269,105.092],[105.333,104.91],[105.399,104.728],[105.467,104.547],[105.539,104.367],[105.69,104.011],[105.853,103.66],[106.026,103.314],[106.21,102.974],[106.404,102.639],[106.609,102.311],[106.824,101.989],[107.048,101.674],[107.282,101.366],[107.526,101.065],[107.778,100.772],[108.04,100.488],[108.174,100.348],[108.31,100.211],[108.449,100.076],[108.589,99.9426],[108.732,99.8117],[108.876,99.6831],[109.023,99.5567],[109.171,99.4326],[109.321,99.3109],[109.474,99.1914],[109.783,98.9597],[110.1,98.7376],[110.424,98.5255],[110.754,98.3235],[111.09,98.1318],[111.432,97.9506],[111.779,97.78],[112.131,97.6203],[112.488,97.4715],[112.85,97.3339],[113.216,97.2075],[113.585,97.0926],[113.958,96.9891],[114.334,96.8971],[114.522,96.8556],[114.712,96.8169],[114.902,96.7812],[115.093,96.7484],[115.284,96.7186],[115.475,96.6917],[115.667,96.6679],[115.86,96.6469],[116.052,96.629],[116.245,96.614],[116.632,96.5931],[117.018,96.5841],[117.405,96.5871],[117.792,96.6021],[117.985,96.614],[118.178,96.629],[118.37,96.6469],[118.563,96.6679],[118.755,96.6917],[118.946,96.7186],[119.137,96.7484],[119.328,96.7812],[119.518,96.8169],[119.708,96.8556],[119.897,96.8971],[120.085,96.9416],[120.459,97.0394],[120.83,97.1486],[121.198,97.2693],[121.562,97.4013],[121.921,97.5445],[122.276,97.6988],[122.626,97.8639],[122.97,98.0398],[123.309,98.2263],[123.642,98.4232],[123.969,98.6303],[124.289,98.8474],[124.602,99.0743],[124.909,99.3109],[125.207,99.5567],[125.498,99.8117],[125.781,100.076],[126.056,100.348],[126.322,100.629],[126.579,100.918],[126.827,101.215],[127.066,101.519],[127.296,101.831],[127.515,102.149],[127.725,102.474],[127.924,102.806],[128.113,103.143],[128.292,103.487],[128.46,103.835],[128.617,104.189],[128.763,104.547],[128.898,104.91],[129.021,105.276],[129.133,105.647],[129.234,106.02],[129.323,106.397],[129.4,106.776],[129.466,107.157],[129.519,107.54],[129.561,107.925],[129.591,108.31],[129.609,108.697],[129.615,109.084],[129.609,109.471],[129.591,109.857],[129.561,110.243],[129.519,110.627],[129.466,111.011],[129.4,111.392],[129.323,111.771],[129.234,112.147],[129.133,112.521],[129.021,112.891],[128.898,113.258],[128.763,113.62],[128.617,113.979],[128.46,114.332],[128.292,114.681],[128.113,115.024],[127.924,115.362],[127.725,115.693],[127.515,116.018],[127.296,116.337],[127.066,116.648],[126.827,116.953],[126.579,117.25],[126.322,117.539],[126.056,117.819],[125.781,118.092],[125.498,118.356],[125.207,118.611],[124.909,118.857],[124.602,119.093],[124.289,119.32],[123.969,119.537],[123.642,119.744],[123.309,119.941],[122.97,120.128],[122.626,120.304],[122.276,120.469],[121.921,120.623],[121.562,120.766],[121.198,120.898],[120.83,121.019],[120.459,121.128],[120.085,121.226],[119.897,121.27],[119.708,121.312],[119.518,121.351],[119.328,121.386],[119.137,121.419],[118.946,121.449],[118.755,121.476],[118.563,121.5],[118.37,121.521],[118.178,121.538],[117.985,121.553],[117.792,121.565],[117.405,121.58],[117.018,121.583],[116.632,121.574],[116.245,121.553],[116.052,121.538],[115.86,121.521],[115.667,121.5],[115.475,121.476],[115.284,121.449],[115.093,121.419],[114.902,121.386],[114.712,121.351],[114.522,121.312],[114.334,121.27],[113.958,121.178],[113.585,121.075],[113.216,120.96],[112.85,120.834],[112.488,120.696],[112.131,120.547],[111.779,120.387],[111.432,120.217],[111.09,120.036],[110.754,119.844],[110.424,119.642],[110.1,119.43],[109.783,119.208],[109.474,118.976],[109.321,118.857],[109.171,118.735],[109.023,118.611],[108.876,118.484],[108.732,118.356],[108.589,118.225],[108.449,118.092],[108.31,117.957],[108.174,117.819],[108.04,117.68],[107.778,117.395],[107.526,117.102],[107.282,116.802],[107.048,116.494],[106.824,116.178],[106.609,115.857],[106.404,115.528],[106.21,115.194],[106.026,114.853],[105.853,114.507],[105.69,114.156],[105.539,113.8],[105.467,113.62],[105.399,113.44],[105.333,113.258],[105.269,113.075],[105.209,112.891],[105.152,112.707],[105.097,112.521],[105.045,112.335],[104.996,112.147],[104.95,111.959],[104.907,111.771],[104.867,111.582],[104.83,111.392],[104.796,111.201],[104.764,111.011],[104.736,110.819],[104.711,110.627],[104.688,110.435],[104.652,110.05],[104.629,109.664],[104.617,109.277],[104.617,108.89]]
EXCLUDE_OBJECT_DEFINE NAME=Стул_ВВ.stp_id_1_copy_0 CENTER=84.0015,110 POLYGON=[[71.5023,109.807],[71.5142,109.42],[71.5382,109.034],[71.574,108.649],[71.5964,108.456],[71.6218,108.265],[71.6501,108.073],[71.6814,107.882],[71.7157,107.692],[71.7529,107.502],[71.793,107.313],[71.836,107.124],[71.882,106.936],[71.9309,106.749],[71.9826,106.563],[72.0372,106.377],[72.0947,106.193],[72.1551,106.009],[72.2183,105.826],[72.2843,105.644],[72.3531,105.463],[72.4247,105.284],[72.5762,104.928],[72.7386,104.576],[72.9119,104.231],[73.0957,103.89],[73.29,103.556],[73.4946,103.227],[73.7092,102.905],[73.9337,102.59],[74.1678,102.282],[74.4114,101.982],[74.6641,101.689],[74.9258,101.404],[75.0599,101.264],[75.1962,101.127],[75.3345,100.992],[75.475,100.859],[75.6175,100.728],[75.762,100.599],[75.9084,100.473],[76.0568,100.349],[76.2071,100.227],[76.3593,100.108],[76.6691,99.8759],[76.9859,99.6539],[77.3095,99.4418],[77.6394,99.2397],[77.9754,99.048],[78.3173,98.8668],[78.6645,98.6963],[79.0169,98.5365],[79.374,98.3878],[79.7356,98.2502],[80.1013,98.1238],[80.4707,98.0088],[80.8434,97.9053],[81.2192,97.8134],[81.4082,97.7718],[81.5977,97.7332],[81.7878,97.6974],[81.9785,97.6647],[82.1696,97.6349],[82.3612,97.608],[82.5532,97.5841],[82.7455,97.5632],[82.9381,97.5453],[83.1309,97.5303],[83.5173,97.5094],[83.904,97.5004],[84.2909,97.5034],[84.6775,97.5183],[84.8706,97.5303],[85.0634,97.5453],[85.256,97.5632],[85.4484,97.5841],[85.6403,97.608],[85.8319,97.6349],[86.023,97.6647],[86.2137,97.6974],[86.4038,97.7332],[86.5933,97.7718],[86.7823,97.8134],[86.9705,97.8579],[87.3449,97.9556],[87.716,98.0649],[88.0836,98.1856],[88.4472,98.3176],[88.8066,98.4608],[89.1614,98.615],[89.5113,98.7802],[89.8559,98.9561],[90.1948,99.1426],[90.5279,99.3395],[90.8546,99.5466],[91.1749,99.7637],[91.4882,99.9906],[91.7944,100.227],[92.0931,100.473],[92.384,100.728],[92.667,100.992],[92.9416,101.264],[93.2076,101.545],[93.4649,101.834],[93.713,102.131],[93.9519,102.435],[94.1813,102.747],[94.4008,103.065],[94.6105,103.391],[94.8099,103.722],[94.999,104.06],[95.1776,104.403],[95.3454,104.751],[95.5024,105.105],[95.6484,105.463],[95.7832,105.826],[95.9068,106.193],[96.0189,106.563],[96.1195,106.936],[96.2085,107.313],[96.2858,107.692],[96.3514,108.073],[96.4051,108.456],[96.4469,108.841],[96.4768,109.227],[96.4948,109.613],[96.5008,110],[96.4948,110.387],[96.4768,110.773],[96.4469,111.159],[96.4051,111.544],[96.3514,111.927],[96.2858,112.308],[96.2085,112.687],[96.1195,113.064],[96.0189,113.437],[95.9068,113.807],[95.7832,114.174],[95.6484,114.537],[95.5024,114.895],[95.3454,115.249],[95.1776,115.597],[94.999,115.94],[94.8099,116.278],[94.6105,116.609],[94.4008,116.935],[94.1813,117.253],[93.9519,117.565],[93.713,117.869],[93.4649,118.166],[93.2076,118.455],[92.9416,118.736],[92.667,119.008],[92.384,119.272],[92.0931,119.527],[91.7944,119.773],[91.4882,120.009],[91.1749,120.236],[90.8546,120.453],[90.5279,120.661],[90.1948,120.857],[89.8559,121.044],[89.5113,121.22],[89.1614,121.385],[88.8066,121.539],[88.4472,121.682],[88.0836,121.814],[87.716,121.935],[87.3449,122.044],[86.9705,122.142],[86.7823,122.187],[86.5933,122.228],[86.4038,122.267],[86.2137,122.303],[86.023,122.335],[85.8319,122.365],[85.6403,122.392],[85.4484,122.416],[85.256,122.437],[85.0634,122.455],[84.8706,122.47],[84.6775,122.482],[84.2909,122.497],[83.904,122.5],[83.5173,122.491],[83.1309,122.47],[82.9381,122.455],[82.7455,122.437],[82.5532,122.416],[82.3612,122.392],[82.1696,122.365],[81.9785,122.335],[81.7878,122.303],[81.5977,122.267],[81.4082,122.228],[81.2192,122.187],[80.8434,122.095],[80.4707,121.991],[80.1013,121.876],[79.7356,121.75],[79.374,121.612],[79.0169,121.463],[78.6645,121.304],[78.3173,121.133],[77.9754,120.952],[77.6394,120.76],[77.3095,120.558],[76.9859,120.346],[76.6691,120.124],[76.3593,119.892],[76.2071,119.773],[76.0568,119.651],[75.9084,119.527],[75.762,119.401],[75.6175,119.272],[75.475,119.141],[75.3345,119.008],[75.1962,118.873],[75.0599,118.736],[74.9258,118.596],[74.6641,118.311],[74.4114,118.018],[74.1678,117.718],[73.9337,117.41],[73.7092,117.095],[73.4946,116.773],[73.29,116.444],[73.0957,116.11],[72.9119,115.769],[72.7386,115.424],[72.5762,115.072],[72.4247,114.716],[72.3531,114.537],[72.2843,114.356],[72.2183,114.174],[72.1551,113.991],[72.0947,113.807],[72.0372,113.623],[71.9826,113.437],[71.9309,113.251],[71.882,113.064],[71.836,112.876],[71.793,112.687],[71.7529,112.498],[71.7157,112.308],[71.6814,112.118],[71.6501,111.927],[71.6218,111.735],[71.5964,111.544],[71.574,111.351],[71.5382,110.966],[71.5142,110.58],[71.5023,110.193],[71.5023,109.807]]
M73 P0 R10
M106 S0
M106 P2 S0
;TYPE:Custom
M140 S0
M104 S0 
START_PRINT EXTRUDER_TEMP=250 BED_TEMP=80
G90
G21
M83 ; use relative distances for extrusion
; filament start gcode
M106 S0
M106 P2 S0
;LAYER_CHANGE
;Z:0.2
;HEIGHT:0.2
;BEFORE_LAYER_CHANGE
;0.2
G92 E0

G1 E-.6 F2400
;_SET_FAN_SPEED_CHANGING_LAYER
SET_VELOCITY_LIMIT ACCEL=500 ACCEL_TO_DECEL=250
SET_VELOCITY_LIMIT SQUARE_CORNER_VELOCITY=9
EXCLUDE_OBJECT_START NAME=Стул_ВВ.stp_id_0_copy_0
G1 Z.2 F42000
G1 X123.802 Y109.222
G1 Z.2
G1 E.6 F2400
;TYPE:Inner wall
;WIDTH:0.499999
G1 F3600
G1 X123.762 Y109.824 E.02201
G1 X123.658 Y110.463 E.02363
G1 X123.494 Y111.091 E.02369
G1 X123.265 Y111.709 E.02405
G1 X122.969 Y112.314 E.02457
G1 X122.608 Y112.895 E.02494
G1 X122.185 Y113.441 E.02522
G1 X121.695 Y113.955 E.02591
G1 X121.19 Y114.386 E.02422
G1 X120.737 Y114.71 E.02031
G1 X120.16 Y115.037 E.02421
G1 X119.697 Y115.254 E.01865
G1 X118.939 Y115.512 E.0292
G1 X118.252 Y115.673 E.02577
G1 X117.563 Y115.755 E.02531
G1 X116.934 Y115.768 E.02296
G1 X116.111 Y115.69 E.03016
G1 X115.369 Y115.539 E.02762
G1 X114.833 Y115.372 E.02048
G1 X114.301 Y115.151 E.02103
G1 X113.658 Y114.808 E.02658
G1 X113.039 Y114.393 E.02717
G1 X112.495 Y113.929 E.02612
G1 X112.023 Y113.43 E.02505
G1 X111.661 Y112.951 E.02189
G1 X111.317 Y112.431 E.02276
G1 X110.908 Y111.593 E.03403
G1 X110.732 Y111.107 E.01886
G1 X110.557 Y110.435 E.02532
G1 X110.469 Y109.891 E.02012
G1 X110.42 Y109.075 E.02983
G1 X110.44 Y108.563 E.0187
G1 X110.532 Y107.865 E.02566
G1 X110.692 Y107.196 E.02512
G1 X110.918 Y106.546 E.02509
G1 X111.131 Y106.079 E.01872
G1 X111.423 Y105.58 E.02111
G1 X111.837 Y104.967 E.02697
G1 X112.268 Y104.466 E.02415
G1 X112.775 Y103.986 E.02547
G1 X113.199 Y103.661 E.01948
G1 X113.666 Y103.344 E.02058
G1 X114.598 Y102.88 E.03802
G1 X115.105 Y102.696 E.01966
G1 X115.62 Y102.559 E.01944
G1 X116.419 Y102.437 E.02951
G1 X116.938 Y102.391 E.01899
G1 X117.684 Y102.415 E.02724
G1 X118.229 Y102.482 E.02003
G1 X119.153 Y102.706 E.0347
G1 X119.886 Y102.995 E.02874
G1 X120.491 Y103.311 E.0249
G1 X120.956 Y103.607 E.02011
G1 X121.484 Y104.021 E.02448
G1 X121.903 Y104.412 E.02093
G1 X122.249 Y104.793 E.01877
G1 X122.674 Y105.377 E.02635
G1 X123.086 Y106.082 E.02982
G1 X123.376 Y106.74 E.02622
G1 X123.563 Y107.294 E.02134
G1 X123.704 Y107.963 E.02494
G1 X123.784 Y108.577 E.02257
G1 X123.8 Y109.182 E.02209
G1 X124.251 Y109.46 F42000
G1 F3600
G1 X124.252 Y109.553 E.0034
G1 X124.179 Y110.206 E.02399
G1 X124.034 Y110.897 E.02574
G1 X123.824 Y111.562 E.02545
G1 X123.544 Y112.218 E.02604
G1 X123.193 Y112.854 E.02648
G1 X122.774 Y113.457 E.0268
G1 X122.293 Y114.018 E.02698
G1 X121.751 Y114.531 E.02724
G1 X121.193 Y114.961 E.02568
G1 X120.764 Y115.237 E.01862
G1 X120.127 Y115.57 E.02621
G1 X119.558 Y115.807 E.0225
G1 X118.704 Y116.058 E.03246
G1 X117.99 Y116.183 E.02645
G1 X117.258 Y116.235 E.02678
G1 X116.55 Y116.214 E.02586
G1 X115.662 Y116.087 E.03273
G1 X114.962 Y115.905 E.0264
G1 X114.404 Y115.703 E.02164
G1 X113.814 Y115.429 E.02371
G1 X113.188 Y115.062 E.0265
G1 X112.757 Y114.754 E.01933
G1 X112.18 Y114.26 E.02771
G1 X111.674 Y113.726 E.02685
G1 X111.296 Y113.227 E.02282
G1 X110.916 Y112.652 E.02516
G1 X110.486 Y111.771 E.03577
G1 X110.295 Y111.242 E.02052
G1 X110.11 Y110.53 E.02685
G1 X110.014 Y109.941 E.02175
G1 X109.962 Y109.08 E.0315
G1 X109.984 Y108.524 E.0203
G1 X110.082 Y107.782 E.02729
G1 X110.252 Y107.067 E.02683
G1 X110.494 Y106.376 E.0267
G1 X110.725 Y105.869 E.02033
G1 X111.174 Y105.101 E.03247
G1 X111.478 Y104.683 E.01884
G1 X111.937 Y104.15 E.02568
G1 X112.478 Y103.637 E.0272
G1 X112.921 Y103.298 E.02035
G1 X113.44 Y102.946 E.02287
G1 X114.418 Y102.459 E.03988
G1 X114.968 Y102.26 E.02134
G1 X115.526 Y102.111 E.02108
G1 X116.351 Y101.985 E.03043
G1 X116.932 Y101.933 E.02128
G1 X117.719 Y101.959 E.02875
G1 X118.311 Y102.031 E.02174
G1 X119.285 Y102.268 E.03658
G1 X119.804 Y102.455 E.02013
G1 X120.35 Y102.703 E.02187
G1 X120.976 Y103.062 E.02632
G1 X121.463 Y103.404 E.02173
G1 X122.015 Y103.872 E.0264
G1 X122.444 Y104.311 E.02239
G1 X122.794 Y104.734 E.02004
G1 X123.29 Y105.475 E.03252
G1 X123.494 Y105.875 E.01639
G1 X123.804 Y106.579 E.02808
G1 X124.004 Y107.173 E.02285
G1 X124.154 Y107.882 E.02646
G1 X124.239 Y108.54 E.02422
G1 X124.251 Y109.42 E.03208
G1 X124.707 Y109.454 F42000
G1 F3600
G1 X124.709 Y109.583 E.0047
G1 X124.631 Y110.279 E.02556
G1 X124.477 Y111.013 E.02736
G1 X124.254 Y111.721 E.02709
G1 X123.955 Y112.419 E.02771
G1 X123.582 Y113.095 E.02817
G1 X123.137 Y113.737 E.02851
G1 X122.624 Y114.334 E.0287
G1 X122.048 Y114.879 E.02895
G1 X121.457 Y115.335 E.02723
G1 X120.994 Y115.632 E.02008
G1 X120.321 Y115.984 E.02769
G1 X119.71 Y116.238 E.02414
G1 X118.808 Y116.503 E.0343
G1 X118.046 Y116.637 E.02824
G1 X117.267 Y116.693 E.02849
G1 X116.51 Y116.67 E.02764
G1 X115.572 Y116.536 E.0346
G1 X114.826 Y116.342 E.02811
G1 X114.229 Y116.126 E.02315
G1 X113.602 Y115.834 E.02524
G1 X112.939 Y115.446 E.02805
G1 X112.475 Y115.114 E.02081
G1 X111.864 Y114.592 E.0293
G1 X111.324 Y114.022 E.02866
G1 X110.783 Y113.306 E.03276
G1 X110.515 Y112.873 E.01855
G1 X110.064 Y111.949 E.0375
G1 X109.858 Y111.377 E.02219
G1 X109.662 Y110.624 E.02839
G1 X109.559 Y109.992 E.02338
G1 X109.504 Y109.084 E.03318
G1 X109.528 Y108.485 E.02189
G1 X109.632 Y107.699 E.02892
G1 X109.813 Y106.938 E.02854
G1 X110.069 Y106.206 E.02831
G1 X110.318 Y105.658 E.02194
G1 X110.791 Y104.85 E.03417
G1 X111.12 Y104.399 E.02036
G1 X111.606 Y103.834 E.0272
G1 X112.182 Y103.289 E.02892
G1 X112.643 Y102.935 E.02121
G1 X113.214 Y102.548 E.02516
G1 X114.238 Y102.038 E.04175
G1 X114.831 Y101.823 E.02301
G1 X115.433 Y101.662 E.02272
G1 X116.282 Y101.533 E.03136
G1 X116.926 Y101.475 E.02358
G1 X117.755 Y101.503 E.03026
G1 X118.393 Y101.581 E.02346
G1 X119.417 Y101.829 E.03845
G1 X119.977 Y102.031 E.02171
G1 X120.558 Y102.296 E.02332
G1 X121.221 Y102.676 E.02786
G1 X121.743 Y103.042 E.02326
G1 X122.327 Y103.538 E.02795
G1 X122.784 Y104.005 E.02386
