; HEADER_BLOCK_START
; generated by OrcaSlicer 2.1.0 on 2024-12-10 at 18:45:53
; total layer number: 122
; filament_density: 1.27
; filament_diameter: 1.75
; max_z_height: 20.00
; HEADER_BLOCK_END

; THUMBNAIL_BLOCK_START

;
; THUMBNAIL_BLOCK_END

; THUMBNAIL_BLOCK_START

;
; THUMBNAIL_BLOCK_END

; external perimeters extrusion width = 0.42mm
; perimeters extrusion width = 0.45mm
; infill extrusion width = 0.45mm
; solid infill extrusion width = 0.42mm
; top infill extrusion width = 0.42mm
; support material extrusion width = 0.42mm
; first layer extrusion width = 0.50mm

; EXECUTABLE_BLOCK_START
EXCLUDE_OBJECT_DEFINE NAME=уголок_о_образный.stp_id_0_copy_0 CENTER=110,110 POLYGON=[[82.5,77.6],[82.5056,77.4505],[82.5223,77.3019],[82.5501,77.155],[82.5889,77.0105],[82.6383,76.8693],[82.6981,76.7322],[82.768,76.6],[82.8475,76.4734],[82.9363,76.353],[83.0339,76.2397],[83.1397,76.1339],[83.253,76.0363],[83.3734,75.9475],[83.5,75.8679],[83.6322,75.7981],[83.7693,75.7383],[83.9105,75.6889],[84.055,75.6501],[84.2019,75.6223],[84.3505,75.6056],[84.5,75.6],[135.5,75.6],[135.649,75.6056],[135.798,75.6223],[135.945,75.6501],[136.09,75.6889],[136.231,75.7383],[136.368,75.7981],[136.5,75.8679],[136.627,75.9475],[136.747,76.0363],[136.86,76.1339],[136.966,76.2397],[137.064,76.353],[137.152,76.4734],[137.232,76.6],[137.302,76.7322],[137.362,76.8693],[137.411,77.0105],[137.45,77.155],[137.478,77.3019],[137.494,77.4505],[137.5,77.6],[137.5,112.4],[137.494,112.549],[137.478,112.698],[137.45,112.845],[137.411,112.99],[137.362,113.131],[137.302,113.268],[123.2,144.4],[96.8,144.4],[82.6981,113.268],[82.6383,113.131],[82.5889,112.99],[82.5501,112.845],[82.5223,112.698],[82.5056,112.549],[82.5,112.4],[82.5,77.6]]
M73 P0 R27
M106 S0
M106 P2 S0
;TYPE:Custom
M140 S0
M104 S0 
START_PRINT EXTRUDER_TEMP=250 BED_TEMP=80
G90
G21
M83 ; use relative distances for extrusion
; filament start gcode
M106 S0
M106 P2 S0
;LAYER_CHANGE
;Z:0.2
;HEIGHT:0.2
;BEFORE_LAYER_CHANGE
;0.2
G92 E0

G1 E-.6 F2400
;_SET_FAN_SPEED_CHANGING_LAYER
SET_VELOCITY_LIMIT ACCEL=500 ACCEL_TO_DECEL=250
SET_VELOCITY_LIMIT SQUARE_CORNER_VELOCITY=9
EXCLUDE_OBJECT_START NAME=уголок_о_образный.stp_id_0_copy_0
G1 Z.2 F42000
G1 X104.807 Y133.332
G1 Z.2
G1 E.6 F2400
;TYPE:Support
;WIDTH:0.5
G1 F3600
G1 X100.35 Y133.332 E.16263
G1 X100.35 Y114.75 E.67799
G1 X104.807 Y114.75 E.16263
G1 X104.807 Y133.264 E.67549
G1 X104.396 Y115.161 F42000
G1 F3600
G1 X104.396 Y132.921 E.64797
G1 X100.761 Y132.921 E.13261
G1 X100.761 Y115.161 E.64797
G1 X104.396 Y115.161 E.13261
G1 X103.888 Y115.669 F42000
G1 F3600
G1 X103.888 Y132.413 E.61091
G1 X101.269 Y132.413 E.09555
G1 X101.269 Y115.669 E.61091
G1 X103.888 Y115.669 E.09555
G1 X103.38 Y116.177 F42000
G1 F3600
G1 X103.38 Y131.905 E.57385
G1 X101.777 Y131.905 E.05849
G1 X101.777 Y116.177 E.57385
G1 X103.38 Y116.177 E.05849
G1 X102.872 Y116.685 F42000
G1 F3600
G1 X102.872 Y131.397 E.53679
G1 X102.285 Y131.397 E.02143
G1 X102.285 Y116.685 E.53679
G1 X102.872 Y116.685 E.02143
;WIPE_START
G1 X102.285 Y116.685 E-.17618
G1 X102.285 Y118.098 E-.42382
;WIPE_END
G1 Z.4 F42000
G1 X119.65 Y133.332 Z.4
G1 Z.2
G1 E.6 F2400
G1 F3600
G1 X115.193 Y133.332 E.16263
G1 X115.193 Y114.75 E.67799
G1 X119.65 Y114.75 E.16263
G1 X119.65 Y133.264 E.67549
G1 X115.604 Y115.161 F42000
G1 F3600
G1 X119.239 Y115.161 E.13261
G1 X119.239 Y132.921 E.64797
G1 X115.604 Y132.921 E.13261
G1 X115.604 Y115.161 E.64797
G1 X116.112 Y115.669 F42000
G1 F3600
G1 X118.731 Y115.669 E.09555
G1 X118.731 Y132.413 E.61091
G1 X116.112 Y132.413 E.09555
G1 X116.112 Y115.669 E.61091
G1 X116.62 Y116.177 F42000
G1 F3600
G1 X118.223 Y116.177 E.05849
G1 X118.223 Y131.905 E.57385
G1 X116.62 Y131.905 E.05849
G1 X116.62 Y116.177 E.57385
G1 X117.128 Y116.685 F42000
G1 F3600
G1 X117.715 Y116.685 E.02143
G1 X117.715 Y131.397 E.53679
G1 X117.128 Y131.397 E.02143
G1 X117.128 Y116.685 E.53679
;WIPE_START
G1 X117.128 Y118.685 E-.6
;WIPE_END
G1 Z.4 F42000
G1 X119.65 Y144.545 Z.4
G1 Z.2
G1 E.6 F2400
G1 F3600
G1 X119.855 Y144.75 E.01058
G1 X123.345 Y144.75 E.12733
G1 X123.55 Y144.545 E.01058
G1 X123.55 Y143.414 E.04128
G1 X123.824 Y143.14 E.01413
G1 X123.824 Y147.595 E.16254
G1 X115.193 Y147.595 E.31491
G1 X115.193 Y134.209 E.48837
G1 X119.65 Y134.209 E.16263
G1 X119.65 Y144.476 E.3746
G1 X115.604 Y134.621 F42000
G1 F3600
G1 X119.239 Y134.621 E.13261
G1 X119.239 Y144.715 E.36831
G1 X119.685 Y145.161 E.02301
G1 X123.412 Y145.161 E.13601
G1 X123.412 Y147.183 E.07377
G1 X115.604 Y147.183 E.28489
G1 X115.604 Y134.621 E.45835
G1 X116.112 Y135.129 F42000
G1 F3600
G1 X118.731 Y135.129 E.09555
G1 X118.731 Y144.926 E.35746
G1 X119.474 Y145.669 E.03836
G1 X122.905 Y145.669 E.12516
G1 X122.905 Y146.675 E.03671
G1 X116.112 Y146.675 E.24783
G1 X116.112 Y135.129 E.42129
M73 P1 R27
G1 X116.62 Y135.637 F42000
G1 F3600
G1 X118.223 Y135.637 E.05849
G1 X118.223 Y145.136 E.3466
G1 X119.254 Y146.168 E.05322
G1 X116.62 Y146.168 E.09612
G1 X116.62 Y135.637 E.38423
G1 X117.128 Y136.144 F42000
G1 F3600
G1 X117.715 Y136.144 E.02143
G1 X117.715 Y145.66 E.34717
G1 X117.128 Y145.66 E.02143
G1 X117.128 Y136.144 E.34717
;WIPE_START
G1 X117.128 Y138.144 E-.6
;WIPE_END
G1 Z.4 F42000
G1 X104.807 Y147.595 Z.4
G1 Z.2
G1 E.6 F2400
G1 F3600
G1 X96.176 Y147.595 E.31491
G1 X96.176 Y143.14 E.16254
G1 X96.45 Y143.414 E.01413
G1 X96.45 Y144.545 E.04128
G1 X96.655 Y144.75 E.01058
G1 X100.145 Y144.75 E.12733
G1 X100.35 Y144.545 E.01058
G1 X100.35 Y134.209 E.3771
G1 X104.807 Y134.209 E.16263
G1 X104.807 Y147.526 E.48587
G1 X104.396 Y134.621 F42000
G1 F3600
G1 X104.396 Y147.183 E.45835
G1 X96.588 Y147.183 E.28489
G1 X96.588 Y145.161 E.07377
G1 X100.315 Y145.161 E.13601
G1 X100.761 Y144.715 E.02301
G1 X100.761 Y134.621 E.36831
G1 X104.396 Y134.621 E.13261
G1 X103.888 Y135.129 F42000
G1 F3600
G1 X103.888 Y146.675 E.42129
G1 X97.095 Y146.675 E.24783
G1 X97.095 Y145.669 E.03671
G1 X100.526 Y145.669 E.12516
G1 X101.269 Y144.926 E.03836
G1 X101.269 Y135.129 E.35746
G1 X103.888 Y135.129 E.09555
G1 X103.38 Y135.637 F42000
G1 F3600
G1 X103.38 Y146.168 E.38423
G1 X100.746 Y146.168 E.09612
G1 X101.777 Y145.136 E.05322
G1 X101.777 Y135.637 E.3466
G1 X103.38 Y135.637 E.05849
G1 X102.872 Y136.144 F42000
G1 F3600
G1 X102.872 Y145.66 E.34717
G1 X102.285 Y145.66 E.02143
G1 X102.285 Y136.144 E.34717
G1 X102.872 Y136.144 E.02143
;WIPE_START
G1 X102.285 Y136.144 E-.17618
G1 X102.285 Y137.557 E-.42382
;WIPE_END
G1 Z.4 F42000
G1 X121.104 Y112.971 Z.4
G1 Z.2
G1 E.6 F2400
;TYPE:Inner wall
;WIDTH:0.499999
G1 F3600
G1 X127.24 Y112.971 E.22388
G1 X126.998 Y113.097 E.00997
G1 X121.897 Y118.198 E.26318
G1 X121.771 Y118.502 E.01202
G1 X121.771 Y114.229 E.15593
G1 X121.707 Y113.781 E.01651
G1 X121.451 Y113.269 E.02088
G1 X121.135 Y112.997 E.01522
;WIPE_START
G1 X123.135 Y112.989 E-.6
;WIPE_END
G1 Z.4 F42000
G1 X98.257 Y114.028 Z.4
G1 Z.2
G1 E.6 F2400
G1 F3600
G1 X98.229 Y114.229 E.00737
G1 X98.229 Y118.502 E.15593
G1 X98.103 Y118.198 E.01202
G1 X93.002 Y113.097 E.26318
G1 X92.698 Y112.971 E.01202
G1 X98.896 Y112.971 E.22614
G1 X98.549 Y113.269 E.01668
G1 X98.293 Y113.781 E.02088
G1 X98.263 Y113.989 E.00768
;WIPE_START
G1 X98.229 Y114.229 E-.07264
G1 X98.229 Y115.986 E-.52736
;WIPE_END
G1 Z.4 F42000
G1 X134.891 Y112.42 Z.4
G1 Z.2
G1 E.6 F2400
;WIDTH:0.557302
G1 F3600
G1 X134.651 Y112.543 E.01108
G1 X128.129 Y112.543 E.26779
G1 X127.537 Y112.528 E.0243
;WIDTH:0.528651
G1 X126.946 Y112.514 E.02295
;WIDTH:0.499999
G1 X120.886 Y112.514 E.2211
;WIDTH:0.528651
G1 X120.529 Y112.528 E.01386
;WIDTH:0.557302
G1 X120.171 Y112.543 E.01468
G1 X99.829 Y112.543 E.83528
G1 X99.471 Y112.528 E.01468
;WIDTH:0.528651
G1 X99.114 Y112.514 E.01386
;WIDTH:0.499999
G1 X93.054 Y112.514 E.2211
;WIDTH:0.528651
G1 X92.463 Y112.528 E.02295
;WIDTH:0.557302
G1 X91.871 Y112.543 E.0243
G1 X85.529 Y112.543 E.26042
G1 X85.199 Y112.424 E.0144
;WIDTH:0.528651
G1 X84.869 Y112.305 E.01359
;WIDTH:0.499999
G1 X84.62 Y112.065 E.01261
;WIDTH:0.528612
G1 X84.489 Y111.808 E.0112
;WIDTH:0.557224
G1 X84.357 Y111.551 E.01185
G1 X84.358 Y78.629 E1.35158
;WIDTH:0.554751
G1 X84.5 Y78.268 E.01584
;WIDTH:0.527375
G1 X84.642 Y77.907 E.01499
;WIDTH:0.499999
G1 X84.795 Y77.753 E.00791
;WIDTH:0.5203
G1 X85.117 Y77.552 E.01449
;WIDTH:0.557301
G1 X85.356 Y77.457 E.01055
G1 X134.471 Y77.457 E2.01667
G1 X134.81 Y77.582 E.01481
;WIDTH:0.528644
G1 X135.148 Y77.708 E.01399
;WIDTH:0.499999
G1 X135.393 Y77.952 E.01262
;WIDTH:0.52865
G1 X135.518 Y78.29 E.01398
;WIDTH:0.557301
G1 X135.643 Y78.629 E.0148
G1 X135.643 Y111.371 E1.34443
;WIDTH:0.568125
G1 X135.631 Y111.575 E.00854
G1 X135.512 Y111.811 E.0111
;WIDTH:0.534062
G1 X135.393 Y112.048 E.01038
;WIDTH:0.499999
G1 X135.165 Y112.28 E.01187
;WIDTH:0.528651
G1 X134.927 Y112.402 E.01037
G1 X134.679 Y112.001 F42000
;WIDTH:0.499999
G1 F3600
G1 X134.57 Y112.057 E.00447
G1 X85.529 Y112.057 E1.78933
G1 X85.133 Y111.931 E.01515
G1 X84.984 Y111.787 E.00757
G1 X84.843 Y111.466 E.01279
G1 X84.843 Y78.629 E1.19812
G1 X85.03 Y78.158 E.01847
G1 X85.284 Y77.988 E.01116
G1 X85.529 Y77.943 E.00907
G1 X134.471 Y77.943 E1.78573
G1 X134.915 Y78.106 E.01724
G1 X135.024 Y78.223 E.00584
G1 X135.157 Y78.629 E.01558
G1 X135.157 Y111.371 E1.19466
M73 P2 R27
G1 X135.147 Y111.49 E.00434
G1 X134.954 Y111.858 E.01516
G1 X134.714 Y111.982 E.00986
G1 X134.471 Y111.6 F42000
;TYPE:Outer wall
G1 F3600
G1 X85.529 Y111.6 E1.78573
G1 X85.397 Y111.558 E.00505
G1 X85.3 Y111.405 E.00659
G1 X85.3 Y78.629 E1.1959
G1 X85.382 Y78.453 E.00705
G1 X85.529 Y78.4 E.0057
G1 X134.471 Y78.4 E1.78573
G1 X134.656 Y78.493 E.00753
G1 X134.7 Y78.629 E.00519
G1 X134.7 Y111.371 E1.19466
G1 X134.627 Y111.539 E.00667
G1 X134.509 Y111.585 E.00464
;WIPE_START
G1 X132.509 Y111.586 E-.6
;WIPE_END
G1 Z.4 F42000
G1 X98.705 Y114.095 Z.4
G1 Z.2
G1 E.6 F2400
;TYPE:Inner wall
G1 F3600
G1 X98.686 Y114.229 E.00492
G1 X98.686 Y118.146 E.14292
;WIDTH:0.528651
G1 X98.672 Y118.737 E.02295
;WIDTH:0.557302
G1 X98.657 Y119.329 E.0243
G1 X98.657 Y143.057 E.97429
G1 X98.143 Y143.057 E.02112
G1 X98.143 Y119.329 E.97429
G1 X97.961 Y118.925 E.01819
;WIDTH:0.528651
G1 X97.779 Y118.521 E.01718
;WIDTH:0.499999
G1 X92.679 Y113.421 E.26318
;WIDTH:0.528651
G1 X92.275 Y113.239 E.01718
;WIDTH:0.557302
G1 X91.871 Y113.057 E.01819
G1 X85.529 Y113.057 E.26042
G1 X85.075 Y113.072 E.01864
;WIDTH:0.528651
G1 X84.621 Y113.086 E.01761
;WIDTH:0.499999
G1 X84.28 Y113.04 E.01255
G1 X84.065 Y112.904 E.0093
G1 X83.894 Y112.692 E.00992
G1 X83.814 Y112.337 E.01326
;WIDTH:0.528612
G1 X83.829 Y111.854 E.01873
;WIDTH:0.557224
G1 X83.843 Y111.371 E.01983
G1 X83.847 Y78.628 E1.34424
;WIDTH:0.554751
G1 X83.832 Y78.101 E.02153
;WIDTH:0.527375
G1 X83.818 Y77.575 E.02038
;WIDTH:0.499999
G1 X83.913 Y77.261 E.01195
G1 X84.16 Y77.011 E.01283
G1 X84.487 Y76.918 E.01241
;WIDTH:0.5203
G1 X85.002 Y76.924 E.0196
;WIDTH:0.557288
G1 X85.529 Y76.943 E.02165
G1 X134.471 Y76.943 E2.00955
G1 X134.952 Y76.929 E.01974
;WIDTH:0.528644
G1 X135.433 Y76.914 E.01864
;WIDTH:0.499999
G1 X135.787 Y76.998 E.01326
G1 X135.978 Y77.133 E.00856
G1 X136.141 Y77.412 E.01179
G1 X136.186 Y77.692 E.01036
;WIDTH:0.52865
G1 X136.172 Y78.16 E.01816
;WIDTH:0.557301
G1 X136.157 Y78.629 E.01923
G1 X136.157 Y111.729 E1.35912
G1 X136.172 Y112.018 E.01188
;WIDTH:0.52865
G1 X136.186 Y112.308 E.01122
;WIDTH:0.499999
G1 X136.164 Y112.53 E.00816
G1 X136.037 Y112.794 E.01067
G1 X135.792 Y113.006 E.01183
G1 X135.437 Y113.086 E.01327
;WIDTH:0.528651
G1 X134.954 Y113.072 E.01873
;WIDTH:0.557302
G1 X134.471 Y113.057 E.01983
G1 X127.947 Y113.057 E.2679
G1 X127.634 Y113.239 E.01486
;WIDTH:0.528651
G1 X127.321 Y113.421 E.01403
;WIDTH:0.499999
G1 X122.221 Y118.521 E.26318
;WIDTH:0.52865
G1 X122.039 Y118.925 E.01718
;WIDTH:0.557301
G1 X121.857 Y119.329 E.01819
G1 X121.857 Y143.057 E.97428
G1 X121.343 Y143.057 E.02112
G1 X121.343 Y119.329 E.97428
G1 X121.328 Y118.737 E.0243
;WIDTH:0.52865
G1 X121.314 Y118.146 E.02295
;WIDTH:0.499999
G1 X121.314 Y114.539 E.13159
G1 X121.268 Y113.909 E.02306
G1 X121.086 Y113.543 E.01492
G1 X120.709 Y113.22 E.01809
;WIDTH:0.528651
G1 X120.44 Y113.139 E.01089
;WIDTH:0.557302
G1 X120.171 Y113.057 E.01154
G1 X99.652 Y113.057 E.84251
G1 X99.472 Y113.139 E.00814
;WIDTH:0.528651
G1 X99.291 Y113.22 E.00769
;WIDTH:0.499999
G1 X98.914 Y113.543 E.01809
G1 X98.732 Y113.909 E.01492
G1 X98.711 Y114.056 E.00542
G1 X99.152 Y114.162 F42000
G1 F3600
G1 X99.143 Y114.229 E.00246
G1 X99.143 Y143.543 E1.06957
G1 X97.657 Y143.543 E.05421
G1 X97.657 Y119.329 E.88347
G1 X97.456 Y118.844 E.01915
G1 X92.356 Y113.744 E.26318
G1 X91.871 Y113.543 E.01915
G1 X84.555 Y113.543 E.26694
G1 X84.047 Y113.437 E.01891
G1 X83.78 Y113.261 E.01169
G1 X83.588 Y113.054 E.01029
G1 X83.436 Y112.757 E.01219
G1 X83.357 Y112.371 E.01437
G1 X83.362 Y77.528 E1.27128
G1 X83.455 Y77.167 E.01359
G1 X83.666 Y76.826 E.01465
G1 X83.993 Y76.579 E.01498
G1 X84.418 Y76.462 E.01605
G1 X134.471 Y76.457 E1.82626
G1 X135.741 Y76.489 E.04633
G1 X136.172 Y76.69 E.01734
G1 X136.483 Y77.033 E.01689
G1 X136.611 Y77.359 E.0128
G1 X136.643 Y77.692 E.01222
G1 X136.643 Y111.62 E1.23789
G1 X136.625 Y112.519 E.03281
G1 X136.535 Y112.835 E.01198
G1 X136.394 Y113.079 E.01026
G1 X136.154 Y113.312 E.01223
G1 X135.857 Y113.464 E.01219
G1 X135.471 Y113.543 E.01437
G1 X128.03 Y113.543 E.27148
G1 X127.644 Y113.744 E.01588
G1 X122.544 Y118.844 E.26318
G1 X122.343 Y119.329 E.01915
G1 X122.343 Y143.543 E.88347
G1 X120.857 Y143.543 E.05421
G1 X120.857 Y114.539 E1.05824
G1 X120.83 Y114.037 E.01836
G1 X120.72 Y113.817 E.00895
G1 X120.494 Y113.624 E.01085
G1 X120.171 Y113.543 E.01213
G1 X99.829 Y113.543 E.74223
G1 X99.506 Y113.624 E.01213
G1 X99.28 Y113.817 E.01085
G1 X99.17 Y114.037 E.00895
G1 X99.158 Y114.122 E.00316
G1 X99.6 Y114.229 F42000
;TYPE:Outer wall
G1 F3600
G1 X99.6 Y144 E1.08624
M73 P3 R27
G1 X97.2 Y144 E.08757
G1 X97.2 Y119.329 E.90015
G1 X97.133 Y119.167 E.00638
G1 X92.033 Y114.067 E.26318
G1 X91.871 Y114 E.00638
G1 X84.521 Y114 E.26819
M73 P3 R26
G1 X84.025 Y113.926 E.01828
G1 X83.704 Y113.786 E.01277
G1 X83.329 Y113.486 E.01752
G1 X83.061 Y113.093 E.01737
G1 X82.964 Y112.778 E.01203
G1 X82.9 Y112.388 E.01442
G1 X82.905 Y77.485 E1.27346
G1 X83.036 Y76.985 E.01888
G1 X83.234 Y76.64 E.01449
G1 X83.603 Y76.276 E.01892
G1 X83.91 Y76.124 E.01252
G1 X84.382 Y76.005 E.01773
G1 X135.408 Y76 E1.86176
G1 X135.852 Y76.041 E.01626
G1 X136.302 Y76.218 E.01766
G1 X136.584 Y76.426 E.01277
G1 X136.883 Y76.801 E.01752
G1 X137.059 Y77.248 E.01751
G1 X137.1 Y77.692 E.01628
G1 X137.1 Y112.308 E1.26297
G1 X137.059 Y112.752 E.01628
G1 X136.883 Y113.199 E.01751
G1 X136.586 Y113.571 E.01737
G1 X136.193 Y113.839 E.01737
G1 X135.878 Y113.936 E.01203
G1 X135.488 Y114 E.01442
G1 X128.129 Y114 E.2685
G1 X127.967 Y114.067 E.00638
G1 X122.867 Y119.167 E.26318
G1 X122.8 Y119.329 E.00638
G1 X122.8 Y144 E.90015
G1 X120.4 Y144 E.08757
G1 X120.4 Y114.229 E1.08624
G1 X120.354 Y114.091 E.00527
G1 X120.171 Y114 E.00746
G1 X99.795 Y114 E.74347
G1 X99.646 Y114.091 E.00638
G1 X99.613 Y114.191 E.00381
G1 X98.164 Y113.739 F42000
;TYPE:Bottom surface
;WIDTH:0.517096
G1 F6300
G1 X97.739 Y113.314 E.02275
G1 X97.069 Y113.314 E.02538
G1 X97.897 Y114.142 E.04434
G1 X97.886 Y114.802 E.02496
G1 X96.398 Y113.314 E.07964
G1 X95.728 Y113.314 E.02538
G1 X97.886 Y115.472 E.11554
G1 X97.886 Y116.143 E.02538
G1 X95.057 Y113.314 E.15144
G1 X94.386 Y113.314 E.02538
G1 X97.886 Y116.814 E.18733
G1 X97.886 Y117.484 E.02538
G1 X93.51 Y113.108 E.23424
;WIPE_START
G1 X94.924 Y114.523 E-.6
;WIPE_END
G1 Z.4 F42000
G1 X121.908 Y117.078 Z.4
G1 Z.2
G1 E.6 F2400
;WIDTH:0.510789
G1 F6300
G1 X122.22 Y117.39 E.01647
G1 X122.551 Y117.059 E.01747
G1 X122.114 Y116.622 E.02308
G1 X122.114 Y115.961 E.02471
G1 X122.882 Y116.729 E.04055
G1 X123.213 Y116.398 E.01747
G1 X122.114 Y115.299 E.05802
G1 X122.114 Y114.637 E.02471
G1 X123.543 Y116.067 E.0755
G1 X123.874 Y115.736 E.01747
G1 X122.073 Y113.935 E.09513
G1 X122.037 Y113.682 E.00954
G1 X121.853 Y113.314 E.01537
G1 X122.114 Y113.314 E.00974
G1 X124.205 Y115.405 E.11045
G1 X124.536 Y115.074 E.01747
G1 X122.776 Y113.314 E.09297
G1 X123.437 Y113.314 E.02471
G1 X124.867 Y114.744 E.0755
G1 X125.198 Y114.413 E.01747
G1 X124.099 Y113.314 E.05803
