; HEADER_BLOCK_START
; generated by OrcaSlicer 2.1.0 on 2024-12-19 at 17:02:22
; total layer number: 60
; filament_density: 1.27
; filament_diameter: 1.75
; max_z_height: 12.00
; HEADER_BLOCK_END

; THUMBNAIL_BLOCK_START

;
; THUMBNAIL_BLOCK_END

; THUMBNAIL_BLOCK_START

;
; THUMBNAIL_BLOCK_END

; external perimeters extrusion width = 0.42mm
; perimeters extrusion width = 0.45mm
; infill extrusion width = 0.45mm
; solid infill extrusion width = 0.42mm
; top infill extrusion width = 0.42mm
; support material extrusion width = 0.42mm
; first layer extrusion width = 0.50mm

; EXECUTABLE_BLOCK_START
EXCLUDE_OBJECT_DEFINE NAME=уголок_затычка_2.0.stl_id_0_copy_0 CENTER=110,110.9 POLYGON=[[99.9993,99.5993],[100.001,98.4],[120.001,98.4],[120.001,123.4],[100.001,123.4],[99.9993,113.799],[99.9993,99.5993]]
M73 P0 R9
M106 S0
M106 P2 S0
;TYPE:Custom
M140 S0
M104 S0 
START_PRINT EXTRUDER_TEMP=250 BED_TEMP=80
G90
G21
M83 ; use relative distances for extrusion
; filament start gcode
M106 S0
M106 P2 S0
;LAYER_CHANGE
;Z:0.2
;HEIGHT:0.2
;BEFORE_LAYER_CHANGE
;0.2
G92 E0

G1 E-.6 F2400
;_SET_FAN_SPEED_CHANGING_LAYER
SET_VELOCITY_LIMIT ACCEL=500 ACCEL_TO_DECEL=250
SET_VELOCITY_LIMIT SQUARE_CORNER_VELOCITY=9
EXCLUDE_OBJECT_START NAME=уголок_затычка_2.0.stl_id_0_copy_0
G1 Z.2 F42000
G1 X118.229 Y100.305
G1 Z.2
G1 E.6 F2400
;TYPE:Inner wall
;WIDTH:0.499999
G1 F3600
G1 X118.229 Y121.554 E.7753
G1 X101.772 Y121.554 E.60047
G1 X101.772 Y100.305 E.7753
G1 X118.189 Y100.305 E.59901
G1 X118.686 Y99.847 F42000
G1 F3600
G1 X118.687 Y122.011 E.80865
M73 P0 R8
G1 X101.315 Y122.011 E.63382
G1 X101.315 Y99.847 E.80865
G1 X118.646 Y99.847 E.63236
G1 X119.144 Y99.39 F42000
G1 F3600
G1 X119.144 Y122.468 E.84201
G1 X100.858 Y122.468 E.66718
G1 X100.858 Y99.39 E.84201
M73 P1 R8
G1 X119.104 Y99.39 E.66572
G1 X119.601 Y98.933 F42000
;TYPE:Outer wall
G1 F3600
G1 X119.601 Y122.925 E.87536
G1 X100.401 Y122.925 E.70053
G1 X100.401 Y98.933 E.87536
G1 X119.561 Y98.933 E.69907
;WIPE_START
G1 X119.564 Y100.933 E-.6
;WIPE_END
G1 Z.4 F42000
G1 X118.092 Y101.376 Z.4
G1 Z.2
G1 E.6 F2400
;TYPE:Bottom surface
;WIDTH:0.505015
G1 F6300
G1 X117.363 Y100.647 E.03802
G1 X116.71 Y100.647 E.02411
G1 X117.887 Y101.824 E.06139
G1 X117.887 Y102.478 E.02411
G1 X116.056 Y100.647 E.09548
G1 X115.403 Y100.647 E.02411
G1 X117.887 Y103.131 E.12957
G1 X117.887 Y103.785 E.02411
G1 X114.749 Y100.647 E.16366
G1 X114.096 Y100.647 E.02411
G1 X117.887 Y104.438 E.19775
G1 X117.887 Y105.092 E.02411
G1 X113.442 Y100.647 E.23184
G1 X112.789 Y100.647 E.02411
G1 X117.887 Y105.745 E.26593
G1 X117.887 Y106.399 E.02411
G1 X112.135 Y100.647 E.30002
G1 X111.482 Y100.647 E.02411
G1 X117.887 Y107.052 E.33411
G1 X117.887 Y107.706 E.02411
G1 X110.828 Y100.647 E.3682
G1 X110.175 Y100.647 E.02411
G1 X117.887 Y108.359 E.40229
M73 P2 R8
G1 X117.887 Y109.013 E.02411
G1 X109.521 Y100.647 E.43638
G1 X108.868 Y100.647 E.02411
G1 X117.887 Y109.666 E.47047
G1 X117.887 Y110.32 E.02411
G1 X108.214 Y100.647 E.50456
G1 X107.561 Y100.647 E.02411
G1 X117.887 Y110.973 E.53865
G1 X117.887 Y111.627 E.02411
G1 X106.907 Y100.647 E.57274
G1 X106.254 Y100.647 E.02411
G1 X117.887 Y112.28 E.60683
G1 X117.887 Y112.934 E.02411
G1 X105.6 Y100.647 E.64092
G1 X104.947 Y100.647 E.02411
G1 X117.887 Y113.587 E.67501
G1 X117.887 Y114.241 E.02411
G1 X104.293 Y100.647 E.7091
G1 X103.64 Y100.647 E.02411
G1 X117.887 Y114.894 E.74319
G1 X117.887 Y115.548 E.02411
G1 X102.986 Y100.647 E.77728
G1 X102.333 Y100.647 E.02411
G1 X117.887 Y116.201 E.81137
G1 X117.887 Y116.855 E.02411
G1 X102.115 Y101.083 E.82275
G1 X102.115 Y101.736 E.02411
G1 X117.887 Y117.508 E.82275
M73 P3 R8
G1 X117.887 Y118.162 E.02411
G1 X102.115 Y102.39 E.82275
G1 X102.115 Y103.043 E.02411
G1 X117.887 Y118.815 E.82275
G1 X117.887 Y119.469 E.02411
G1 X102.115 Y103.697 E.82275
G1 X102.115 Y104.35 E.02411
G1 X117.887 Y120.122 E.82275
G1 X117.887 Y120.776 E.02411
G1 X102.115 Y105.004 E.82275
G1 X102.115 Y105.657 E.02411
G1 X117.668 Y121.211 E.81136
G1 X117.015 Y121.211 E.02411
G1 X102.115 Y106.311 E.77727
G1 X102.115 Y106.964 E.02411
G1 X116.361 Y121.211 E.74318
G1 X115.708 Y121.211 E.02411
G1 X102.115 Y107.618 E.70909
G1 X102.115 Y108.271 E.02411
G1 X115.054 Y121.211 E.675
G1 X114.401 Y121.211 E.02411
G1 X102.115 Y108.925 E.64091
G1 X102.115 Y109.578 E.02411
G1 X113.747 Y121.211 E.60682
G1 X113.094 Y121.211 E.02411
G1 X102.115 Y110.232 E.57273
M73 P4 R8
G1 X102.115 Y110.885 E.02411
G1 X112.44 Y121.211 E.53864
G1 X111.787 Y121.211 E.02411
G1 X102.115 Y111.539 E.50455
G1 X102.115 Y112.192 E.02411
G1 X111.133 Y121.211 E.47046
G1 X110.48 Y121.211 E.02411
G1 X102.115 Y112.846 E.43637
G1 X102.115 Y113.499 E.02411
G1 X109.826 Y121.211 E.40228
G1 X109.173 Y121.211 E.02411
G1 X102.115 Y114.153 E.36819
G1 X102.115 Y114.806 E.02411
G1 X108.519 Y121.211 E.3341
G1 X107.866 Y121.211 E.02411
G1 X102.115 Y115.46 E.30001
G1 X102.115 Y116.113 E.02411
G1 X107.212 Y121.211 E.26592
G1 X106.559 Y121.211 E.02411
G1 X102.115 Y116.767 E.23183
G1 X102.115 Y117.42 E.02411
G1 X105.905 Y121.211 E.19774
G1 X105.252 Y121.211 E.02411
G1 X102.115 Y118.074 E.16365
G1 X102.115 Y118.727 E.02411
G1 X104.598 Y121.211 E.12956
G1 X103.945 Y121.211 E.02411
G1 X102.115 Y119.381 E.09547
G1 X102.115 Y120.034 E.02411
G1 X103.291 Y121.211 E.06138
G1 X102.638 Y121.211 E.02411
G1 X101.909 Y120.482 E.03802
;LAYER_CHANGE
;Z:0.4
;HEIGHT:0.2
;BEFORE_LAYER_CHANGE
;0.4
G92 E0

;WIPE_START
G1 F6300
G1 X102.638 Y121.211 E-.30921
G1 X103.291 Y121.211 E-.19605
G1 X103.068 Y120.988 E-.09474
;WIPE_END
EXCLUDE_OBJECT_END NAME=уголок_затычка_2.0.stl_id_0_copy_0
;_SET_FAN_SPEED_CHANGING_LAYER
SET_VELOCITY_LIMIT ACCEL=12000 ACCEL_TO_DECEL=6000
M140 S80 ; set bed temperature
SET_VELOCITY_LIMIT SQUARE_CORNER_VELOCITY=12
EXCLUDE_OBJECT_START NAME=уголок_затычка_2.0.stl_id_0_copy_0
G1 Z.4 F42000
G1 X118.584 Y100.216 Z.4
G1 E.6 F2400
SET_VELOCITY_LIMIT ACCEL=5000 ACCEL_TO_DECEL=2500 SQUARE_CORNER_VELOCITY=7
;TYPE:Inner wall
;WIDTH:0.449999
G1 F9805
G1 X118.584 Y121.759 E.70002
G1 X101.417 Y121.759 E.55786
G1 X101.417 Y100.216 E.70002
G1 X118.544 Y100.216 E.55655
SET_VELOCITY_LIMIT ACCEL=12000 ACCEL_TO_DECEL=6000 SQUARE_CORNER_VELOCITY=12
G1 X118.991 Y99.809 F42000
SET_VELOCITY_LIMIT ACCEL=5000 ACCEL_TO_DECEL=2500 SQUARE_CORNER_VELOCITY=7
G1 F9805
G1 X118.992 Y122.166 E.72648
G1 X101.01 Y122.166 E.58431
G1 X101.01 Y99.809 E.72648
G1 X118.951 Y99.809 E.58301
SET_VELOCITY_LIMIT ACCEL=12000 ACCEL_TO_DECEL=6000 SQUARE_CORNER_VELOCITY=12
M73 P5 R8
G1 X119.399 Y99.402 F42000
SET_VELOCITY_LIMIT ACCEL=5000 ACCEL_TO_DECEL=2500 SQUARE_CORNER_VELOCITY=7
G1 F9805
G1 X119.399 Y122.573 E.75293
G1 X100.603 Y122.573 E.61077
G1 X100.603 Y99.402 E.75293
G1 X119.359 Y99.402 E.60946
SET_VELOCITY_LIMIT ACCEL=12000 ACCEL_TO_DECEL=6000 SQUARE_CORNER_VELOCITY=12
G1 X119.791 Y99.01 F42000
SET_VELOCITY_LIMIT ACCEL=5000 ACCEL_TO_DECEL=2500 SQUARE_CORNER_VELOCITY=7
;TYPE:Outer wall
;WIDTH:0.419999
G1 F9805
G1 X119.791 Y122.965 E.72105
G1 X100.211 Y122.965 E.58936
G1 X100.211 Y99.01 E.72105
G1 X119.751 Y99.01 E.58815
SET_VELOCITY_LIMIT ACCEL=12000 ACCEL_TO_DECEL=6000 SQUARE_CORNER_VELOCITY=12
G1 E-.2 F2400
;WIPE_START
G1 F12000
G1 X119.754 Y101.01 E-.4
;WIPE_END
G1 Z.6 F42000
G1 X101.844 Y100.575 Z.6
G1 Z.4
G1 E.6 F2400
;TYPE:Internal solid infill
;WIDTH:0.439956
G1 F9805
G1 X101.769 Y100.618 E.00272
G1 X101.849 Y100.653 E.00274
G1 X117.659 Y121.597 F42000
;WIDTH:0.420652
G1 F9805
G1 X118.253 Y121.003 E.02533
G1 X118.253 Y120.469 E.01611
G1 X117.295 Y121.428 E.04087
G1 X116.761 Y121.428 E.01611
G1 X118.253 Y119.935 E.06365
G1 X118.253 Y119.401 E.01611
G1 X116.227 Y121.428 E.08643
G1 X115.692 Y121.428 E.01611
G1 X118.253 Y118.867 E.10921
G1 X118.253 Y118.333 E.01611
G1 X115.158 Y121.428 E.13199
G1 X114.624 Y121.428 E.01611
G1 X118.253 Y117.798 E.15476
G1 X118.253 Y117.264 E.01611
G1 X114.09 Y121.428 E.17754
G1 X113.556 Y121.428 E.01611
G1 X118.253 Y116.73 E.20032
G1 X118.253 Y116.196 E.01611
G1 X113.021 Y121.428 E.2231
G1 X112.487 Y121.428 E.01611
G1 X118.253 Y115.662 E.24588
G1 X118.253 Y115.127 E.01611
G1 X111.953 Y121.428 E.26866
G1 X111.419 Y121.428 E.01611
G1 X118.253 Y114.593 E.29144
G1 X118.253 Y114.059 E.01611
G1 X110.885 Y121.428 E.31422
G1 X110.35 Y121.428 E.01611
G1 X118.253 Y113.525 E.337
G1 X118.253 Y112.991 E.01611
G1 X109.816 Y121.428 E.35977
G1 X109.282 Y121.428 E.01611
G1 X118.253 Y112.456 E.38255
G1 X118.253 Y111.922 E.01611
G1 X108.748 Y121.428 E.40533
G1 X108.214 Y121.428 E.01611
G1 X118.253 Y111.388 E.42811
G1 X118.253 Y110.854 E.01611
G1 X107.679 Y121.428 E.45089
G1 X107.145 Y121.428 E.01611
G1 X118.253 Y110.32 E.47367
G1 X118.253 Y109.785 E.01611
G1 X106.611 Y121.428 E.49645
G1 X106.077 Y121.428 E.01611
G1 X118.253 Y109.251 E.51923
G1 X118.253 Y108.717 E.01611
G1 X105.543 Y121.428 E.542
G1 X105.009 Y121.428 E.01611
G1 X118.253 Y108.183 E.56478
G1 X118.253 Y107.649 E.01611
G1 X104.474 Y121.428 E.58756
G1 X103.94 Y121.428 E.01611
G1 X118.253 Y107.114 E.61034
G1 X118.253 Y106.58 E.01611
G1 X103.406 Y121.428 E.63312
G1 X102.872 Y121.428 E.01611
G1 X118.253 Y106.046 E.6559
G1 X118.253 Y105.512 E.01611
G1 X102.338 Y121.428 E.67868
G1 X101.803 Y121.428 E.01611
G1 X118.253 Y104.978 E.70146
G1 X118.253 Y104.444 E.01611
G1 X101.748 Y120.949 E.70382
G1 X101.748 Y120.415 E.01611
G1 X118.253 Y103.909 E.70382
G1 X118.253 Y103.375 E.01611
G1 X101.748 Y119.881 E.70382
G1 X101.748 Y119.346 E.01611
G1 X118.253 Y102.841 E.70382
G1 X118.253 Y102.307 E.01611
G1 X101.748 Y118.812 E.70382
M73 P6 R8
G1 X101.748 Y118.278 E.01611
G1 X118.253 Y101.773 E.70382
G1 X118.253 Y101.238 E.01611
G1 X101.748 Y117.744 E.70382
G1 X101.748 Y117.21 E.01611
G1 X118.253 Y100.704 E.70382
G1 X118.253 Y100.547 E.00473
G1 X117.876 Y100.547 E.01137
G1 X101.748 Y116.675 E.68773
G1 X101.748 Y116.141 E.01611
G1 X117.342 Y100.547 E.66495
G1 X116.808 Y100.547 E.01611
G1 X101.748 Y115.607 E.64217
G1 X101.748 Y115.073 E.01611
G1 X116.274 Y100.547 E.61939
G1 X115.739 Y100.547 E.01611
G1 X101.748 Y114.539 E.59662
G1 X101.748 Y114.004 E.01611
G1 X115.205 Y100.547 E.57384
G1 X114.671 Y100.547 E.01611
G1 X101.748 Y113.47 E.55106
G1 X101.748 Y112.936 E.01611
G1 X114.137 Y100.547 E.52828
G1 X113.603 Y100.547 E.01611
G1 X101.748 Y112.402 E.5055
G1 X101.748 Y111.868 E.01611
G1 X113.068 Y100.547 E.48272
G1 X112.534 Y100.547 E.01611
G1 X101.748 Y111.333 E.45994
G1 X101.748 Y110.799 E.01611
G1 X112 Y100.547 E.43716
G1 X111.466 Y100.547 E.01611
G1 X101.748 Y110.265 E.41438
G1 X101.748 Y109.731 E.01611
G1 X110.932 Y100.547 E.39161
G1 X110.397 Y100.547 E.01611
G1 X101.748 Y109.197 E.36883
G1 X101.748 Y108.662 E.01611
G1 X109.863 Y100.547 E.34605
G1 X109.329 Y100.547 E.01611
G1 X101.748 Y108.128 E.32327
G1 X101.748 Y107.594 E.01611
G1 X108.795 Y100.547 E.30049
G1 X108.261 Y100.547 E.01611
G1 X101.748 Y107.06 E.27771
G1 X101.748 Y106.526 E.01611
G1 X107.726 Y100.547 E.25493
G1 X107.192 Y100.547 E.01611
G1 X101.748 Y105.992 E.23215
G1 X101.748 Y105.457 E.01611
G1 X106.658 Y100.547 E.20937
G1 X106.124 Y100.547 E.01611
G1 X101.748 Y104.923 E.18659
G1 X101.748 Y104.389 E.01611
G1 X105.59 Y100.547 E.16382
G1 X105.055 Y100.547 E.01611
G1 X101.748 Y103.855 E.14104
G1 X101.748 Y103.321 E.01611
G1 X104.521 Y100.547 E.11826
G1 X103.987 Y100.547 E.01611
G1 X101.748 Y102.786 E.09548
G1 X101.748 Y102.252 E.01611
G1 X103.453 Y100.547 E.0727
G1 X102.919 Y100.547 E.01611
G1 X101.748 Y101.718 E.04992
G1 X101.748 Y101.184 E.01611
G1 X102.554 Y100.378 E.03438
;LAYER_CHANGE
;Z:0.6
;HEIGHT:0.2
;BEFORE_LAYER_CHANGE
;0.6
G92 E0

G1 E-.29781 F2400
;WIPE_START
G1 F15884.276
G1 X101.748 Y101.184 E-.17227
G1 X101.748 Y101.718 E-.08071
G1 X101.978 Y101.488 E-.0492
;WIPE_END
EXCLUDE_OBJECT_END NAME=уголок_затычка_2.0.stl_id_0_copy_0
;_SET_FAN_SPEED_CHANGING_LAYER
EXCLUDE_OBJECT_START NAME=уголок_затычка_2.0.stl_id_0_copy_0
G1 Z.6 F42000
G1 X118.584 Y100.483 Z.6
G1 E.6 F2400
SET_VELOCITY_LIMIT ACCEL=5000 ACCEL_TO_DECEL=2500 SQUARE_CORNER_VELOCITY=7
;TYPE:Inner wall
;WIDTH:0.449999
G1 F9538
G1 X118.584 Y121.609 E.68648
G1 X101.417 Y121.609 E.55786
G1 X101.417 Y100.483 E.68648
G1 X118.544 Y100.483 E.55655
SET_VELOCITY_LIMIT ACCEL=12000 ACCEL_TO_DECEL=6000 SQUARE_CORNER_VELOCITY=12
G1 X118.991 Y100.076 F42000
SET_VELOCITY_LIMIT ACCEL=5000 ACCEL_TO_DECEL=2500 SQUARE_CORNER_VELOCITY=7
G1 F9538
G1 X118.992 Y122.016 E.71294
G1 X101.01 Y122.016 E.58431
G1 X101.01 Y100.076 E.71294
G1 X118.951 Y100.076 E.58301
SET_VELOCITY_LIMIT ACCEL=12000 ACCEL_TO_DECEL=6000 SQUARE_CORNER_VELOCITY=12
G1 X119.398 Y99.669 F42000
SET_VELOCITY_LIMIT ACCEL=5000 ACCEL_TO_DECEL=2500 SQUARE_CORNER_VELOCITY=7
G1 F9538
G1 X119.399 Y122.423 E.73939
G1 X100.603 Y122.423 E.61077
G1 X100.603 Y99.669 E.73939
G1 X119.358 Y99.669 E.60946
SET_VELOCITY_LIMIT ACCEL=12000 ACCEL_TO_DECEL=6000 SQUARE_CORNER_VELOCITY=12
M73 P7 R8
G1 X119.791 Y99.277 F42000
SET_VELOCITY_LIMIT ACCEL=5000 ACCEL_TO_DECEL=2500 SQUARE_CORNER_VELOCITY=7
;TYPE:Outer wall
;WIDTH:0.419999
G1 F9538
G1 X119.791 Y122.815 E.70851
G1 X100.211 Y122.815 E.58936
G1 X100.211 Y99.277 E.70851
G1 X119.751 Y99.277 E.58815
SET_VELOCITY_LIMIT ACCEL=12000 ACCEL_TO_DECEL=6000 SQUARE_CORNER_VELOCITY=12
G1 E-.2 F2400
;WIPE_START
G1 F12000
G1 X119.754 Y101.277 E-.4
;WIPE_END
G1 Z.8 F42000
G1 X118.244 Y100.807 Z.8
G1 Z.6
G1 E.6 F2400
;TYPE:Internal solid infill
;WIDTH:0.38292
G1 F9538
G1 X118.18 Y100.844 E.002
G1 X118.245 Y100.879 E.002
G1 X117.585 Y100.644 F42000
;WIDTH:0.421108
G1 F9538
G1 X118.253 Y101.312 E.02851
G1 X118.253 Y101.847 E.01615
G1 X117.22 Y100.814 E.0441
G1 X116.686 Y100.814 E.01615
G1 X118.253 Y102.382 E.06693
G1 X118.253 Y102.917 E.01615
G1 X116.151 Y100.814 E.08977
G1 X115.616 Y100.814 E.01615
G1 X118.253 Y103.451 E.1126
G1 X118.253 Y103.986 E.01615
G1 X115.081 Y100.814 E.13544
G1 X114.546 Y100.814 E.01615
G1 X118.253 Y104.521 E.15827
G1 X118.253 Y105.056 E.01615
G1 X114.011 Y100.814 E.1811
G1 X113.476 Y100.814 E.01615
G1 X118.253 Y105.591 E.20394
G1 X118.253 Y106.126 E.01615
G1 X112.942 Y100.814 E.22677
G1 X112.407 Y100.814 E.01615
G1 X118.253 Y106.66 E.24961
G1 X118.253 Y107.195 E.01615
G1 X111.872 Y100.814 E.27244
G1 X111.337 Y100.814 E.01615
G1 X118.253 Y107.73 E.29528
G1 X118.253 Y108.265 E.01615
G1 X110.802 Y100.814 E.31811
G1 X110.267 Y100.814 E.01615
G1 X118.253 Y108.8 E.34094
G1 X118.253 Y109.335 E.01615
G1 X109.733 Y100.814 E.36378
G1 X109.198 Y100.814 E.01615
G1 X118.253 Y109.87 E.38661
G1 X118.253 Y110.404 E.01615
G1 X108.663 Y100.814 E.40945
G1 X108.128 Y100.814 E.01615
G1 X118.253 Y110.939 E.43228
G1 X118.253 Y111.474 E.01615
G1 X107.593 Y100.814 E.45511
G1 X107.058 Y100.814 E.01615
G1 X118.253 Y112.009 E.47795
G1 X118.253 Y112.544 E.01615
G1 X106.524 Y100.814 E.50078
G1 X105.989 Y100.814 E.01615
G1 X118.253 Y113.079 E.52362
G1 X118.253 Y113.613 E.01615
G1 X105.454 Y100.814 E.54645
G1 X104.919 Y100.814 E.01615
G1 X118.253 Y114.148 E.56928
G1 X118.253 Y114.683 E.01615
G1 X104.384 Y100.814 E.59212
G1 X103.849 Y100.814 E.01615
G1 X118.253 Y115.218 E.61495
G1 X118.253 Y115.753 E.01615
G1 X103.315 Y100.814 E.63779
G1 X102.78 Y100.814 E.01615
G1 X118.253 Y116.288 E.66062
G1 X118.253 Y116.822 E.01615
G1 X102.245 Y100.814 E.68345
G1 X101.748 Y100.814 E.015
G1 X101.748 Y100.852 E.00115
G1 X118.253 Y117.357 E.70467
G1 X118.253 Y117.892 E.01615
G1 X101.748 Y101.387 E.70467
G1 X101.748 Y101.922 E.01615
G1 X118.253 Y118.427 E.70467
G1 X118.253 Y118.962 E.01615
G1 X101.748 Y102.456 E.70467
G1 X101.748 Y102.991 E.01615
G1 X118.253 Y119.497 E.70467
G1 X118.253 Y120.032 E.01615
G1 X101.748 Y103.526 E.70467
G1 X101.748 Y104.061 E.01615
G1 X118.253 Y120.566 E.70467
G1 X118.253 Y121.101 E.01615
G1 X101.748 Y104.596 E.70467
G1 X101.748 Y105.131 E.01615
G1 X117.895 Y121.278 E.68937
G1 X117.36 Y121.278 E.01615
G1 X101.748 Y105.665 E.66654
M73 P8 R8
G1 X101.748 Y106.2 E.01615
G1 X116.825 Y121.278 E.64371
G1 X116.291 Y121.278 E.01615
G1 X101.748 Y106.735 E.62087
G1 X101.748 Y107.27 E.01615
G1 X115.756 Y121.278 E.59804
G1 X115.221 Y121.278 E.01615
G1 X101.748 Y107.805 E.5752
G1 X101.748 Y108.34 E.01615
G1 X114.686 Y121.278 E.55237
G1 X114.151 Y121.278 E.01615
G1 X101.748 Y108.874 E.52954
G1 X101.748 Y109.409 E.01615
