; HEADER_BLOCK_START
; generated by OrcaSlicer 2.1.0 on 2024-11-19 at 18:48:21
; total layer number: 175
; filament_density: 1.27
; filament_diameter: 1.75
; max_z_height: 35.00
; HEADER_BLOCK_END

; THUMBNAIL_BLOCK_START

;
; THUMBNAIL_BLOCK_END

; THUMBNAIL_BLOCK_START

;
; THUMBNAIL_BLOCK_END

; external perimeters extrusion width = 0.42mm
; perimeters extrusion width = 0.45mm
; infill extrusion width = 0.45mm
; solid infill extrusion width = 0.42mm
; top infill extrusion width = 0.42mm
; support material extrusion width = 0.42mm
; first layer extrusion width = 0.50mm

; EXECUTABLE_BLOCK_START
EXCLUDE_OBJECT_DEFINE NAME=уголок.stp_id_0_copy_0 CENTER=110,110 POLYGON=[[92.5,100],[125.5,100],[125.649,100.006],[125.798,100.022],[125.945,100.05],[126.09,100.089],[126.231,100.138],[126.368,100.198],[126.5,100.268],[126.627,100.348],[126.747,100.436],[126.86,100.534],[126.966,100.64],[127.064,100.753],[127.152,100.873],[127.232,101],[127.302,101.132],[127.362,101.269],[127.411,101.41],[127.45,101.555],[127.478,101.702],[127.494,101.851],[127.5,102],[127.5,118],[127.494,118.149],[127.478,118.298],[127.45,118.445],[127.411,118.59],[127.362,118.731],[127.302,118.868],[127.232,119],[127.152,119.127],[127.064,119.247],[126.966,119.36],[126.86,119.466],[126.747,119.564],[126.627,119.652],[126.5,119.732],[126.368,119.802],[126.231,119.862],[126.09,119.911],[125.945,119.95],[125.798,119.978],[125.649,119.994],[125.5,120],[92.5,120],[92.5,100]]
M73 P0 R26
M106 S0
M106 P2 S0
;TYPE:Custom
M140 S0
M104 S0 
START_PRINT EXTRUDER_TEMP=250 BED_TEMP=80
G90
G21
M83 ; use relative distances for extrusion
; filament start gcode
M106 S0
M106 P2 S0
;LAYER_CHANGE
;Z:0.2
;HEIGHT:0.2
;BEFORE_LAYER_CHANGE
;0.2
G92 E0

G1 E-.6 F2400
;_SET_FAN_SPEED_CHANGING_LAYER
SET_VELOCITY_LIMIT ACCEL=500 ACCEL_TO_DECEL=250
SET_VELOCITY_LIMIT SQUARE_CORNER_VELOCITY=9
EXCLUDE_OBJECT_START NAME=уголок.stp_id_0_copy_0
G1 Z.2 F42000
G1 X94.271 Y101.771
G1 Z.2
G1 E.6 F2400
;TYPE:Inner wall
;WIDTH:0.499999
G1 F3600
G1 X125.466 Y101.771 E1.13816
G1 X125.673 Y101.872 E.00841
G1 X125.729 Y102.112 E.00901
G1 X125.729 Y117.965 E.57839
G1 X125.628 Y118.173 E.00846
G1 X125.406 Y118.229 E.00833
G1 X94.271 Y118.229 E1.136
G1 X94.271 Y101.811 E.59901
G1 X93.814 Y101.314 F42000
G1 F3600
G1 X125.353 Y101.314 E1.15074
G1 X125.718 Y101.36 E.01342
G1 X126.009 Y101.555 E.01279
G1 X126.129 Y101.782 E.00937
G1 X126.186 Y102.112 E.01221
G1 X126.186 Y117.849 E.57416
G1 X126.14 Y118.22 E.01365
G1 X125.944 Y118.51 E.01276
G1 X125.743 Y118.619 E.00835
G1 X125.432 Y118.686 E.01162
G1 X93.814 Y118.686 E1.15361
G1 X93.814 Y101.354 E.63236
G1 X93.357 Y100.857 F42000
G1 F3600
G1 X125.353 Y100.857 E1.16742
G1 X125.73 Y100.9 E.01382
G1 X126.061 Y101.011 E.01276
G1 X126.41 Y101.328 E.01718
G1 X126.611 Y101.759 E.01736
G1 X126.643 Y102.112 E.01294
G1 X126.643 Y117.849 E.57416
G1 X126.6 Y118.234 E.01414
G1 X126.491 Y118.558 E.01247
G1 X126.172 Y118.91 E.01735
G1 X125.741 Y119.111 E.01734
G1 X125.457 Y119.143 E.01041
G1 X93.357 Y119.143 E1.17122
G1 X93.357 Y100.897 E.66572
G1 X92.9 Y100.4 F42000
;TYPE:Outer wall
G1 F3600
G1 X125.353 Y100.4 E1.18409
G1 X125.974 Y100.474 E.02282
G1 X126.3 Y100.617 E.01295
G1 X126.674 Y100.916 E.01748
G1 X126.882 Y101.198 E.01278
G1 X127.059 Y101.648 E.01766
G1 X127.1 Y102.112 E.017
G1 X127.1 Y117.979 E.57893
G1 X127.026 Y118.475 E.01828
G1 X126.886 Y118.796 E.01277
G1 X126.584 Y119.174 E.01766
G1 X126.302 Y119.382 E.01277
G1 X125.852 Y119.559 E.01766
G1 X125.483 Y119.6 E.01354
G1 X92.9 Y119.6 E1.18883
G1 X92.9 Y100.44 E.69907
;WIPE_START
G1 X94.9 Y100.438 E-.6
;WIPE_END
G1 Z.4 F42000
G1 X114.372 Y112.877 Z.4
G1 Z.2
G1 E.6 F2400
;TYPE:Inner wall
G1 F3600
G1 X114.223 Y112.731 E.00759
G1 X113.864 Y112.213 E.02301
G1 X113.586 Y111.696 E.02141
G1 X113.4 Y111.179 E.02003
G1 X113.317 Y110.828 E.01317
G1 X113.245 Y110.312 E.01901
G1 X113.272 Y109.431 E.03217
G1 X113.403 Y108.801 E.02348
G1 X113.714 Y108.034 E.0302
G1 X114.051 Y107.485 E.02348
G1 X114.603 Y106.869 E.03018
G1 X115.309 Y106.34 E.03218
G1 X116.108 Y105.967 E.03218
G1 X116.973 Y105.767 E.03239
G1 X117.851 Y105.748 E.03205
G1 X118.717 Y105.911 E.03216
G1 X119.532 Y106.249 E.03217
G1 X120.259 Y106.746 E.03216
G1 X120.869 Y107.383 E.03218
G1 X121.336 Y108.133 E.0322
G1 X121.576 Y108.73 E.02348
G1 X121.741 Y109.541 E.0302
G1 X121.745 Y110.424 E.03221
G1 X121.567 Y111.287 E.03217
G1 X121.216 Y112.096 E.03217
G1 X120.861 Y112.633 E.02348
G1 X120.288 Y113.229 E.03018
G1 X119.563 Y113.734 E.0322
G1 X118.98 Y114.004 E.02348
G1 X118.179 Y114.212 E.03018
G1 X117.298 Y114.261 E.03218
G1 X116.426 Y114.129 E.03218
G1 X115.6 Y113.819 E.03218
G1 X114.855 Y113.347 E.03218
G1 X114.401 Y112.904 E.02314
G1 X114.684 Y112.545 F42000
G1 F3600
G1 X114.555 Y112.417 E.00667
G1 X114.253 Y111.974 E.01956
G1 X114.016 Y111.542 E.01797
G1 X113.83 Y111.025 E.02003
G1 X113.698 Y110.249 E.02871
G1 X113.728 Y109.462 E.02874
G1 X113.847 Y108.91 E.02061
G1 X114.133 Y108.218 E.02734
G1 X114.431 Y107.738 E.02061
G1 X114.934 Y107.184 E.02732
G1 X115.568 Y106.716 E.02874
G1 X116.285 Y106.389 E.02874
G1 X117.059 Y106.216 E.02893
G1 X117.843 Y106.205 E.02861
G1 X118.615 Y106.357 E.02872
G1 X119.34 Y106.664 E.02873
G1 X119.987 Y107.113 E.02872
G1 X120.527 Y107.686 E.02874
G1 X120.938 Y108.359 E.02876
G1 X121.146 Y108.884 E.02061
G1 X121.291 Y109.619 E.02734
G1 X121.288 Y110.408 E.02876
G1 X121.123 Y111.178 E.02873
G1 X120.804 Y111.898 E.02874
G1 X120.489 Y112.366 E.02061
G1 X119.967 Y112.903 E.02732
G1 X119.317 Y113.349 E.02876
G1 X118.803 Y113.583 E.02061
G1 X118.077 Y113.766 E.02732
G1 X117.29 Y113.804 E.02874
G1 X116.512 Y113.68 E.02874
G1 X115.776 Y113.398 E.02874
G1 X115.114 Y112.971 E.02874
G1 X114.713 Y112.573 E.02061
G1 X115.001 Y112.218 F42000
G1 F3600
G1 X114.886 Y112.102 E.00597
G1 X114.508 Y111.515 E.02548
G1 X114.261 Y110.871 E.02518
G1 X114.151 Y110.187 E.02528
G1 X114.184 Y109.494 E.0253
G1 X114.306 Y108.968 E.0197
G1 X114.551 Y108.402 E.02252
G1 X114.812 Y107.991 E.01774
G1 X115.266 Y107.498 E.02445
G1 X115.828 Y107.092 E.0253
G1 X116.462 Y106.81 E.0253
G1 X117.145 Y106.665 E.02548
G1 X117.835 Y106.662 E.02518
G1 X118.514 Y106.803 E.02529
G1 X119.149 Y107.079 E.02529
G1 X119.714 Y107.48 E.02529
G1 X120.185 Y107.99 E.0253
G1 X120.541 Y108.585 E.02532
G1 X120.746 Y109.153 E.02203
G1 X120.841 Y109.698 E.02017
G1 X120.831 Y110.392 E.02532
G1 X120.68 Y111.068 E.02529
G1 X120.392 Y111.699 E.0253
G1 X120.041 Y112.19 E.02203
G1 X119.647 Y112.577 E.02015
G1 X119.07 Y112.964 E.02532
G1 X118.514 Y113.197 E.02203
G1 X117.975 Y113.32 E.02015
G1 X117.282 Y113.347 E.0253
G1 X116.598 Y113.231 E.02531
G1 X115.953 Y112.976 E.0253
G1 X115.374 Y112.595 E.02531
G1 X115.029 Y112.247 E.01787
G1 X115.324 Y111.897 F42000
;TYPE:Outer wall
G1 F3600
G1 X115.217 Y111.787 E.0056
G1 X114.897 Y111.276 E.02203
G1 X114.691 Y110.716 E.02175
G1 X114.604 Y110.124 E.02185
G1 X114.64 Y109.525 E.02187
G1 X114.751 Y109.082 E.0167
G1 X114.97 Y108.585 E.01977
G1 X115.192 Y108.244 E.01487
G1 X115.597 Y107.813 E.02159
G1 X116.088 Y107.468 E.02187
G1 X116.638 Y107.232 E.02187
G1 X117.23 Y107.114 E.02203
G1 X117.826 Y107.119 E.02175
G1 X118.412 Y107.248 E.02187
G1 X118.958 Y107.494 E.02186
G1 X119.442 Y107.847 E.02185
G1 X119.843 Y108.293 E.02187
G1 X120.144 Y108.811 E.02188
G1 X120.295 Y109.232 E.0163
G1 X120.39 Y109.777 E.02017
G1 X120.374 Y110.376 E.02188
G1 X120.236 Y110.959 E.02186
G1 X119.98 Y111.501 E.02187
G1 X119.72 Y111.864 E.0163
G1 X119.326 Y112.251 E.02015
G1 X118.824 Y112.579 E.02188
G1 X118.412 Y112.752 E.0163
G1 X117.873 Y112.875 E.02015
G1 X117.274 Y112.89 E.02187
G1 X116.684 Y112.782 E.02187
G1 X116.13 Y112.555 E.02187
G1 X115.634 Y112.218 E.02187
G1 X115.352 Y111.926 E.01481
;WIPE_START
G1 X115.217 Y111.787 E-.05801
G1 X114.897 Y111.276 E-.18111
G1 X114.691 Y110.716 E-.17881
G1 X114.604 Y110.124 E-.17968
G1 X114.604 Y110.116 E-.00239
;WIPE_END
G1 Z.4 F42000
G1 X104.713 Y114.203 Z.4
G1 Z.2
G1 E.6 F2400
;TYPE:Inner wall
G1 F3600
G1 X104.226 Y114.129 E.01798
G1 X103.4 Y113.819 E.03218
G1 X102.651 Y113.343 E.03239
G1 X102.022 Y112.73 E.03205
G1 X101.634 Y112.166 E.02498
G1 X101.387 Y111.7 E.01923
G1 X101.2 Y111.18 E.02016
G1 X101.045 Y110.312 E.03216
G1 X101.072 Y109.431 E.03216
G1 X101.28 Y108.574 E.0322
G1 X101.537 Y107.984 E.02348
G1 X102 Y107.297 E.0302
G1 X102.442 Y106.829 E.02348
G1 X103.109 Y106.34 E.03018
G1 X103.908 Y105.967 E.03218
G1 X104.773 Y105.767 E.03239
G1 X105.651 Y105.748 E.03203
G1 X106.516 Y105.911 E.03215
G1 X107.332 Y106.249 E.03219
G1 X108.059 Y106.746 E.03216
G1 X108.669 Y107.383 E.03218
G1 X108.862 Y107.652 E.01207
G1 X109.136 Y108.133 E.02017
G1 X109.376 Y108.73 E.0235
G1 X109.541 Y109.541 E.03019
G1 X109.545 Y110.423 E.03217
G1 X109.436 Y111.058 E.0235
G1 X109.237 Y111.62 E.02176
G1 X108.998 Y112.127 E.02048
G1 X108.692 Y112.587 E.02014
G1 X108.088 Y113.229 E.03217
G1 X107.364 Y113.734 E.0322
G1 X106.78 Y114.004 E.02349
G1 X105.979 Y114.212 E.03018
G1 X105.098 Y114.261 E.03218
G1 X104.753 Y114.209 E.01274
G1 X104.773 Y113.753 F42000
G1 F3600
G1 X104.312 Y113.68 E.01703
G1 X103.576 Y113.398 E.02874
G1 X102.911 Y112.967 E.02893
G1 X102.353 Y112.415 E.02862
G1 X102.023 Y111.926 E.02154
G1 X101.817 Y111.545 E.01579
G1 X101.631 Y111.025 E.02016
G1 X101.498 Y110.249 E.02872
G1 X101.528 Y109.463 E.02872
G1 X101.719 Y108.698 E.02876
G1 X101.949 Y108.182 E.02061
G1 X102.371 Y107.563 E.02734
G1 X102.762 Y107.155 E.02061
G1 X103.368 Y106.716 E.02732
G1 X104.085 Y106.389 E.02874
G1 X104.859 Y106.216 E.02893
G1 X105.642 Y106.205 E.0286
G1 X106.415 Y106.357 E.02872
G1 X107.14 Y106.664 E.02875
G1 X107.787 Y107.113 E.02872
G1 X108.327 Y107.686 E.02874
G1 X108.738 Y108.359 E.02876
G1 X108.946 Y108.885 E.02063
G1 X109.091 Y109.62 E.02732
G1 X109.088 Y110.407 E.02874
G1 X108.989 Y110.964 E.02062
G1 X108.813 Y111.45 E.01889
G1 X108.617 Y111.874 E.01703
G1 X108.311 Y112.334 E.02014
G1 X107.767 Y112.903 E.02874
G1 X107.117 Y113.349 E.02876
G1 X106.603 Y113.583 E.02061
G1 X105.877 Y113.766 E.02732
G1 X105.09 Y113.804 E.02874
G1 X104.813 Y113.76 E.01025
G1 X104.839 Y113.306 F42000
G1 F3600
G1 X104.398 Y113.231 E.0163
G1 X103.753 Y112.976 E.0253
G1 X103.171 Y112.591 E.02548
G1 X102.685 Y112.101 E.02518
G1 X102.309 Y111.518 E.02529
G1 X102.061 Y110.871 E.02531
G1 X101.951 Y110.187 E.02529
G1 X101.984 Y109.494 E.02529
G1 X102.159 Y108.823 E.02532
G1 X102.396 Y108.317 E.02038
G1 X102.743 Y107.829 E.02183
G1 X103.173 Y107.406 E.02203
G1 X103.628 Y107.092 E.02015
G1 X104.262 Y106.81 E.0253
G1 X104.945 Y106.665 E.02548
G1 X105.634 Y106.662 E.02516
G1 X106.313 Y106.802 E.02529
G1 X106.949 Y107.079 E.02531
G1 X107.514 Y107.48 E.02529
G1 X107.985 Y107.99 E.0253
G1 X108.341 Y108.585 E.02532
G1 X108.532 Y109.091 E.01972
G1 X108.641 Y109.698 E.0225
G1 X108.631 Y110.391 E.0253
G1 X108.532 Y110.907 E.01918
G1 X108.302 Y111.496 E.02304
G1 X107.931 Y112.081 E.02529
G1 X107.447 Y112.577 E.0253
G1 X106.87 Y112.964 E.02532
G1 X106.314 Y113.197 E.02203
G1 X105.775 Y113.32 E.02015
G1 X105.082 Y113.347 E.0253
G1 X104.878 Y113.312 E.00755
G1 X104.912 Y112.86 F42000
;TYPE:Outer wall
G1 F3600
G1 X104.484 Y112.782 E.01587
G1 X103.93 Y112.555 E.02187
G1 X103.43 Y112.215 E.02203
G1 X103.017 Y111.786 E.02175
G1 X102.698 Y111.279 E.02187
G1 X102.491 Y110.716 E.02187
G1 X102.404 Y110.124 E.02185
G1 X102.44 Y109.526 E.02186
G1 X102.599 Y108.947 E.02188
G1 X102.793 Y108.545 E.0163
G1 X103.115 Y108.095 E.02017
G1 X103.433 Y107.782 E.0163
G1 X103.888 Y107.468 E.02015
G1 X104.438 Y107.232 E.02187
G1 X105.03 Y107.114 E.02203
G1 X105.626 Y107.119 E.02173
G1 X106.211 Y107.248 E.02186
G1 X106.758 Y107.494 E.02187
G1 X107.242 Y107.847 E.02185
G1 X107.643 Y108.293 E.02187
G1 X107.944 Y108.811 E.02188
G1 X108.1 Y109.26 E.01733
G1 X108.19 Y109.776 E.01913
G1 X108.175 Y110.376 E.02187
G1 X108.083 Y110.813 E.01632
G1 X107.878 Y111.326 E.02015
G1 X107.55 Y111.828 E.02186
G1 X107.126 Y112.251 E.02187
G1 X106.624 Y112.579 E.02189
G1 X106.212 Y112.752 E.0163
G1 X105.673 Y112.875 E.02015
G1 X105.074 Y112.89 E.02187
G1 X104.952 Y112.868 E.00454
;WIPE_START
G1 X104.484 Y112.782 E-.14247
G1 X103.93 Y112.555 E-.17982
G1 X103.43 Y112.215 E-.18111
G1 X103.207 Y111.984 E-.0966
;WIPE_END
G1 Z.4 F42000
G1 X106.38 Y118.092 Z.4
G1 Z.2
G1 E.6 F2400
;TYPE:Bottom surface
;WIDTH:0.502261
G1 F6300
G1 X94.614 Y106.325 E.61013
M73 P1 R26
G1 X94.614 Y106.975 E.02382
G1 X105.525 Y117.886 E.56578
G1 X104.875 Y117.886 E.02382
G1 X94.614 Y107.625 E.5321
G1 X94.614 Y108.274 E.02382
G1 X104.226 Y117.886 E.49841
G1 X103.576 Y117.886 E.02382
G1 X94.614 Y108.924 E.46473
G1 X94.614 Y109.573 E.02382
G1 X102.927 Y117.886 E.43104
G1 X102.277 Y117.886 E.02382
G1 X94.614 Y110.223 E.39736
G1 X94.614 Y110.873 E.02382
G1 X101.627 Y117.886 E.36367
G1 X100.978 Y117.886 E.02382
G1 X94.614 Y111.522 E.32999
G1 X94.614 Y112.172 E.02382
G1 X100.328 Y117.886 E.2963
G1 X99.679 Y117.886 E.02382
G1 X94.614 Y112.821 E.26262
G1 X94.614 Y113.471 E.02382
G1 X99.029 Y117.886 E.22893
G1 X98.379 Y117.886 E.02382
G1 X94.614 Y114.121 E.19525
G1 X94.614 Y114.77 E.02382
G1 X97.73 Y117.886 E.16156
G1 X97.08 Y117.886 E.02382
G1 X94.614 Y115.42 E.12788
G1 X94.614 Y116.069 E.02382
G1 X96.431 Y117.886 E.09419
G1 X95.781 Y117.886 E.02382
G1 X94.614 Y116.719 E.06051
G1 X94.614 Y117.369 E.02382
G1 X95.337 Y118.092 E.03749
;WIPE_START
G1 X94.614 Y117.369 E-.30673
G1 X94.614 Y116.719 E-.19488
G1 X94.846 Y116.951 E-.09839
;WIPE_END
G1 Z.4 F42000
G1 X115.532 Y101.908 Z.4
G1 Z.2
G1 E.6 F2400
G1 F6300
G1 X119.463 Y105.84 E.20386
G1 X119.168 Y105.704 E.01191
G1 X118.799 Y105.578 E.01429
G1 X118.479 Y105.505 E.01204
G1 X115.088 Y102.114 E.17584
G1 X114.438 Y102.114 E.02382
G1 X117.728 Y105.403 E.17056
G1 X117.269 Y105.395 E.0168
G1 X117.086 Y105.411 E.00675
G1 X113.789 Y102.114 E.17098
G1 X113.139 Y102.114 E.02382
G1 X116.528 Y105.503 E.17573
G1 X116.356 Y105.536 E.00642
G1 X116.014 Y105.639 E.01309
G1 X112.489 Y102.114 E.18278
G1 X111.84 Y102.114 E.02382
G1 X115.554 Y105.828 E.19259
G1 X115.126 Y106.05 E.01767
G1 X111.19 Y102.114 E.2041
G1 X110.541 Y102.114 E.02382
G1 X114.741 Y106.315 E.21783
M73 P1 R25
G1 X114.384 Y106.607 E.01693
G1 X109.891 Y102.114 E.23296
G1 X109.241 Y102.114 E.02382
G1 X114.068 Y106.941 E.25028
G1 X113.855 Y107.17 E.01146
G1 X113.771 Y107.294 E.00549
G1 X108.592 Y102.114 E.26857
G1 X107.942 Y102.114 E.02382
G1 X113.513 Y107.685 E.28886
G1 X113.304 Y108.125 E.01788
G1 X107.293 Y102.114 E.31171
G1 X106.643 Y102.114 E.02382
G1 X113.11 Y108.581 E.33534
G1 X112.978 Y109.099 E.01959
G1 X105.993 Y102.114 E.36218
G1 X105.344 Y102.114 E.02382
G1 X112.912 Y109.682 E.39244
G1 X112.888 Y110.028 E.01271
G1 X112.902 Y110.322 E.01079
G1 X104.694 Y102.114 E.42561
G1 X104.045 Y102.114 E.02382
G1 X113.022 Y111.091 E.4655
G1 X113.264 Y111.816 E.02801
G1 X113.426 Y112.145 E.01345
G1 X109.587 Y108.306 E.19904
G1 X109.469 Y108.027 E.01113
G1 X109.025 Y107.276 E.03198
G1 X108.556 Y106.738 E.02616
G1 X108.268 Y106.475 E.01431
G1 X107.815 Y106.139 E.02067
G1 X107.48 Y105.94 E.01428
G1 X106.999 Y105.718 E.01943
G1 X103.395 Y102.114 E.18689
G1 X102.745 Y102.114 E.02382
G1 X106.094 Y105.463 E.17366
G1 X105.662 Y105.406 E.01598
G1 X105.382 Y105.401 E.01027
G1 X102.096 Y102.114 E.17043
G1 X101.446 Y102.114 E.02382
G1 X104.755 Y105.423 E.17157
G1 X104.208 Y105.526 E.02039
G1 X100.796 Y102.114 E.17692
G1 X100.147 Y102.114 E.02382
G1 X103.711 Y105.678 E.18482
G1 X103.254 Y105.871 E.01819
G1 X99.497 Y102.114 E.19481
G1 X98.848 Y102.114 E.02382
G1 X102.841 Y106.108 E.20709
G1 X102.457 Y106.373 E.01712
G1 X98.198 Y102.114 E.22085
G1 X97.548 Y102.114 E.02382
G1 X102.109 Y106.675 E.23651
G1 X101.795 Y107.01 E.01685
G1 X96.899 Y102.114 E.25389
G1 X96.249 Y102.114 E.02382
G1 X101.519 Y107.384 E.27324
G1 X101.326 Y107.656 E.01222
G1 X101.264 Y107.779 E.00505
G1 X95.6 Y102.114 E.29374
G1 X94.95 Y102.114 E.02382
G1 X101.05 Y108.214 E.31632
G1 X100.887 Y108.701 E.01882
G1 X94.614 Y102.428 E.32529
G1 X94.614 Y103.077 E.02382
G1 X100.761 Y109.225 E.31877
G1 X100.73 Y109.402 E.0066
G1 X100.704 Y109.817 E.01526
G1 X94.614 Y103.727 E.31581
G1 X94.614 Y104.377 E.02382
