; HEADER_BLOCK_START
; generated by OrcaSlicer 2.1.0 on 2025-02-15 at 16:04:02
; total layer number: 200
; filament_density: 1.27
; filament_diameter: 1.75
; max_z_height: 40.00
; HEADER_BLOCK_END

; THUMBNAIL_BLOCK_START

;
; THUMBNAIL_BLOCK_END

; THUMBNAIL_BLOCK_START

;
; THUMBNAIL_BLOCK_END

; external perimeters extrusion width = 0.42mm
; perimeters extrusion width = 0.45mm
; infill extrusion width = 0.45mm
; solid infill extrusion width = 0.42mm
; top infill extrusion width = 0.42mm
; support material extrusion width = 0.42mm
; first layer extrusion width = 0.50mm

; external perimeters extrusion width = 0.42mm
; perimeters extrusion width = 0.45mm
; infill extrusion width = 0.45mm
; solid infill extrusion width = 0.42mm
; top infill extrusion width = 0.42mm
; support material extrusion width = 0.42mm
; first layer extrusion width = 0.50mm

; EXECUTABLE_BLOCK_START
EXCLUDE_OBJECT_DEFINE NAME=Уголок_обрезан.stp_id_0_copy_0 CENTER=138.209,184.35 POLYGON=[[128.209,173.35],[148.209,173.35],[148.209,193.35],[141.356,195.35],[135.356,195.35],[128.209,193.35],[128.209,173.35]]
EXCLUDE_OBJECT_DEFINE NAME=Уголок_обрезан.stp_id_1_copy_0 CENTER=85.9339,181.726 POLYGON=[[75.9339,170.726],[95.9339,170.726],[95.9339,190.726],[89.0808,192.726],[83.0808,192.726],[75.9339,190.726],[75.9339,170.726]]
M73 P0 R40
M106 S0
M106 P2 S0
;TYPE:Custom
M140 S0
M104 S0 
START_PRINT EXTRUDER_TEMP=250 BED_TEMP=80
G90
G21
M83 ; use relative distances for extrusion
; filament start gcode
M106 S0
M106 P2 S0
;LAYER_CHANGE
;Z:0.2
;HEIGHT:0.2
;BEFORE_LAYER_CHANGE
;0.2
G92 E0

G1 E-.6 F2400
;_SET_FAN_SPEED_CHANGING_LAYER
SET_VELOCITY_LIMIT ACCEL=500 ACCEL_TO_DECEL=250
SET_VELOCITY_LIMIT SQUARE_CORNER_VELOCITY=9
EXCLUDE_OBJECT_START NAME=Уголок_обрезан.stp_id_0_copy_0
G1 Z.2 F42000
G1 X146.437 Y191.579
G1 Z.2
G1 E.6 F2400
;TYPE:Inner wall
;WIDTH:0.499999
G1 F3600
G1 X141.889 Y191.579 E.16597
G1 X140.866 Y191.61 E.03731
G1 X140.811 Y191.679 E.00321
G1 X135.901 Y191.679 E.17912
G1 X135.846 Y191.611 E.0032
G1 X135.527 Y191.579 E.01169
G1 X129.98 Y191.579 E.20239
G1 X129.98 Y175.121 E.60047
G1 X146.437 Y175.121 E.60047
M73 P0 R39
G1 X146.437 Y191.539 E.59901
G1 X146.895 Y192.036 F42000
G1 F3600
G1 X141.008 Y192.049 E.21479
G1 X140.894 Y192.136 E.00521
G1 X135.818 Y192.136 E.18521
G1 X135.755 Y192.059 E.00363
G1 X135.527 Y192.036 E.00835
G1 X129.523 Y192.036 E.21907
G1 X129.523 Y174.664 E.63382
G1 X146.895 Y174.664 E.63382
G1 X146.895 Y191.996 E.63236
G1 X147.352 Y192.493 F42000
G1 F3600
G1 X141.889 Y192.493 E.19932
G1 X141.078 Y192.501 E.02957
G1 X140.977 Y192.593 E.00498
G1 X135.734 Y192.593 E.1913
G1 X135.664 Y192.507 E.00406
G1 X135.527 Y192.493 E.00501
G1 X129.066 Y192.493 E.23575
G1 X129.066 Y174.207 E.66718
G1 X147.352 Y174.207 E.66718
G1 X147.352 Y192.453 E.66572
G1 X147.809 Y192.95 F42000
;TYPE:Outer wall
G1 F3600
G1 X141.171 Y192.95 E.24218
G1 X141.061 Y193.05 E.00543
G1 X135.651 Y193.05 E.19739
G1 X135.573 Y192.954 E.0045
G1 X135.527 Y192.95 E.00167
G1 X128.609 Y192.95 E.25242
G1 X128.609 Y173.75 E.70053
G1 X147.809 Y173.75 E.70053
G1 X147.809 Y192.91 E.69907
;WIPE_START
G1 X145.809 Y192.922 E-.6
;WIPE_END
G1 Z.4 F42000
G1 X137.152 Y177.75 Z.4
G1 Z.2
G1 E.6 F2400
;TYPE:Inner wall
G1 F3600
G1 X137.738 Y177.614 E.02193
G1 X138.374 Y177.585 E.02325
G1 X139.168 Y177.709 E.02932
G1 X139.776 Y177.923 E.0235
G1 X140.272 Y178.196 E.02067
G1 X140.892 Y178.709 E.02937
G1 X141.425 Y179.391 E.03158
G1 X141.6 Y179.714 E.01339
G1 X141.884 Y180.53 E.03151
G1 X141.979 Y181.267 E.02712
G1 X141.942 Y181.875 E.02223
G1 X141.81 Y182.448 E.02146
G1 X141.576 Y183.041 E.02326
G1 X141.139 Y183.715 E.0293
G1 X140.523 Y184.32 E.03152
G1 X139.99 Y184.671 E.02327
G1 X139.245 Y184.97 E.02931
G1 X138.619 Y185.096 E.02328
G1 X138.043 Y185.115 E.02104
G1 X137.249 Y184.991 E.02931
G1 X136.647 Y184.78 E.02326
G1 X136.004 Y184.398 E.02728
G1 X135.474 Y183.943 E.02551
G1 X135.113 Y183.5 E.02084
G1 X134.731 Y182.794 E.02929
G1 X134.494 Y181.963 E.03154
G1 X134.452 Y181.598 E.01339
G1 X134.494 Y180.736 E.03148
G1 X134.705 Y179.961 E.02931
G1 X134.981 Y179.409 E.02252
G1 X135.279 Y178.985 E.0189
G1 X135.895 Y178.379 E.03153
G1 X136.428 Y178.029 E.02328
G1 X136.955 Y177.796 E.02103
G1 X137.113 Y177.759 E.00592
G1 X137.262 Y178.189 F42000
G1 F3600
G1 X137.825 Y178.063 E.02104
G1 X138.374 Y178.042 E.02007
G1 X139.081 Y178.158 E.02614
G1 X139.604 Y178.346 E.02029
G1 X140.213 Y178.717 E.02602
G1 X140.589 Y179.051 E.01832
G1 X141.051 Y179.654 E.02774
G1 X141.362 Y180.347 E.0277
G1 X141.508 Y181.092 E.02771
G1 X141.508 Y181.642 E.02008
G1 X141.365 Y182.344 E.02613
G1 X141.159 Y182.854 E.02008
G1 X140.765 Y183.452 E.02612
G1 X140.219 Y183.979 E.0277
G1 X139.757 Y184.278 E.02008
G1 X139.09 Y184.54 E.02613
G1 X138.549 Y184.644 E.02009
G1 X138.043 Y184.658 E.01849
G1 X137.336 Y184.542 E.02613
G1 X136.818 Y184.356 E.02008
G1 X136.253 Y184.015 E.0241
G1 X135.791 Y183.614 E.0223
G1 X135.477 Y183.223 E.0183
G1 X135.141 Y182.591 E.02611
G1 X134.939 Y181.859 E.02772
G1 X134.909 Y181.101 E.02768
G1 X135.052 Y180.356 E.02769
G1 X135.258 Y179.845 E.02007
G1 X135.652 Y179.248 E.02611
G1 X136.199 Y178.721 E.02771
G1 X136.661 Y178.421 E.0201
G1 X137.126 Y178.22 E.01848
G1 X137.223 Y178.198 E.00363
G1 X137.284 Y178.658 F42000
G1 F3600
G1 X137.422 Y178.607 E.00537
G1 X137.924 Y178.509 E.01864
G1 X138.505 Y178.511 E.02119
G1 X139.121 Y178.644 E.023
G1 X139.526 Y178.816 E.01606
G1 X139.91 Y179.059 E.01656
G1 X140.285 Y179.392 E.01832
G1 X140.677 Y179.918 E.02391
G1 X140.938 Y180.518 E.02388
G1 X141.056 Y181.162 E.0239
G1 X141.041 Y181.717 E.02026
G1 X140.92 Y182.24 E.01959
G1 X140.678 Y182.781 E.02164
G1 X140.286 Y183.306 E.02388
G1 X139.842 Y183.694 E.02151
G1 X139.405 Y183.941 E.01834
G1 X138.906 Y184.119 E.01931
G1 X138.375 Y184.201 E.01961
G1 X137.912 Y184.188 E.01688
G1 X137.411 Y184.091 E.01862
G1 X136.873 Y183.872 E.02121
G1 X136.351 Y183.519 E.02299
G1 X136.039 Y183.207 E.01608
G1 X135.772 Y182.835 E.01672
G1 X135.497 Y182.24 E.02391
G1 X135.384 Y181.755 E.01819
G1 X135.366 Y181.101 E.02387
G1 X135.497 Y180.46 E.02388
G1 X135.735 Y179.925 E.02133
G1 X136.026 Y179.511 E.01848
G1 X136.503 Y179.062 E.0239
G1 X136.989 Y178.768 E.02072
G1 X137.247 Y178.672 E.01004
G1 X137.44 Y179.082 F42000
;TYPE:Outer wall
G1 F3600
G1 X137.51 Y179.055 E.00273
G1 X138.003 Y178.959 E.01834
G1 X138.418 Y178.96 E.01514
G1 X138.95 Y179.068 E.0198
G1 X139.293 Y179.209 E.01354
G1 X139.606 Y179.4 E.0134
G1 X139.981 Y179.734 E.01832
G1 X140.303 Y180.181 E.02008
G1 X140.515 Y180.689 E.02007
G1 X140.605 Y181.232 E.02009
G1 X140.589 Y181.651 E.01529
G1 X140.461 Y182.177 E.01978
G1 X140.304 Y182.518 E.0137
G1 X139.982 Y182.965 E.02007
G1 X139.586 Y183.315 E.01929
G1 X139.25 Y183.511 E.01419
G1 X138.771 Y183.683 E.01856
G1 X138.375 Y183.744 E.01462
G1 X137.999 Y183.739 E.0137
G1 X137.506 Y183.644 E.01833
G1 X137.121 Y183.488 E.01515
G1 X136.668 Y183.19 E.01978
G1 X136.403 Y182.93 E.01355
G1 X136.181 Y182.632 E.01355
G1 X135.942 Y182.136 E.02009
G1 X135.829 Y181.651 E.01819
G1 X135.823 Y181.101 E.02006
G1 X135.942 Y180.564 E.02007
G1 X136.114 Y180.181 E.01529
G1 X136.435 Y179.735 E.02007
G1 X136.843 Y179.377 E.01978
G1 X137.16 Y179.192 E.01341
G1 X137.403 Y179.097 E.00951
;WIPE_START
G1 X137.51 Y179.055 E-.03445
G1 X138.003 Y178.959 E-.15079
G1 X138.418 Y178.96 E-.12446
G1 X138.95 Y179.068 E-.16276
G1 X139.293 Y179.209 E-.1113
G1 X139.339 Y179.237 E-.01624
;WIPE_END
G1 Z.4 F42000
G1 X140.569 Y178.245 Z.4
G1 Z.2
G1 E.6 F2400
;TYPE:Bottom surface
;WIDTH:0.501945
G1 F6300
G1 X137.788 Y175.464 E.14409
G1 X137.139 Y175.464 E.02379
G1 X139.003 Y177.328 E.09657
G1 X138.739 Y177.276 E.00985
G1 X138.268 Y177.242 E.01729
G1 X136.49 Y175.464 E.09214
G1 X135.841 Y175.464 E.02379
G1 X137.657 Y177.281 E.09415
G1 X137.119 Y177.391 E.02015
G1 X135.191 Y175.464 E.09986
G1 X134.542 Y175.464 E.02379
G1 X136.639 Y177.561 E.10867
G1 X136.196 Y177.767 E.0179
G1 X133.893 Y175.464 E.11936
G1 X133.244 Y175.464 E.02379
G1 X135.803 Y178.023 E.13261
G1 X135.449 Y178.318 E.01689
G1 X132.595 Y175.464 E.14789
G1 X131.946 Y175.464 E.02379
G1 X135.126 Y178.644 E.16478
G1 X135.002 Y178.783 E.00681
G1 X134.842 Y179.01 E.01017
G1 X131.296 Y175.464 E.18374
G1 X130.647 Y175.464 E.02379
G1 X134.59 Y179.407 E.20431
G1 X134.383 Y179.848 E.01788
G1 X130.323 Y175.789 E.21037
G1 X130.323 Y176.438 E.02379
G1 X134.233 Y180.348 E.2026
G1 X134.158 Y180.665 E.01194
G1 X134.132 Y180.896 E.00852
G1 X130.323 Y177.087 E.19738
G1 X130.323 Y177.736 E.02379
G1 X134.109 Y181.522 E.19619
G1 X134.137 Y181.932 E.01506
G1 X134.217 Y182.279 E.01305
G1 X130.323 Y178.385 E.20179
G1 X130.323 Y179.034 E.02379
G1 X142.524 Y191.236 E.63226
G1 X141.875 Y191.236 E.02379
G1 X130.323 Y179.683 E.59863
G1 X130.323 Y180.333 E.02379
G1 X141.226 Y191.236 E.56499
G1 X140.762 Y191.278 E.01705
G1 X140.715 Y191.336 E.00276
G1 X140.677 Y191.336 E.0014
G1 X130.323 Y180.982 E.53653
G1 X130.323 Y181.631 E.02379
G1 X140.028 Y191.336 E.50289
G1 X139.378 Y191.336 E.02379
G1 X130.323 Y182.28 E.46925
G1 X130.323 Y182.929 E.02379
G1 X138.729 Y191.336 E.43561
G1 X138.08 Y191.336 E.02379
G1 X130.323 Y183.578 E.40198
G1 X130.323 Y184.228 E.02379
G1 X137.431 Y191.336 E.36834
G1 X136.782 Y191.336 E.02379
G1 X130.323 Y184.877 E.3347
G1 X130.323 Y185.526 E.02379
G1 X136.133 Y191.336 E.30106
G1 X135.997 Y191.336 E.00495
G1 X135.95 Y191.278 E.00274
G1 X135.383 Y191.236 E.02082
G1 X130.323 Y186.175 E.26224
G1 X130.323 Y186.824 E.02379
G1 X134.734 Y191.236 E.2286
G1 X134.085 Y191.236 E.02379
G1 X130.323 Y187.473 E.19496
G1 X130.323 Y188.123 E.02379
G1 X133.436 Y191.236 E.16132
G1 X132.787 Y191.236 E.02379
G1 X130.323 Y188.772 E.12769
G1 X130.323 Y189.421 E.02379
G1 X132.138 Y191.236 E.09405
G1 X131.489 Y191.236 E.02379
G1 X130.323 Y190.07 E.06041
G1 X130.323 Y190.719 E.02379
G1 X131.045 Y191.441 E.03743
;WIPE_START
G1 X130.323 Y190.719 E-.30644
G1 X130.323 Y190.07 E-.19475
G1 X130.556 Y190.303 E-.09881
;WIPE_END
G1 Z.4 F42000
G1 X136.997 Y185.059 Z.4
G1 Z.2
G1 E.6 F2400
G1 F6300
G1 X143.173 Y191.236 E.32007
G1 X143.823 Y191.236 E.02379
G1 X138.044 Y185.458 E.29941
G1 X138.671 Y185.435 E.02297
G1 X144.472 Y191.236 E.30059
G1 X145.121 Y191.236 E.02379
G1 X139.217 Y185.332 E.30591
G1 X139.701 Y185.167 E.01874
G1 X145.77 Y191.236 E.31446
G1 X146.095 Y191.236 E.0119
G1 X146.095 Y190.911 E.01189
G1 X140.148 Y184.964 E.30816
G1 X140.554 Y184.721 E.01734
G1 X146.095 Y190.262 E.28713
G1 X146.095 Y189.613 E.02379
G1 X140.913 Y184.431 E.2685
G1 X141.128 Y184.24 E.01054
G1 X141.242 Y184.111 E.00631
G1 X146.095 Y188.964 E.25144
G1 X146.095 Y188.315 E.02379
G1 X141.532 Y183.752 E.23644
G1 X141.789 Y183.36 E.01718
G1 X146.095 Y187.665 E.22313
G1 X146.095 Y187.016 E.02379
G1 X142.004 Y182.926 E.21197
G1 X142.164 Y182.437 E.01885
G1 X146.095 Y186.367 E.20366
G1 X146.095 Y185.718 E.02379
G1 X142.283 Y181.906 E.19753
G1 X142.32 Y181.295 E.02244
G1 X146.095 Y185.069 E.19558
M73 P1 R39
G1 X146.095 Y184.42 E.02379
G1 X142.235 Y180.56 E.19999
G1 X142.107 Y180.054 E.01915
G1 X141.923 Y179.599 E.01795
G1 X146.095 Y183.771 E.21615
G1 X146.095 Y183.121 E.02379
G1 X138.437 Y175.464 E.3968
G1 X139.086 Y175.464 E.02379
G1 X146.095 Y182.472 E.36316
G1 X146.095 Y181.823 E.02379
G1 X139.736 Y175.464 E.32952
G1 X140.385 Y175.464 E.02379
G1 X146.095 Y181.174 E.29589
G1 X146.095 Y180.525 E.02379
G1 X141.034 Y175.464 E.26225
G1 X141.683 Y175.464 E.02379
G1 X146.095 Y179.876 E.22861
G1 X146.095 Y179.226 E.02379
G1 X142.332 Y175.464 E.19497
G1 X142.981 Y175.464 E.02379
G1 X146.095 Y178.577 E.16133
G1 X146.095 Y177.928 E.02379
G1 X143.63 Y175.464 E.12769
G1 X144.28 Y175.464 E.02379
G1 X146.095 Y177.279 E.09405
G1 X146.095 Y176.63 E.02379
G1 X144.929 Y175.464 E.06041
G1 X145.578 Y175.464 E.02379
G1 X146.3 Y176.186 E.03743
;WIPE_START
G1 X145.578 Y175.464 E-.30649
G1 X144.929 Y175.464 E-.19475
G1 X145.162 Y175.697 E-.09876
;WIPE_END
EXCLUDE_OBJECT_END NAME=Уголок_обрезан.stp_id_0_copy_0
EXCLUDE_OBJECT_START NAME=Уголок_обрезан.stp_id_1_copy_0
G1 Z.4 F42000
G1 X94.163 Y188.955 Z.4
G1 Z.2
G1 E.6 F2400
;TYPE:Inner wall
;WIDTH:0.499999
G1 F3600
G1 X89.614 Y188.955 E.16597
G1 X88.592 Y188.987 E.03731
G1 X88.536 Y189.055 E.00321
G1 X83.627 Y189.055 E.17912
G1 X83.571 Y188.987 E.0032
G1 X83.252 Y188.955 E.01169
G1 X77.705 Y188.955 E.20239
G1 X77.705 Y172.497 E.60047
G1 X94.163 Y172.497 E.60047
G1 X94.163 Y188.915 E.59901
G1 X94.62 Y189.412 F42000
G1 F3600
G1 X88.733 Y189.426 E.21479
G1 X88.619 Y189.512 E.00521
G1 X83.543 Y189.512 E.18521
G1 X83.48 Y189.435 E.00363
G1 X83.252 Y189.412 E.00835
G1 X77.248 Y189.412 E.21907
G1 X77.248 Y172.04 E.63382
G1 X94.62 Y172.04 E.63382
G1 X94.62 Y189.372 E.63236
G1 X95.077 Y189.869 F42000
G1 F3600
G1 X89.614 Y189.869 E.19932
G1 X88.803 Y189.877 E.02957
G1 X88.703 Y189.969 E.00498
G1 X83.459 Y189.969 E.1913
G1 X83.389 Y189.883 E.00406
G1 X83.252 Y189.869 E.00501
G1 X76.791 Y189.869 E.23575
G1 X76.791 Y171.583 E.66718
G1 X95.077 Y171.583 E.66718
G1 X95.077 Y189.829 E.66572
G1 X95.534 Y190.326 F42000
;TYPE:Outer wall
G1 F3600
G1 X88.896 Y190.326 E.24218
G1 X88.786 Y190.426 E.00543
G1 X83.376 Y190.426 E.19739
G1 X83.298 Y190.331 E.0045
G1 X83.252 Y190.326 E.00167
G1 X76.334 Y190.326 E.25242
G1 X76.334 Y171.126 E.70053
G1 X95.534 Y171.126 E.70053
G1 X95.534 Y190.286 E.69907
;WIPE_START
G1 X93.534 Y190.298 E-.6
;WIPE_END
G1 Z.4 F42000
G1 X84.877 Y175.126 Z.4
G1 Z.2
G1 E.6 F2400
;TYPE:Inner wall
G1 F3600
G1 X85.463 Y174.99 E.02193
G1 X86.099 Y174.961 E.02325
G1 X86.893 Y175.085 E.02932
G1 X87.501 Y175.299 E.0235
G1 X87.997 Y175.572 E.02067
G1 X88.618 Y176.085 E.02937
G1 X89.15 Y176.768 E.03158
G1 X89.325 Y177.09 E.01339
G1 X89.609 Y177.906 E.03151
G1 X89.704 Y178.643 E.02712
G1 X89.667 Y179.251 E.02223
G1 X89.535 Y179.824 E.02146
G1 X89.302 Y180.418 E.02326
G1 X88.864 Y181.091 E.0293
G1 X88.248 Y181.696 E.03152
G1 X87.715 Y182.047 E.02327
G1 X86.97 Y182.346 E.02931
G1 X86.344 Y182.472 E.02328
G1 X85.768 Y182.491 E.02104
G1 X84.974 Y182.367 E.02931
G1 X84.373 Y182.156 E.02326
G1 X83.73 Y181.775 E.02728
G1 X83.199 Y181.319 E.02551
G1 X82.839 Y180.876 E.02084
G1 X82.457 Y180.17 E.02929
G1 X82.219 Y179.339 E.03154
G1 X82.177 Y178.975 E.01339
G1 X82.219 Y178.113 E.03148
G1 X82.43 Y177.338 E.02931
G1 X82.706 Y176.785 E.02252
G1 X83.004 Y176.361 E.0189
G1 X83.62 Y175.756 E.03153
G1 X84.153 Y175.405 E.02328
G1 X84.68 Y175.172 E.02103
G1 X84.838 Y175.135 E.00592
G1 X84.987 Y175.565 F42000
G1 F3600
G1 X85.55 Y175.439 E.02104
G1 X86.1 Y175.418 E.02007
G1 X86.806 Y175.534 E.02614
G1 X87.33 Y175.723 E.02029
G1 X87.939 Y176.093 E.02602
G1 X88.314 Y176.427 E.01832
G1 X88.776 Y177.031 E.02774
G1 X89.088 Y177.723 E.0277
G1 X89.233 Y178.468 E.02771
G1 X89.233 Y179.019 E.02008
G1 X89.09 Y179.72 E.02613
G1 X88.885 Y180.231 E.02008
G1 X88.49 Y180.828 E.02612
G1 X87.944 Y181.355 E.0277
G1 X87.482 Y181.654 E.02008
G1 X86.815 Y181.916 E.02613
G1 X86.275 Y182.021 E.02009
G1 X85.768 Y182.034 E.01849
G1 X85.061 Y181.918 E.02613
G1 X84.544 Y181.732 E.02008
G1 X83.978 Y181.391 E.0241
G1 X83.517 Y180.99 E.0223
G1 X83.202 Y180.599 E.0183
G1 X82.866 Y179.967 E.02611
G1 X82.664 Y179.235 E.02772
G1 X82.634 Y178.477 E.02768
G1 X82.777 Y177.732 E.02769
G1 X82.983 Y177.222 E.02007
G1 X83.378 Y176.624 E.02611
G1 X83.924 Y176.097 E.02771
G1 X84.386 Y175.798 E.0201
G1 X84.851 Y175.596 E.01848
G1 X84.948 Y175.574 E.00363
G1 X85.01 Y176.034 F42000
G1 F3600
G1 X85.148 Y175.983 E.00537
G1 X85.649 Y175.886 E.01864
G1 X86.23 Y175.888 E.02119
G1 X86.846 Y176.02 E.023
G1 X87.251 Y176.193 E.01606
G1 X87.635 Y176.435 E.01656
G1 X88.01 Y176.768 E.01832
G1 X88.402 Y177.294 E.02391
G1 X88.664 Y177.894 E.02388
G1 X88.781 Y178.538 E.0239
G1 X88.767 Y179.093 E.02026
G1 X88.645 Y179.616 E.01959
G1 X88.403 Y180.158 E.02164
G1 X88.012 Y180.682 E.02388
G1 X87.568 Y181.07 E.02151
G1 X87.13 Y181.317 E.01834
G1 X86.631 Y181.496 E.01931
G1 X86.1 Y181.577 E.01961
G1 X85.638 Y181.564 E.01688
G1 X85.137 Y181.467 E.01862
G1 X84.598 Y181.248 E.02121
G1 X84.076 Y180.895 E.02299
G1 X83.765 Y180.583 E.01608
G1 X83.497 Y180.211 E.01672
G1 X83.222 Y179.616 E.02391
G1 X83.109 Y179.131 E.01819
