; HEADER_BLOCK_START
; generated by OrcaSlicer 2.1.0 on 2025-02-15 at 16:01:38
; total layer number: 200
; filament_density: 1.27
; filament_diameter: 1.75
; max_z_height: 40.00
; HEADER_BLOCK_END

; THUMBNAIL_BLOCK_START

;
; THUMBNAIL_BLOCK_END

; THUMBNAIL_BLOCK_START

;
; THUMBNAIL_BLOCK_END

; external perimeters extrusion width = 0.42mm
; perimeters extrusion width = 0.45mm
; infill extrusion width = 0.45mm
; solid infill extrusion width = 0.42mm
; top infill extrusion width = 0.42mm
; support material extrusion width = 0.42mm
; first layer extrusion width = 0.50mm

; EXECUTABLE_BLOCK_START
EXCLUDE_OBJECT_DEFINE NAME=Уголок_обрезан.stp_id_0_copy_0 CENTER=103.135,170.216 POLYGON=[[93.1346,159.216],[113.135,159.216],[113.135,179.216],[106.281,181.216],[100.281,181.216],[93.1346,179.216],[93.1346,159.216]]
M73 P0 R30
M106 S0
M106 P2 S0
;TYPE:Custom
M140 S0
M104 S0 
START_PRINT EXTRUDER_TEMP=250 BED_TEMP=80
G90
G21
M83 ; use relative distances for extrusion
; filament start gcode
M106 S0
M106 P2 S0
;LAYER_CHANGE
;Z:0.2
;HEIGHT:0.2
;BEFORE_LAYER_CHANGE
;0.2
G92 E0

G1 E-.6 F2400
;_SET_FAN_SPEED_CHANGING_LAYER
SET_VELOCITY_LIMIT ACCEL=500 ACCEL_TO_DECEL=250
SET_VELOCITY_LIMIT SQUARE_CORNER_VELOCITY=9
EXCLUDE_OBJECT_START NAME=Уголок_обрезан.stp_id_0_copy_0
G1 Z.2 F42000
G1 X111.363 Y177.444
G1 Z.2
G1 E.6 F2400
;TYPE:Inner wall
;WIDTH:0.499999
G1 F3600
G1 X106.814 Y177.444 E.16597
G1 X105.792 Y177.476 E.03731
G1 X105.737 Y177.544 E.00321
G1 X100.827 Y177.544 E.17912
G1 X100.772 Y177.477 E.0032
G1 X100.453 Y177.444 E.01169
G1 X94.906 Y177.444 E.20239
G1 X94.906 Y160.987 E.60047
G1 X111.363 Y160.987 E.60047
G1 X111.363 Y177.404 E.59901
G1 X111.82 Y177.901 F42000
G1 F3600
G1 X105.934 Y177.915 E.21479
G1 X105.82 Y178.001 E.00521
G1 X100.744 Y178.001 E.18521
G1 X100.681 Y177.924 E.00363
G1 X100.453 Y177.901 E.00835
G1 X94.449 Y177.901 E.21907
G1 X94.449 Y160.53 E.63382
G1 X111.82 Y160.53 E.63382
G1 X111.82 Y177.861 E.63236
G1 X112.278 Y178.359 F42000
G1 F3600
G1 X106.814 Y178.359 E.19932
G1 X106.004 Y178.367 E.02957
G1 X105.903 Y178.459 E.00498
G1 X100.66 Y178.459 E.1913
G1 X100.59 Y178.372 E.00406
G1 X100.453 Y178.359 E.00501
G1 X93.992 Y178.359 E.23575
G1 X93.992 Y160.073 E.66718
G1 X112.278 Y160.073 E.66718
G1 X112.278 Y178.319 E.66572
G1 X112.735 Y178.816 F42000
;TYPE:Outer wall
G1 F3600
G1 X106.097 Y178.816 E.24218
G1 X105.987 Y178.916 E.00543
G1 X100.576 Y178.916 E.19739
G1 X100.498 Y178.82 E.0045
G1 X100.453 Y178.816 E.00167
G1 X93.535 Y178.816 E.25242
G1 X93.535 Y159.616 E.70053
G1 X112.735 Y159.616 E.70053
G1 X112.735 Y178.776 E.69907
;WIPE_START
G1 X110.735 Y178.788 E-.6
;WIPE_END
G1 Z.4 F42000
G1 X102.078 Y163.616 Z.4
G1 Z.2
G1 E.6 F2400
;TYPE:Inner wall
G1 F3600
G1 X102.664 Y163.48 E.02193
G1 X103.3 Y163.451 E.02325
G1 X104.094 Y163.575 E.02932
G1 X104.702 Y163.788 E.0235
G1 X105.198 Y164.062 E.02067
G1 X105.818 Y164.575 E.02937
G1 X106.35 Y165.257 E.03158
G1 X106.526 Y165.58 E.01339
G1 X106.809 Y166.395 E.03151
G1 X106.904 Y167.132 E.02712
G1 X106.868 Y167.741 E.02223
G1 X106.736 Y168.314 E.02146
G1 X106.502 Y168.907 E.02326
G1 X106.065 Y169.58 E.0293
G1 X105.449 Y170.186 E.03152
G1 X104.916 Y170.537 E.02327
G1 X104.17 Y170.836 E.02931
G1 X103.545 Y170.962 E.02328
G1 X102.969 Y170.981 E.02104
G1 X102.175 Y170.857 E.02931
G1 X101.573 Y170.646 E.02326
G1 X100.93 Y170.264 E.02728
G1 X100.4 Y169.809 E.02551
G1 X100.039 Y169.366 E.02084
G1 X99.657 Y168.66 E.02929
G1 X99.42 Y167.829 E.03154
G1 X99.377 Y167.464 E.01339
G1 X99.42 Y166.602 E.03148
G1 X99.631 Y165.827 E.02931
G1 X99.907 Y165.275 E.02252
G1 X100.204 Y164.851 E.0189
G1 X100.821 Y164.245 E.03153
G1 X101.354 Y163.894 E.02328
G1 X101.881 Y163.662 E.02103
G1 X102.039 Y163.625 E.00592
G1 X102.188 Y164.055 F42000
G1 F3600
G1 X102.751 Y163.929 E.02104
G1 X103.3 Y163.908 E.02007
G1 X104.007 Y164.023 E.02614
G1 X104.53 Y164.212 E.02029
G1 X105.139 Y164.583 E.02602
G1 X105.515 Y164.916 E.01832
G1 X105.977 Y165.52 E.02774
G1 X106.288 Y166.212 E.0277
G1 X106.434 Y166.958 E.02771
G1 X106.434 Y167.508 E.02008
G1 X106.291 Y168.21 E.02613
G1 X106.085 Y168.72 E.02008
G1 X105.691 Y169.317 E.02612
G1 X105.145 Y169.845 E.0277
G1 X104.683 Y170.144 E.02008
G1 X104.016 Y170.406 E.02613
G1 X103.475 Y170.51 E.02009
G1 X102.969 Y170.524 E.01849
G1 X102.262 Y170.408 E.02613
G1 X101.744 Y170.222 E.02008
G1 X101.179 Y169.881 E.0241
G1 X100.717 Y169.48 E.0223
G1 X100.403 Y169.089 E.0183
G1 X100.067 Y168.457 E.02611
G1 X99.865 Y167.724 E.02772
G1 X99.835 Y166.966 E.02768
G1 X99.978 Y166.221 E.02769
G1 X100.184 Y165.711 E.02007
G1 X100.578 Y165.114 E.02611
G1 X101.125 Y164.586 E.02771
G1 X101.587 Y164.287 E.0201
G1 X102.052 Y164.086 E.01848
G1 X102.149 Y164.064 E.00363
G1 X102.21 Y164.524 F42000
G1 F3600
G1 X102.348 Y164.472 E.00537
G1 X102.85 Y164.375 E.01864
G1 X103.431 Y164.377 E.02119
G1 X104.047 Y164.51 E.023
G1 X104.452 Y164.682 E.01606
G1 X104.836 Y164.925 E.01656
G1 X105.211 Y165.258 E.01832
G1 X105.603 Y165.783 E.02391
G1 X105.864 Y166.383 E.02388
G1 X105.982 Y167.028 E.0239
G1 X105.967 Y167.583 E.02026
G1 X105.846 Y168.106 E.01959
G1 X105.603 Y168.647 E.02164
G1 X105.212 Y169.172 E.02388
G1 X104.768 Y169.56 E.02151
G1 X104.33 Y169.807 E.01834
G1 X103.832 Y169.985 E.01931
G1 X103.301 Y170.067 E.01961
G1 X102.838 Y170.054 E.01688
G1 X102.337 Y169.957 E.01862
G1 X101.799 Y169.738 E.02121
G1 X101.277 Y169.384 E.02299
G1 X100.965 Y169.073 E.01608
G1 X100.698 Y168.701 E.01672
G1 X100.423 Y168.106 E.02391
G1 X100.31 Y167.62 E.01819
G1 X100.292 Y166.967 E.02387
G1 X100.423 Y166.325 E.02388
G1 X100.661 Y165.791 E.02133
G1 X100.952 Y165.377 E.01848
G1 X101.429 Y164.928 E.0239
G1 X101.915 Y164.634 E.02072
G1 X102.173 Y164.538 E.01004
G1 X102.366 Y164.948 F42000
;TYPE:Outer wall
G1 F3600
G1 X102.435 Y164.921 E.00273
G1 X102.929 Y164.825 E.01834
G1 X103.344 Y164.826 E.01514
G1 X103.876 Y164.933 E.0198
G1 X104.218 Y165.075 E.01354
G1 X104.532 Y165.266 E.0134
G1 X104.907 Y165.6 E.01832
G1 X105.229 Y166.046 E.02008
G1 X105.44 Y166.554 E.02007
G1 X105.53 Y167.098 E.02009
G1 X105.514 Y167.516 E.01529
G1 X105.387 Y168.043 E.01978
G1 X105.23 Y168.384 E.0137
G1 X104.908 Y168.831 E.02007
G1 X104.512 Y169.181 E.01929
G1 X104.176 Y169.377 E.01419
G1 X103.697 Y169.548 E.01856
G1 X103.301 Y169.609 E.01462
G1 X102.925 Y169.605 E.0137
G1 X102.432 Y169.51 E.01833
G1 X102.047 Y169.354 E.01515
G1 X101.594 Y169.056 E.01978
G1 X101.329 Y168.796 E.01355
G1 X101.107 Y168.498 E.01355
G1 X100.868 Y168.002 E.02009
G1 X100.755 Y167.516 E.01819
G1 X100.749 Y166.967 E.02006
G1 X100.868 Y166.43 E.02007
G1 X101.04 Y166.047 E.01529
G1 X101.361 Y165.601 E.02007
G1 X101.768 Y165.243 E.01978
G1 X102.086 Y165.057 E.01341
G1 X102.328 Y164.963 E.00951
;WIPE_START
G1 X102.435 Y164.921 E-.03445
G1 X102.929 Y164.825 E-.15079
G1 X103.344 Y164.826 E-.12446
G1 X103.876 Y164.933 E-.16276
G1 X104.218 Y165.075 E-.1113
G1 X104.265 Y165.103 E-.01624
;WIPE_END
G1 Z.4 F42000
G1 X105.495 Y164.11 Z.4
G1 Z.2
G1 E.6 F2400
;TYPE:Bottom surface
;WIDTH:0.501945
G1 F6300
G1 X102.714 Y161.33 E.14409
G1 X102.065 Y161.33 E.02379
G1 X103.928 Y163.193 E.09657
G1 X103.664 Y163.142 E.00985
G1 X103.194 Y163.108 E.01729
G1 X101.416 Y161.33 E.09214
G1 X100.766 Y161.33 E.02379
G1 X102.583 Y163.147 E.09415
G1 X102.044 Y163.257 E.02015
G1 X100.117 Y161.33 E.09986
G1 X99.468 Y161.33 E.02379
G1 X101.565 Y163.427 E.10867
G1 X101.122 Y163.633 E.0179
G1 X98.819 Y161.33 E.11936
G1 X98.17 Y161.33 E.02379
G1 X100.729 Y163.889 E.13261
G1 X100.375 Y164.184 E.01689
G1 X97.521 Y161.33 E.14789
G1 X96.871 Y161.33 E.02379
G1 X100.051 Y164.51 E.16478
G1 X99.928 Y164.648 E.00681
G1 X99.768 Y164.876 E.01017
G1 X96.222 Y161.33 E.18374
G1 X95.573 Y161.33 E.02379
G1 X99.516 Y165.272 E.20431
G1 X99.308 Y165.714 E.01788
G1 X95.249 Y161.654 E.21037
G1 X95.249 Y162.304 E.02379
G1 X99.158 Y166.213 E.2026
G1 X99.084 Y166.531 E.01194
G1 X99.058 Y166.762 E.00852
G1 X95.249 Y162.953 E.19738
G1 X95.249 Y163.602 E.02379
G1 X99.035 Y167.388 E.19619
G1 X99.063 Y167.798 E.01506
G1 X99.143 Y168.145 E.01305
G1 X95.249 Y164.251 E.20179
G1 X95.249 Y164.9 E.02379
G1 X107.45 Y177.102 E.63226
G1 X106.801 Y177.102 E.02379
G1 X95.249 Y165.549 E.59863
G1 X95.249 Y166.198 E.02379
G1 X106.152 Y177.102 E.56499
G1 X105.688 Y177.143 E.01705
G1 X105.641 Y177.202 E.00276
G1 X105.603 Y177.202 E.0014
G1 X95.249 Y166.848 E.53653
G1 X95.249 Y167.497 E.02379
G1 X104.953 Y177.202 E.50289
G1 X104.304 Y177.202 E.02379
G1 X95.249 Y168.146 E.46925
G1 X95.249 Y168.795 E.02379
G1 X103.655 Y177.202 E.43561
G1 X103.006 Y177.202 E.02379
G1 X95.249 Y169.444 E.40198
G1 X95.249 Y170.093 E.02379
G1 X102.357 Y177.202 E.36834
G1 X101.708 Y177.202 E.02379
G1 X95.249 Y170.743 E.3347
G1 X95.249 Y171.392 E.02379
G1 X101.059 Y177.202 E.30106
M73 P1 R30
G1 X100.923 Y177.202 E.00495
G1 X100.876 Y177.144 E.00274
G1 X100.309 Y177.102 E.02082
G1 X95.249 Y172.041 E.26224
G1 X95.249 Y172.69 E.02379
G1 X99.66 Y177.102 E.2286
G1 X99.011 Y177.102 E.02379
G1 X95.249 Y173.339 E.19496
G1 X95.249 Y173.988 E.02379
G1 X98.362 Y177.102 E.16132
G1 X97.713 Y177.102 E.02379
G1 X95.249 Y174.638 E.12769
G1 X95.249 Y175.287 E.02379
G1 X97.064 Y177.102 E.09405
G1 X96.414 Y177.102 E.02379
G1 X95.249 Y175.936 E.06041
G1 X95.249 Y176.585 E.02379
G1 X95.971 Y177.307 E.03743
;WIPE_START
G1 X95.249 Y176.585 E-.30644
G1 X95.249 Y175.936 E-.19475
G1 X95.482 Y176.169 E-.09881
;WIPE_END
G1 Z.4 F42000
G1 X101.923 Y170.925 Z.4
G1 Z.2
G1 E.6 F2400
G1 F6300
G1 X108.099 Y177.102 E.32007
M73 P1 R29
G1 X108.748 Y177.102 E.02379
G1 X102.97 Y171.324 E.29941
G1 X103.597 Y171.301 E.02297
G1 X109.398 Y177.102 E.30059
G1 X110.047 Y177.102 E.02379
G1 X104.143 Y171.198 E.30591
G1 X104.627 Y171.033 E.01874
G1 X110.696 Y177.102 E.31446
G1 X111.021 Y177.102 E.0119
G1 X111.021 Y176.777 E.01189
G1 X105.074 Y170.83 E.30816
G1 X105.48 Y170.587 E.01734
G1 X111.021 Y176.128 E.28713
G1 X111.021 Y175.479 E.02379
G1 X105.839 Y170.297 E.2685
G1 X106.054 Y170.106 E.01054
G1 X106.168 Y169.977 E.00631
G1 X111.021 Y174.83 E.25144
G1 X111.021 Y174.18 E.02379
G1 X106.458 Y169.618 E.23644
G1 X106.715 Y169.225 E.01718
G1 X111.021 Y173.531 E.22313
G1 X111.021 Y172.882 E.02379
G1 X106.93 Y168.791 E.21197
G1 X107.09 Y168.303 E.01885
G1 X111.021 Y172.233 E.20366
G1 X111.021 Y171.584 E.02379
G1 X107.209 Y167.772 E.19753
G1 X107.246 Y167.16 E.02244
G1 X111.021 Y170.935 E.19558
G1 X111.021 Y170.286 E.02379
G1 X107.161 Y166.426 E.19999
G1 X107.033 Y165.919 E.01915
G1 X106.849 Y165.465 E.01795
G1 X111.021 Y169.636 E.21615
G1 X111.021 Y168.987 E.02379
G1 X103.363 Y161.33 E.3968
G1 X104.012 Y161.33 E.02379
G1 X111.021 Y168.338 E.36316
G1 X111.021 Y167.689 E.02379
G1 X104.661 Y161.33 E.32952
G1 X105.311 Y161.33 E.02379
G1 X111.021 Y167.04 E.29589
G1 X111.021 Y166.391 E.02379
G1 X105.96 Y161.33 E.26225
G1 X106.609 Y161.33 E.02379
G1 X111.021 Y165.741 E.22861
G1 X111.021 Y165.092 E.02379
G1 X107.258 Y161.33 E.19497
G1 X107.907 Y161.33 E.02379
G1 X111.021 Y164.443 E.16133
G1 X111.021 Y163.794 E.02379
G1 X108.556 Y161.33 E.12769
G1 X109.205 Y161.33 E.02379
G1 X111.021 Y163.145 E.09405
G1 X111.021 Y162.496 E.02379
G1 X109.855 Y161.33 E.06041
G1 X110.504 Y161.33 E.02379
G1 X111.226 Y162.052 E.03743
;LAYER_CHANGE
;Z:0.4
;HEIGHT:0.2
;BEFORE_LAYER_CHANGE
;0.4
G92 E0

;WIPE_START
G1 F6300
G1 X110.504 Y161.33 E-.30649
G1 X109.855 Y161.33 E-.19475
G1 X110.087 Y161.562 E-.09876
;WIPE_END
EXCLUDE_OBJECT_END NAME=Уголок_обрезан.stp_id_0_copy_0
;_SET_FAN_SPEED_CHANGING_LAYER
SET_VELOCITY_LIMIT ACCEL=12000 ACCEL_TO_DECEL=6000
M140 S80 ; set bed temperature
SET_VELOCITY_LIMIT SQUARE_CORNER_VELOCITY=12
EXCLUDE_OBJECT_START NAME=Уголок_обрезан.stp_id_0_copy_0
G1 Z.4 F42000
G1 X111.718 Y177.799 Z.4
G1 E.6 F2400
SET_VELOCITY_LIMIT ACCEL=5000 ACCEL_TO_DECEL=2500 SQUARE_CORNER_VELOCITY=7
;TYPE:Inner wall
;WIDTH:0.449999
G1 F7838
G1 X106.26 Y177.799 E.17737
G1 X105.852 Y177.86 E.01341
G1 X105.505 Y178.021 E.01242
G1 X105.463 Y178.099 E.00289
G1 X101.101 Y178.099 E.14172
G1 X101.059 Y178.022 E.00286
G1 X100.759 Y177.876 E.01084
G1 X100.303 Y177.799 E.01504
G1 X94.551 Y177.799 E.18691
G1 X94.551 Y160.632 E.55786
G1 X111.718 Y160.632 E.55786
G1 X111.718 Y177.759 E.55656
SET_VELOCITY_LIMIT ACCEL=12000 ACCEL_TO_DECEL=6000 SQUARE_CORNER_VELOCITY=12
G1 X112.125 Y178.206 F42000
SET_VELOCITY_LIMIT ACCEL=5000 ACCEL_TO_DECEL=2500 SQUARE_CORNER_VELOCITY=7
G1 F7838
G1 X106.105 Y178.219 E.19565
G1 X105.726 Y178.364 E.01319
G1 X105.648 Y178.506 E.00529
G1 X100.916 Y178.506 E.15375
G1 X100.838 Y178.364 E.00526
G1 X100.634 Y178.264 E.00739
G1 X100.303 Y178.206 E.01093
G1 X94.144 Y178.206 E.20014
G1 X94.144 Y160.225 E.58431
G1 X112.125 Y160.225 E.58431
G1 X112.125 Y178.166 E.58301
SET_VELOCITY_LIMIT ACCEL=12000 ACCEL_TO_DECEL=6000 SQUARE_CORNER_VELOCITY=12
G1 X112.533 Y178.614 F42000
SET_VELOCITY_LIMIT ACCEL=5000 ACCEL_TO_DECEL=2500 SQUARE_CORNER_VELOCITY=7
G1 F7838
G1 X106.169 Y178.621 E.20679
G1 X105.946 Y178.706 E.00775
G1 X105.833 Y178.914 E.00769
G1 X100.731 Y178.914 E.16578
G1 X100.618 Y178.706 E.00767
G1 X100.498 Y178.647 E.00435
G1 X100.303 Y178.614 E.00642
G1 X93.737 Y178.614 E.21337
G1 X93.737 Y159.818 E.61077
G1 X112.533 Y159.818 E.61077
G1 X112.533 Y178.574 E.60947
SET_VELOCITY_LIMIT ACCEL=12000 ACCEL_TO_DECEL=6000 SQUARE_CORNER_VELOCITY=12
G1 X112.925 Y179.006 F42000
SET_VELOCITY_LIMIT ACCEL=5000 ACCEL_TO_DECEL=2500 SQUARE_CORNER_VELOCITY=7
;TYPE:Outer wall
;WIDTH:0.419999
G1 F7838
G1 X112.295 Y179.006 E.01896
G1 X106.829 Y179.013 E.16453
G1 X106.205 Y179.014 E.01878
G1 X106.071 Y179.194 E.00675
G1 F3857.059
G1 X106.071 Y179.306 E.00337
G1 X105.241 Y179.306 E.02498
G1 X101.321 Y179.306 E.11799
G1 X100.491 Y179.306 E.02498
M106 S0
G1 X100.491 Y179.194 E.00337
G1 F7838
G1 X100.405 Y179.036 E.00541
G1 X100.303 Y179.006 E.0032
G1 X99.674 Y179.006 E.01893
G1 X93.975 Y179.006 E.17154
G1 X93.345 Y179.006 E.01896
G1 X93.345 Y178.376 E.01896
G1 X93.345 Y160.056 E.55143
G1 X93.345 Y159.426 E.01896
G1 X93.975 Y159.426 E.01896
G1 X112.295 Y159.426 E.55143
G1 X112.925 Y159.426 E.01896
G1 X112.925 Y160.056 E.01896
G1 X112.925 Y178.336 E.55023
G1 X112.925 Y178.966 E.01896
SET_VELOCITY_LIMIT ACCEL=12000 ACCEL_TO_DECEL=6000 SQUARE_CORNER_VELOCITY=12
G1 E-.2 F2400
;WIPE_START
G1 F12000
G1 X110.925 Y178.98 E-.4
;WIPE_END
G1 Z.6 F42000
G1 X102.078 Y163.98 Z.6
G1 Z.4
G1 E.6 F2400
SET_VELOCITY_LIMIT ACCEL=5000 ACCEL_TO_DECEL=2500 SQUARE_CORNER_VELOCITY=7
;TYPE:Inner wall
;WIDTH:0.449999
G1 F7838
G1 X102.259 Y163.919 E.00622
G1 X102.979 Y163.805 E.02368
G1 X103.555 Y163.831 E.01873
G1 X104.315 Y164.016 E.02541
G1 X104.97 Y164.337 E.0237
G1 X105.426 Y164.689 E.01873
G1 X105.947 Y165.287 E.02578
G1 X106.263 Y165.866 E.02143
G1 X106.395 Y166.215 E.01212
G1 X106.537 Y166.93 E.02368
G1 X106.528 Y167.534 E.01962
G1 X106.407 Y168.164 E.02085
G1 X106.183 Y168.752 E.02046
G1 X105.785 Y169.363 E.0237
G1 X105.226 Y169.91 E.02541
G1 X104.917 Y170.119 E.01212
G1 X104.363 Y170.393 E.02008
G1 X104.012 Y170.512 E.01203
G1 X103.307 Y170.625 E.02321
G1 X102.726 Y170.603 E.01889
G1 X102.129 Y170.48 E.01981
G1 X101.479 Y170.198 E.02303
G1 X100.882 Y169.78 E.02368
G1 X100.484 Y169.363 E.01873
G1 X100.065 Y168.703 E.02541
G1 X99.812 Y167.993 E.0245
G1 X99.729 Y167.299 E.02271
G1 X99.745 Y166.873 E.01383
G1 X99.863 Y166.267 E.02005
G1 X100.094 Y165.664 E.02101
G1 X100.486 Y165.066 E.02323
G1 X101.043 Y164.521 E.02532
G1 X101.352 Y164.312 E.01212
G1 X101.906 Y164.038 E.02008
G1 X102.04 Y163.993 E.0046
SET_VELOCITY_LIMIT ACCEL=12000 ACCEL_TO_DECEL=6000 SQUARE_CORNER_VELOCITY=12
G1 X102.273 Y164.357 F42000
SET_VELOCITY_LIMIT ACCEL=5000 ACCEL_TO_DECEL=2500 SQUARE_CORNER_VELOCITY=7
G1 F7838
G1 X102.791 Y164.23 E.01734
G1 X103.29 Y164.212 E.0162
G1 X103.933 Y164.319 E.02117
G1 X104.571 Y164.576 E.02238
G1 X104.989 Y164.848 E.01621
G1 X105.454 Y165.305 E.02116
G1 X105.61 Y165.518 E.00858
G1 X105.905 Y166.061 E.02008
G1 X106.104 Y166.758 E.02357
G1 X106.142 Y167.293 E.01741
G1 X106.007 Y168.086 E.02616
G1 X105.812 Y168.586 E.01743
G1 X105.452 Y169.129 E.02117
G1 X104.955 Y169.606 E.02238
G1 X104.736 Y169.754 E.00858
G1 X104.182 Y170.028 E.02008
