; HEADER_BLOCK_START
; generated by OrcaSlicer 2.1.0 on 2024-10-22 at 19:01:43
; total layer number: 122
; filament_density: 1.27
; filament_diameter: 1.75
; max_z_height: 19.00
; HEADER_BLOCK_END

; THUMBNAIL_BLOCK_START

;
; THUMBNAIL_BLOCK_END

; THUMBNAIL_BLOCK_START

;
; THUMBNAIL_BLOCK_END

; external perimeters extrusion width = 0.42mm
; perimeters extrusion width = 0.45mm
; infill extrusion width = 0.45mm
; solid infill extrusion width = 0.42mm
; top infill extrusion width = 0.42mm
; support material extrusion width = 0.42mm
; first layer extrusion width = 0.50mm

; EXECUTABLE_BLOCK_START
EXCLUDE_OBJECT_DEFINE NAME=упор_под_мотор_2.stp_id_0_copy_0 CENTER=110,110 POLYGON=[[89.6167,98.5],[91.5167,87.5],[94.5167,87.5],[118.26,95.4862],[118.297,95.4992],[118.696,95.6433],[118.733,95.6571],[119.128,95.8115],[119.164,95.8262],[119.556,95.9909],[119.591,96.0063],[119.979,96.1812],[120.014,96.1974],[120.397,96.3823],[120.431,96.3992],[120.81,96.5942],[120.843,96.6118],[121.217,96.8166],[121.249,96.8349],[121.618,97.0494],[121.65,97.0683],[122.013,97.2925],[122.044,97.312],[122.402,97.5457],[122.432,97.5658],[122.784,97.8088],[122.813,97.8295],[123.159,98.0817],[123.187,98.1029],[123.527,98.3642],[123.554,98.3858],[123.887,98.656],[123.914,98.6782],[124.24,98.9571],[124.266,98.9796],[124.585,99.2671],[124.61,99.2901],[124.922,99.5859],[124.946,99.6093],[125.251,99.9133],[125.274,99.937],[125.571,100.249],[125.593,100.273],[125.882,100.593],[125.904,100.617],[126.185,100.945],[126.205,100.969],[126.478,101.304],[126.497,101.329],[126.762,101.671],[126.78,101.696],[127.036,102.045],[127.054,102.07],[127.3,102.426],[127.318,102.452],[127.555,102.814],[127.571,102.839],[127.8,103.208],[127.815,103.234],[128.034,103.608],[128.048,103.634],[128.258,104.015],[128.272,104.04],[128.471,104.427],[128.484,104.452],[128.674,104.844],[128.686,104.87],[128.866,105.266],[128.877,105.292],[129.047,105.693],[129.057,105.719],[129.217,106.125],[129.226,106.15],[129.375,106.561],[129.384,106.586],[129.523,107.001],[129.531,107.026],[129.659,107.444],[129.666,107.469],[129.783,107.891],[129.79,107.916],[129.896,108.341],[129.902,108.366],[129.998,108.793],[130.003,108.818],[130.087,109.249],[130.092,109.273],[130.165,109.706],[130.169,109.73],[130.231,110.165],[130.234,110.189],[130.285,110.626],[130.288,110.649],[130.328,111.088],[130.33,111.111],[130.358,111.55],[130.359,111.573],[130.377,112.014],[130.377,112.037],[130.383,112.478],[130.383,112.5],[130.378,112.942],[130.377,112.963],[130.361,113.405],[130.359,113.427],[130.331,113.868],[130.33,113.889],[130.29,114.33],[130.288,114.351],[130.237,114.791],[130.234,114.811],[130.172,115.25],[130.169,115.27],[130.095,115.708],[130.092,115.727],[130.007,116.163],[130.003,116.182],[129.906,116.616],[129.902,116.634],[129.795,117.066],[129.79,117.084],[129.671,117.513],[129.666,117.531],[129.536,117.957],[129.531,117.974],[129.39,118.397],[129.384,118.414],[129.232,118.834],[129.226,118.85],[129.063,119.266],[129.057,119.281],[128.884,119.693],[128.877,119.708],[128.693,120.116],[128.686,120.13],[128.491,120.534],[128.484,120.548],[128.279,120.946],[128.272,120.96],[128.056,121.353],[128.048,121.366],[127.822,121.754],[127.815,121.766],[127.579,122.149],[127.571,122.161],[127.325,122.537],[127.318,122.548],[127.062,122.919],[127.054,122.93],[126.788,123.293],[126.78,123.304],[126.505,123.661],[126.497,123.671],[126.213,124.021],[126.205,124.031],[125.912,124.374],[125.904,124.383],[125.601,124.718],[125.593,124.727],[125.282,125.055],[125.274,125.063],[124.954,125.383],[124.946,125.391],[124.618,125.703],[124.61,125.71],[124.274,126.014],[124.266,126.02],[123.922,126.316],[123.914,126.322],[123.562,126.608],[123.554,126.614],[123.194,126.892],[123.187,126.897],[122.82,127.165],[122.813,127.171],[122.439,127.43],[122.432,127.434],[122.051,127.684],[122.044,127.688],[121.656,127.928],[121.65,127.932],[121.256,128.162],[121.249,128.165],[120.849,128.385],[120.843,128.388],[120.437,128.598],[120.431,128.601],[120.019,128.8],[120.014,128.803],[119.597,128.991],[119.591,128.994],[119.169,129.172],[119.164,129.174],[118.738,129.341],[118.733,129.343],[118.302,129.499],[118.297,129.501],[117.862,129.646],[117.857,129.647],[117.418,129.782],[117.414,129.783],[116.971,129.906],[116.967,129.906],[116.521,130.018],[116.518,130.019],[116.068,130.119],[116.065,130.119],[115.613,130.208],[115.61,130.208],[115.156,130.285],[115.153,130.286],[114.696,130.351],[114.694,130.351],[114.236,130.404],[114.234,130.405],[91.5167,132.5],[89.6167,132.5],[89.6167,98.5]]
M73 P0 R19
M106 S0
M106 P2 S0
;TYPE:Custom
M140 S0
M104 S0 
START_PRINT EXTRUDER_TEMP=250 BED_TEMP=80
G90
G21
M83 ; use relative distances for extrusion
; filament start gcode
M106 S0
M106 P2 S0
;LAYER_CHANGE
;Z:0.2
;HEIGHT:0.2
;BEFORE_LAYER_CHANGE
;0.2
G92 E0

G1 E-.6 F2400
;_SET_FAN_SPEED_CHANGING_LAYER
SET_VELOCITY_LIMIT ACCEL=500 ACCEL_TO_DECEL=250
SET_VELOCITY_LIMIT SQUARE_CORNER_VELOCITY=9
EXCLUDE_OBJECT_START NAME=упор_под_мотор_2.stp_id_0_copy_0
G1 Z.2 F42000
G1 X97.676 Y98.553
G1 Z.2
G1 E.6 F2400
;TYPE:Support
;WIDTH:0.5
G1 F3600
G1 X100.053 Y98.553 E.08673
G1 X100.053 Y98.912 E.01309
G1 X99.243 Y99.691 E.041
G1 X98.601 Y100.385 E.03448
G1 X97.993 Y101.114 E.03464
G1 X97.426 Y101.87 E.03448
G1 X96.898 Y102.654 E.0345
G1 X96.412 Y103.464 E.03448
G1 X95.968 Y104.298 E.03448
G1 X95.762 Y104.724 E.01724
G1 X95.387 Y105.584 E.03423
G1 X95.051 Y106.474 E.03472
G1 X94.764 Y107.374 E.03448
G1 X94.638 Y107.829 E.01724
G1 X94.422 Y108.744 E.03431
G1 X94.252 Y109.679 E.03464
G1 X94.13 Y110.616 E.03448
G1 X94.058 Y111.553 E.03431
G1 X94.039 Y112.025 E.01724
G1 X94.039 Y112.975 E.03464
G1 X94.088 Y113.918 E.03448
G1 X94.185 Y114.854 E.03431
G1 X94.252 Y115.326 E.01741
G1 X94.422 Y116.255 E.03447
G1 X94.639 Y117.175 E.03447
G1 X94.903 Y118.082 E.03447
G1 X95.214 Y118.975 E.03448
G1 X95.568 Y119.846 E.03431
G1 X95.968 Y120.701 E.03447
G1 X96.412 Y121.536 E.03448
G1 X96.652 Y121.948 E.0174
G1 X97.16 Y122.745 E.03447
G1 X97.705 Y123.512 E.03433
G1 X98.291 Y124.253 E.03447
G1 X98.915 Y124.963 E.03448
G1 X99.574 Y125.639 E.03447
G1 X100.053 Y126.088 E.02395
G1 X100.053 Y126.201 E.00412
G1 X95.299 Y126.201 E.17346
G1 X95.299 Y135.709 E.34692
G1 X86.668 Y135.709 E.31491
G1 X86.668 Y96.176 E1.44241
G1 X89.045 Y96.176 E.08673
G1 X89.045 Y84.291 E.43365
G1 X97.676 Y84.291 E.31491
G1 X97.676 Y98.485 E.51788
G1 X99.393 Y98.965 F42000
G1 F3600
G1 X98.944 Y99.409 E.02308
G1 X98.288 Y100.119 E.03526
G1 X97.669 Y100.86 E.03523
G1 X97.089 Y101.633 E.03525
G1 X96.55 Y102.435 E.03527
G1 X96.053 Y103.264 E.03526
G1 X95.603 Y104.108 E.0349
G1 X95.19 Y104.992 E.0356
G1 X94.826 Y105.887 E.03525
G1 X94.509 Y106.799 E.03524
G1 X94.239 Y107.727 E.03526
G1 X94.018 Y108.667 E.03524
G1 X93.845 Y109.618 E.03525
G1 X93.722 Y110.566 E.03489
G1 X93.647 Y111.539 E.0356
G1 X93.622 Y112.495 E.0349
G1 X93.647 Y113.461 E.03526
G1 X93.721 Y114.424 E.03523
G1 X93.845 Y115.382 E.03526
G1 X93.928 Y115.874 E.01822
G1 X94.125 Y116.814 E.03501
G1 X94.371 Y117.748 E.03525
G1 X94.665 Y118.668 E.03525
G1 X95.006 Y119.572 E.03526
G1 X95.389 Y120.448 E.03488
G1 X95.82 Y121.313 E.03525
G1 X96.296 Y122.153 E.03525
G1 X96.814 Y122.969 E.03525
G1 X97.374 Y123.757 E.03527
G1 X97.973 Y124.514 E.03525
G1 X98.611 Y125.24 E.03525
G1 X99.142 Y125.79 E.02788
G1 X94.888 Y125.79 E.15524
G1 X94.888 Y135.298 E.34692
G1 X87.079 Y135.298 E.28489
G1 X87.079 Y96.588 E1.41239
G1 X89.456 Y96.588 E.08673
G1 X89.456 Y84.702 E.43365
G1 X97.265 Y84.702 E.28489
G1 X97.265 Y98.965 E.52038
G1 X99.393 Y98.965 E.07767
G1 X98.172 Y99.472 F42000
G1 F3600
G1 X97.581 Y100.163 E.03316
G1 X96.966 Y100.941 E.03621
G1 X96.391 Y101.751 E.03621
G1 X95.867 Y102.574 E.0356
G1 X95.378 Y103.437 E.0362
G1 X95.143 Y103.893 E.01872
G1 X94.723 Y104.792 E.03619
G1 X94.356 Y105.695 E.0356
G1 X94.181 Y106.177 E.0187
G1 X93.879 Y107.123 E.03622
G1 X93.627 Y108.082 E.03618
G1 X93.428 Y109.038 E.03563
G1 X93.275 Y110.018 E.0362
G1 X93.215 Y110.527 E.0187
G1 X93.139 Y111.516 E.03619
G1 X93.114 Y112.492 E.03562
G1 X93.139 Y113.484 E.03622
G1 X93.215 Y114.473 E.03617
G1 X93.342 Y115.457 E.03622
G1 X93.429 Y115.969 E.01893
G1 X93.631 Y116.933 E.03596
G1 X93.879 Y117.877 E.0356
G1 X94.029 Y118.367 E.01869
G1 X94.355 Y119.304 E.03622
G1 X94.723 Y120.209 E.03562
G1 X95.143 Y121.107 E.03618
G1 X95.378 Y121.563 E.01872
G1 X95.867 Y122.426 E.03619
G1 X96.4 Y123.263 E.0362
G1 X96.966 Y124.059 E.03563
G1 X97.581 Y124.837 E.0362
G1 X97.962 Y125.282 E.02134
G1 X94.38 Y125.282 E.1307
G1 X94.38 Y134.79 E.34692
G1 X87.587 Y134.79 E.24783
G1 X87.587 Y97.095 E1.37533
G1 X89.964 Y97.095 E.08673
G1 X89.964 Y85.21 E.43365
M73 P0 R18
G1 X96.757 Y85.21 E.24783
G1 X96.757 Y99.472 E.52038
G1 X98.172 Y99.472 E.05165
G1 X97.065 Y99.98 F42000
G1 F3600
G1 X96.557 Y100.639 E.03035
G1 X95.981 Y101.451 E.03632
G1 X95.69 Y101.896 E.01939
G1 X95.166 Y102.769 E.03718
G1 X94.698 Y103.649 E.03634
G1 X94.466 Y104.127 E.01939
G1 X94.061 Y105.054 E.03691
G1 X93.708 Y105.992 E.03656
G1 X93.539 Y106.497 E.01942
G1 X93.261 Y107.453 E.03634
G1 X93.027 Y108.443 E.03713
G1 X92.925 Y108.966 E.01945
G1 X92.771 Y109.95 E.03632
G1 X92.666 Y110.963 E.03717
G1 X92.632 Y111.493 E.01938
G1 X92.606 Y112.489 E.03634
G1 X92.613 Y113.02 E.01941
G1 X92.666 Y114.037 E.03715
G1 X92.768 Y115.028 E.03633
G1 X92.844 Y115.555 E.01944
G1 X93.027 Y116.556 E.03714
G1 X93.255 Y117.525 E.03632
G1 X93.397 Y118.038 E.01941
G1 X93.7 Y118.986 E.03632
G1 X93.881 Y119.486 E.01941
G1 X94.257 Y120.409 E.03635
G1 X94.687 Y121.331 E.03712
G1 X94.932 Y121.804 E.01944
G1 X95.422 Y122.671 E.03632
G1 X95.968 Y123.53 E.03715
G1 X96.271 Y123.969 E.01946
G1 X96.875 Y124.774 E.03673
G1 X93.872 Y124.774 E.10959
G1 X93.872 Y134.282 E.34692
G1 X88.095 Y134.282 E.21077
G1 X88.095 Y97.603 E1.33827
M73 P1 R18
G1 X90.472 Y97.603 E.08673
G1 X90.472 Y85.718 E.43365
G1 X96.249 Y85.718 E.21077
G1 X96.249 Y99.98 E.52038
G1 X97.065 Y99.98 E.02978
G1 X96.029 Y100.488 F42000
G1 F3600
G1 X95.545 Y101.189 E.03108
G1 X95 Y102.045 E.03702
G1 X94.722 Y102.522 E.02014
G1 X94.245 Y103.419 E.03706
G1 X94.005 Y103.915 E.0201
G1 X93.601 Y104.839 E.0368
G1 X93.397 Y105.359 E.02038
G1 X93.064 Y106.317 E.03703
G1 X92.902 Y106.846 E.02016
G1 X92.644 Y107.826 E.037
G1 X92.524 Y108.365 E.02011
G1 X92.342 Y109.364 E.03707
G1 X92.264 Y109.91 E.02013
G1 X92.16 Y110.921 E.03706
G1 X92.125 Y111.47 E.02008
G1 X92.098 Y112.485 E.03706
G1 X92.105 Y113.037 E.02012
G1 X92.158 Y114.05 E.03703
G1 X92.207 Y114.599 E.02012
G1 X92.338 Y115.607 E.03708
G1 X92.431 Y116.157 E.02035
G1 X92.644 Y117.173 E.03786
G1 X92.902 Y118.154 E.03703
G1 X93.063 Y118.682 E.02011
G1 X93.397 Y119.641 E.03707
G1 X93.598 Y120.156 E.02016
G1 X94.005 Y121.085 E.03702
G1 X94.245 Y121.581 E.0201
G1 X94.722 Y122.478 E.03706
G1 X95 Y122.954 E.02013
G1 X95.545 Y123.811 E.03704
G1 X95.859 Y124.266 E.02018
G1 X93.364 Y124.266 E.09103
G1 X93.364 Y133.774 E.34692
G1 X88.603 Y133.774 E.17371
G1 X88.603 Y98.111 E1.30121
G1 X90.98 Y98.111 E.08673
G1 X90.98 Y86.226 E.43365
G1 X95.741 Y86.226 E.17371
G1 X95.741 Y100.488 E.52038
G1 X96.029 Y100.488 E.0105
G1 X95.233 Y100.746 F42000
G1 F3600
G1 X94.548 Y101.812 E.04624
G1 X94.038 Y102.712 E.03774
G1 X93.776 Y103.221 E.0209
G1 X93.338 Y104.157 E.03771
G1 X93.118 Y104.677 E.02059
G1 X92.921 Y105.183 E.0198
G1 X92.581 Y106.16 E.03774
G1 X92.271 Y107.223 E.0404
G1 X92.034 Y108.229 E.03771
G1 X91.924 Y108.791 E.0209
G1 X91.765 Y109.813 E.03774
G1 X91.699 Y110.38 E.02084
G1 X91.619 Y111.411 E.03773
G1 X91.597 Y111.983 E.02088
G1 X91.597 Y113.017 E.03774
G1 X91.619 Y113.589 E.02088
G1 X91.699 Y114.619 E.0377
G1 X91.765 Y115.187 E.02087
G1 X91.925 Y116.216 E.038
G1 X92.034 Y116.77 E.0206
G1 X92.15 Y117.292 E.01951
G1 X92.414 Y118.293 E.03775
G1 X92.58 Y118.839 E.02083
G1 X92.921 Y119.817 E.03779
G1 X93.129 Y120.35 E.02088
G1 X93.543 Y121.298 E.03773
G1 X93.792 Y121.811 E.02081
G1 X94.278 Y122.725 E.03779
G1 X94.9 Y123.758 E.04398
G1 X92.856 Y123.758 E.07456
G1 X92.856 Y133.266 E.34692
G1 X89.111 Y133.266 E.13665
G1 X89.111 Y98.619 E1.26415
G1 X91.488 Y98.619 E.08673
G1 X91.488 Y86.734 E.43365
G1 X95.233 Y86.734 E.13665
G1 X95.233 Y100.746 E.51125
G1 X94.725 Y100.586 F42000
G1 F3600
G1 X94.399 Y101.086 E.02177
G1 X93.856 Y101.991 E.03851
G1 X93.32 Y102.997 E.0416
G1 X92.874 Y103.951 E.03842
G1 X92.647 Y104.489 E.02131
G1 X92.444 Y105.006 E.02028
G1 X92.098 Y106.002 E.03845
G1 X91.779 Y107.096 E.0416
G1 X91.538 Y108.121 E.03841
G1 X91.424 Y108.703 E.02163
G1 X91.262 Y109.744 E.03845
G1 X91.193 Y110.331 E.02156
G1 X91.112 Y111.381 E.03844
G1 X91.09 Y111.931 E.02005
G1 X91.09 Y113.069 E.04154
G1 X91.144 Y114.122 E.03845
G1 X91.198 Y114.71 E.02155
G1 X91.333 Y115.757 E.03853
G1 X91.433 Y116.345 E.02177
G1 X91.647 Y117.371 E.03823
G1 X91.779 Y117.904 E.02002
G1 X91.937 Y118.472 E.02154
G1 X92.258 Y119.477 E.03848
G1 X92.66 Y120.545 E.04162
G1 X93.082 Y121.51 E.03844
G1 X93.32 Y122.003 E.01996
G1 X93.987 Y123.25 E.05162
G1 X92.348 Y123.25 E.0598
G1 X92.348 Y132.759 E.34692
G1 X89.619 Y132.759 E.09959
G1 X89.619 Y99.127 E1.22709
G1 X91.996 Y99.127 E.08673
G1 X91.996 Y87.241 E.43365
G1 X94.725 Y87.241 E.09959
G1 X94.725 Y100.586 E.48689
G1 X90.575 Y112.88 F42000
G1 F3600
G1 X90.638 Y114.157 E.04666
G1 X90.758 Y115.324 E.0428
G1 X90.934 Y116.44 E.0412
G1 X91.152 Y117.484 E.03894
G1 X91.287 Y118.03 E.0205
G1 X91.614 Y119.154 E.04271
G1 X91.985 Y120.215 E.04101
G1 X92.191 Y120.739 E.02055
G1 X92.621 Y121.722 E.03916
G1 X93.129 Y122.742 E.04159
G1 X91.84 Y122.742 E.04703
G1 X91.84 Y132.251 E.34692
G1 X90.126 Y132.251 E.06253
G1 X90.126 Y112.889 E.70644
G1 X90.575 Y112.88 E.01636
G1 X91.024 Y118.96 F42000
G1 F3600
G1 X91.296 Y119.805 E.03236
G1 X91.511 Y120.397 E.02299
G1 X91.923 Y121.412 E.03997
G1 X92.295 Y122.235 E.03294
G1 X91.332 Y122.235 E.03512
G1 X91.332 Y131.743 E.34692
G1 X90.634 Y131.743 E.02547
G1 X90.634 Y119.018 E.46426
G1 X91.024 Y118.96 E.01437
G1 X90.575 Y112.12 F42000
M73 P2 R18
G1 F3600
G1 X90.126 Y112.111 E.01636
G1 X90.126 Y99.635 E.45522
G1 X92.503 Y99.635 E.08673
G1 X92.503 Y87.749 E.43365
G1 X94.217 Y87.749 E.06253
G1 X94.217 Y100.435 E.46284
G1 X93.699 Y101.252 E.03533
G1 X93.391 Y101.78 E.02229
G1 X93.122 Y102.272 E.02045
G1 X92.642 Y103.233 E.0392
G1 X92.39 Y103.789 E.02229
G1 X91.985 Y104.784 E.03917
G1 X91.6 Y105.891 E.04278
G1 X91.3 Y106.923 E.03922
G1 X91.152 Y107.514 E.02222
G1 X91.031 Y108.062 E.02047
G1 X90.838 Y109.12 E.03923
G1 X90.752 Y109.724 E.02228
G1 X90.642 Y110.794 E.03922
G1 X90.575 Y112.12 E.04845
G1 X91.024 Y106.04 F42000
G1 F3600
G1 X90.634 Y105.982 E.01437
G1 X90.634 Y100.143 E.21304
G1 X93.011 Y100.143 E.08673
G1 X93.011 Y88.257 E.43365
G1 X93.71 Y88.257 E.02547
G1 X93.71 Y100.283 E.43879
G1 X93.265 Y100.988 E.0304
G1 X92.948 Y101.533 E.02301
G1 X92.433 Y102.499 E.03994
G1 X92.159 Y103.065 E.02293
G1 X91.923 Y103.589 E.02097
G1 X91.511 Y104.601 E.03988
G1 X91.297 Y105.194 E.023
G1 X91.024 Y106.04 E.03242
G1 X91.503 Y103.284 F42000
G1 F3600
G1 X91.142 Y103.206 E.01346
G1 X91.142 Y100.65 E.09326
G1 X92.873 Y100.65 E.06317
G1 X92.222 Y101.8 E.0482
G1 X91.952 Y102.325 E.02155
G1 X91.503 Y103.284 E.03864
;WIPE_START
G1 X91.952 Y102.325 E-.31774
G1 X92.222 Y101.8 E-.17715
G1 X92.395 Y101.495 E-.1051
;WIPE_END
G1 Z.4 F42000
G1 X98.248 Y104.538 Z.4
G1 Z.2
G1 E.6 F2400
;TYPE:Inner wall
;WIDTH:0.499999
G1 F3600
G1 X98.465 Y104.156 E.01605
G1 X99.163 Y103.089 E.04651
G1 X99.658 Y102.429 E.03011
G1 X100.194 Y101.787 E.03049
G1 X100.761 Y101.174 E.03049
G1 X101.36 Y100.591 E.03049
G1 X101.987 Y100.039 E.03049
G1 X102.643 Y99.52 E.03049
G1 X103.326 Y99.035 E.03058
G1 X104.029 Y98.587 E.0304
G1 X104.756 Y98.176 E.03049
G1 X105.494 Y97.807 E.03011
G1 X106.668 Y97.312 E.04649
G1 X107.448 Y97.041 E.03011
G1 X108.25 Y96.807 E.03049
G1 X109.064 Y96.615 E.03049
G1 X109.875 Y96.467 E.03011
G1 X111.141 Y96.32 E.04649
G1 X111.965 Y96.277 E.03011
G1 X112.801 Y96.277 E.0305
G1 X113.636 Y96.32 E.03049
G1 X114.467 Y96.406 E.03049
G1 X115.292 Y96.535 E.03049
G1 X116.111 Y96.706 E.03049
G1 X116.919 Y96.918 E.03049
G1 X117.705 Y97.169 E.03011
