; HEADER_BLOCK_START
; generated by OrcaSlicer 2.1.0 on 2024-11-09 at 17:13:07
; total layer number: 122
; filament_density: 1.27
; filament_diameter: 1.75
; max_z_height: 19.00
; HEADER_BLOCK_END

; THUMBNAIL_BLOCK_START

;
; THUMBNAIL_BLOCK_END

; THUMBNAIL_BLOCK_START

;
; THUMBNAIL_BLOCK_END

; external perimeters extrusion width = 0.42mm
; perimeters extrusion width = 0.45mm
; infill extrusion width = 0.45mm
; solid infill extrusion width = 0.42mm
; top infill extrusion width = 0.42mm
; support material extrusion width = 0.42mm
; first layer extrusion width = 0.50mm

; EXECUTABLE_BLOCK_START
EXCLUDE_OBJECT_DEFINE NAME=упор_под_мотор_2_4_.stp_id_0_copy_0 CENTER=110,110 POLYGON=[[89.2169,98.5],[91.1169,87.5],[94.1169,87.5],[117.355,94.4838],[117.807,94.6246],[117.808,94.6251],[118.256,94.7773],[118.258,94.7778],[118.701,94.9412],[118.703,94.9418],[119.142,95.1163],[119.144,95.117],[119.579,95.3025],[119.58,95.3032],[120.01,95.4996],[120.012,95.5004],[120.437,95.7076],[120.438,95.7085],[120.858,95.9263],[120.859,95.9272],[121.273,96.1555],[121.275,96.1565],[121.683,96.3951],[121.684,96.3962],[122.086,96.645],[122.088,96.6461],[122.483,96.905],[122.485,96.9062],[122.873,97.1749],[122.875,97.1762],[123.256,97.4546],[123.258,97.4559],[123.632,97.7439],[123.634,97.7453],[124.001,98.0425],[124.003,98.044],[124.362,98.3504],[124.364,98.3519],[124.715,98.6673],[124.717,98.6689],[125.06,98.993],[125.062,98.9947],[125.397,99.3273],[125.399,99.329],[125.725,99.67],[125.727,99.6718],[126.044,100.021],[126.046,100.023],[126.355,100.38],[126.357,100.382],[126.656,100.746],[126.658,100.748],[126.948,101.12],[126.95,101.122],[127.231,101.501],[127.232,101.504],[127.503,101.89],[127.505,101.892],[127.766,102.285],[127.768,102.287],[128.019,102.686],[128.02,102.689],[128.261,103.094],[128.263,103.097],[128.494,103.508],[128.495,103.51],[128.715,103.927],[128.716,103.93],[128.926,104.352],[128.927,104.355],[129.126,104.782],[129.128,104.785],[129.316,105.217],[129.317,105.22],[129.494,105.657],[129.495,105.66],[129.661,106.101],[129.662,106.104],[129.817,106.549],[129.818,106.552],[129.961,107.001],[129.962,107.004],[130.094,107.457],[130.095,107.46],[130.216,107.915],[130.217,107.919],[130.326,108.377],[130.327,108.38],[130.424,108.841],[130.425,108.844],[130.51,109.308],[130.511,109.311],[130.585,109.776],[130.586,109.78],[130.648,110.247],[130.648,110.25],[130.699,110.718],[130.699,110.722],[130.738,111.191],[130.738,111.195],[130.765,111.665],[130.765,111.668],[130.78,112.139],[130.78,112.143],[130.783,112.613],[130.783,112.617],[130.774,113.088],[130.774,113.092],[130.753,113.562],[130.753,113.566],[130.721,114.035],[130.72,114.039],[130.676,114.508],[130.676,114.511],[130.619,114.979],[130.619,114.982],[130.551,115.448],[130.55,115.452],[130.471,115.916],[130.47,115.92],[130.379,116.381],[130.378,116.385],[130.275,116.844],[130.274,116.848],[130.159,117.304],[130.158,117.308],[130.032,117.761],[130.031,117.765],[129.894,118.215],[129.892,118.219],[129.744,118.665],[129.742,118.669],[129.583,119.112],[129.581,119.116],[129.41,119.554],[129.408,119.558],[129.227,119.991],[129.225,119.995],[129.032,120.424],[129.03,120.428],[128.827,120.852],[128.825,120.856],[128.61,121.274],[128.608,121.278],[128.384,121.691],[128.382,121.695],[128.147,122.102],[128.144,122.106],[127.899,122.507],[127.897,122.51],[127.642,122.905],[127.639,122.909],[127.374,123.297],[127.371,123.301],[127.097,123.682],[127.094,123.686],[126.81,124.06],[126.807,124.063],[126.513,124.43],[126.51,124.434],[126.208,124.793],[126.204,124.797],[125.893,125.148],[125.89,125.152],[125.569,125.495],[125.566,125.498],[125.237,125.834],[125.233,125.837],[124.896,126.164],[124.893,126.167],[124.547,126.485],[124.544,126.489],[124.19,126.798],[124.187,126.801],[123.826,127.101],[123.822,127.105],[123.453,127.396],[123.449,127.399],[123.074,127.68],[123.07,127.683],[122.687,127.955],[122.683,127.958],[122.294,128.221],[122.289,128.223],[121.894,128.476],[121.889,128.479],[121.488,128.721],[121.483,128.723],[121.075,128.955],[121.07,128.958],[120.657,129.18],[120.652,129.182],[120.233,129.393],[120.228,129.396],[119.804,129.596],[119.799,129.598],[119.37,129.788],[119.365,129.79],[118.932,129.969],[118.927,129.971],[118.489,130.139],[118.484,130.141],[118.042,130.297],[118.036,130.299],[117.591,130.444],[117.585,130.446],[117.136,130.58],[117.13,130.582],[116.678,130.704],[116.672,130.706],[116.217,130.817],[116.211,130.818],[115.754,130.918],[115.748,130.919],[115.288,131.007],[115.282,131.008],[114.819,131.085],[114.814,131.086],[114.35,131.151],[114.344,131.151],[113.878,131.204],[113.872,131.205],[113.406,131.246],[113.4,131.247],[112.932,131.276],[91.1169,132.5],[89.2169,132.5],[89.2169,98.5]]
M73 P0 R20
M106 S0
M106 P2 S0
;TYPE:Custom
M140 S0
M104 S0 
START_PRINT EXTRUDER_TEMP=250 BED_TEMP=80
G90
G21
M83 ; use relative distances for extrusion
; filament start gcode
M106 S0
M106 P2 S0
;LAYER_CHANGE
;Z:0.2
;HEIGHT:0.2
;BEFORE_LAYER_CHANGE
;0.2
G92 E0

G1 E-.6 F2400
;_SET_FAN_SPEED_CHANGING_LAYER
SET_VELOCITY_LIMIT ACCEL=500 ACCEL_TO_DECEL=250
SET_VELOCITY_LIMIT SQUARE_CORNER_VELOCITY=9
EXCLUDE_OBJECT_START NAME=упор_под_мотор_2_4_.stp_id_0_copy_0
G1 Z.2 F42000
G1 X97.676 Y96.176
G1 Z.2
G1 E.6 F2400
;TYPE:Support
;WIDTH:0.5
G1 F3600
G1 X100.053 Y96.176 E.08673
G1 X100.053 Y98.56 E.08697
G1 X99.517 Y99.035 E.02613
G1 X98.841 Y99.694 E.03447
G1 X98.199 Y100.388 E.03448
G1 X97.594 Y101.113 E.03447
G1 X97.026 Y101.869 E.03448
G1 X96.499 Y102.653 E.03448
G1 X96.013 Y103.464 E.03448
G1 X95.569 Y104.298 E.03448
G1 X95.17 Y105.15 E.03431
G1 X94.814 Y106.025 E.03448
G1 X94.502 Y106.922 E.03464
G1 X94.239 Y107.825 E.03431
G1 X94.021 Y108.749 E.03465
G1 X93.852 Y109.678 E.03448
G1 X93.731 Y110.611 E.03431
G1 X93.658 Y111.553 E.03448
G1 X93.64 Y112.03 E.01741
G1 X93.64 Y112.975 E.03448
G1 X93.688 Y113.918 E.03448
G1 X93.786 Y114.858 E.03448
G1 X93.931 Y115.792 E.03448
G1 X94.124 Y116.712 E.03431
G1 X94.239 Y117.175 E.01741
G1 X94.503 Y118.083 E.03447
G1 X94.814 Y118.975 E.03448
G1 X95.168 Y119.846 E.03431
G1 X95.365 Y120.281 E.0174
G1 X95.787 Y121.126 E.03448
G1 X96.251 Y121.945 E.03431
G1 X96.758 Y122.742 E.03448
G1 X97.305 Y123.512 E.03448
G1 X97.676 Y123.988 E.02201
G1 X97.676 Y126.201 E.08074
G1 X95.299 Y126.201 E.08673
G1 X95.299 Y135.709 E.34692
G1 X86.668 Y135.709 E.31491
G1 X86.668 Y96.176 E1.44241
G1 X89.045 Y96.176 E.08673
G1 X89.045 Y84.291 E.43365
G1 X97.676 Y84.291 E.31491
G1 X97.676 Y96.108 E.43115
G1 X99.642 Y98.37 F42000
G1 F3600
G1 X99.236 Y98.735 E.01991
G1 X98.544 Y99.409 E.03524
G1 X97.894 Y100.111 E.0349
G1 X97.276 Y100.852 E.03524
G1 X96.974 Y101.243 E.018
G1 X96.415 Y102.031 E.03525
G1 X95.897 Y102.846 E.03524
G1 X95.426 Y103.678 E.03489
G1 X94.993 Y104.542 E.03525
G1 X94.79 Y104.991 E.01798
G1 X94.43 Y105.878 E.0349
G1 X94.109 Y106.799 E.03559
G1 X93.839 Y107.727 E.03525
G1 X93.62 Y108.658 E.03489
G1 X93.525 Y109.141 E.01798
G1 X93.377 Y110.096 E.03526
G1 X93.278 Y111.047 E.03489
G1 X93.228 Y112.012 E.03525
G1 X93.228 Y112.978 E.03525
G1 X93.278 Y113.943 E.03525
G1 X93.322 Y114.434 E.01798
G1 X93.446 Y115.392 E.03526
G1 X93.62 Y116.342 E.03525
G1 X93.842 Y117.283 E.03525
G1 X94.112 Y118.21 E.03524
G1 X94.43 Y119.123 E.03526
G1 X94.794 Y120.017 E.03525
G1 X95.199 Y120.884 E.03489
G1 X95.653 Y121.737 E.03526
G1 X96.15 Y122.565 E.03525
G1 X96.695 Y123.375 E.0356
G1 X97.265 Y124.133 E.03461
G1 X97.265 Y125.79 E.06043
G1 X94.888 Y125.79 E.08673
G1 X94.888 Y135.298 E.34692
G1 X87.079 Y135.298 E.28489
G1 X87.079 Y96.588 E1.41239
G1 X89.456 Y96.588 E.08673
G1 X89.456 Y84.702 E.43365
G1 X97.265 Y84.702 E.28489
G1 X97.265 Y96.588 E.43365
G1 X99.642 Y96.588 E.08673
G1 X99.642 Y98.37 E.06505
G1 X99.134 Y98.143 F42000
G1 F3600
G1 X98.529 Y98.706 E.03017
G1 X97.848 Y99.405 E.03559
G1 X97.504 Y99.785 E.01871
G1 X96.869 Y100.547 E.03619
G1 X96.274 Y101.341 E.03621
G1 X95.729 Y102.151 E.03561
G1 X95.46 Y102.587 E.01871
G1 X94.971 Y103.451 E.03621
G1 X94.535 Y104.324 E.03562
G1 X94.137 Y105.233 E.0362
G1 X93.95 Y105.711 E.01872
G1 X93.625 Y106.648 E.03618
G1 X93.352 Y107.584 E.0356
G1 X93.228 Y108.082 E.01872
G1 X93.025 Y109.053 E.03619
G1 X92.875 Y110.018 E.03562
G1 X92.772 Y111.005 E.03621
G1 X92.721 Y111.996 E.0362
G1 X92.72 Y112.988 E.0362
G1 X92.74 Y113.5 E.01871
G1 X92.817 Y114.489 E.03618
G1 X92.945 Y115.473 E.03622
G1 X93.123 Y116.45 E.03621
G1 X93.352 Y117.415 E.0362
G1 X93.629 Y118.367 E.03618
G1 X93.956 Y119.305 E.03623
G1 X94.33 Y120.224 E.0362
G1 X94.744 Y121.108 E.03561
G1 X95.21 Y121.984 E.03622
G1 X95.72 Y122.835 E.0362
G1 X96.274 Y123.658 E.0362
G1 X96.757 Y124.306 E.02949
G1 X96.757 Y125.282 E.03559
G1 X94.38 Y125.282 E.08673
G1 X94.38 Y134.79 E.34692
G1 X87.587 Y134.79 E.24783
G1 X87.587 Y97.095 E1.37533
G1 X89.964 Y97.095 E.08673
G1 X89.964 Y85.21 E.43365
G1 X96.757 Y85.21 E.24783
G1 X96.757 Y97.095 E.43365
G1 X99.134 Y97.095 E.08673
G1 X99.134 Y98.143 E.0382
G1 X98.952 Y97.603 F42000
G1 F3600
G1 X98.172 Y98.345 E.03927
G1 X97.478 Y99.057 E.0363
G1 X97.121 Y99.453 E.01944
G1 X96.469 Y100.235 E.03714
G1 X95.871 Y101.031 E.03634
G1 X95.568 Y101.469 E.01944
G1 X95.023 Y102.329 E.03714
G1 X94.532 Y103.195 E.03632
G1 X94.288 Y103.668 E.01943
G1 X93.857 Y104.591 E.03716
G1 X93.481 Y105.514 E.03634
G1 X93.147 Y106.474 E.03712
G1 X92.862 Y107.452 E.03715
G1 X92.732 Y107.969 E.01944
G1 X92.525 Y108.965 E.03713
G1 X92.372 Y109.949 E.03635
M73 P0 R19
G1 X92.266 Y110.962 E.03716
G1 X92.213 Y111.979 E.03716
G1 X92.213 Y112.998 E.03715
G1 X92.233 Y113.53 E.01943
G1 X92.312 Y114.544 E.03712
G1 X92.444 Y115.555 E.03719
G1 X92.627 Y116.557 E.03716
G1 X92.861 Y117.548 E.03715
G1 X93.146 Y118.524 E.03713
G1 X93.482 Y119.487 E.03719
G1 X93.866 Y120.43 E.03716
G1 X94.298 Y121.352 E.03716
G1 X94.778 Y122.251 E.03718
G1 X95.302 Y123.124 E.03715
G1 X95.871 Y123.968 E.03714
G1 X96.476 Y124.774 E.03675
G1 X93.872 Y124.774 E.09502
G1 X93.872 Y134.282 E.34692
G1 X88.095 Y134.282 E.21077
G1 X88.095 Y97.603 E1.33827
G1 X90.472 Y97.603 E.08673
M73 P1 R19
G1 X90.472 Y85.718 E.43365
G1 X96.249 Y85.718 E.21077
G1 X96.249 Y97.603 E.43365
G1 X98.952 Y97.603 E.09863
G1 X97.676 Y98.111 F42000
G1 F3600
G1 X97.087 Y98.731 E.03119
G1 X96.416 Y99.495 E.0371
G1 X96.069 Y99.922 E.02007
G1 X95.459 Y100.734 E.03705
G1 X95.145 Y101.189 E.02016
G1 X94.585 Y102.07 E.03809
G1 X94.085 Y102.953 E.03704
G1 X93.832 Y103.444 E.02015
G1 X93.402 Y104.363 E.03704
G1 X93.188 Y104.872 E.02012
G1 X92.82 Y105.848 E.03806
G1 X92.514 Y106.807 E.03674
G1 X92.364 Y107.348 E.02048
G1 X92.13 Y108.336 E.03704
G1 X92.025 Y108.877 E.02012
G1 X91.865 Y109.91 E.03814
G1 X91.76 Y110.92 E.03704
G1 X91.706 Y111.963 E.03811
G1 X91.705 Y113.007 E.0381
G1 X91.726 Y113.559 E.02015
G1 X91.807 Y114.6 E.03807
G1 X91.938 Y115.607 E.03708
G1 X92.124 Y116.635 E.03811
G1 X92.364 Y117.651 E.0381
G1 X92.511 Y118.184 E.02016
G1 X92.829 Y119.178 E.03808
G1 X93.199 Y120.156 E.03815
G1 X93.618 Y121.112 E.03808
G1 X94.072 Y122.021 E.03706
G1 X94.585 Y122.93 E.03811
G1 X94.875 Y123.399 E.02013
G1 X95.459 Y124.266 E.03812
G1 X93.364 Y124.266 E.07644
G1 X93.364 Y133.774 E.34692
G1 X88.603 Y133.774 E.17371
G1 X88.603 Y98.111 E1.30121
G1 X90.98 Y98.111 E.08673
G1 X90.98 Y86.226 E.43365
G1 X95.741 Y86.226 E.17371
G1 X95.741 Y98.111 E.43365
G1 X97.676 Y98.111 E.07059
G1 X96.497 Y98.619 F42000
G1 F3600
G1 X96.005 Y99.195 E.02765
G1 X95.363 Y100.006 E.03772
G1 X95.027 Y100.466 E.02082
G1 X94.449 Y101.325 E.03775
G1 X94.148 Y101.811 E.02086
G1 X93.639 Y102.712 E.03776
G1 X93.376 Y103.22 E.02087
G1 X92.938 Y104.157 E.03776
G1 X92.716 Y104.683 E.02084
G1 X92.34 Y105.684 E.03901
G1 X92.17 Y106.193 E.01958
G1 X91.881 Y107.186 E.03774
G1 X91.742 Y107.742 E.0209
G1 X91.531 Y108.754 E.03771
G1 X91.436 Y109.318 E.02087
G1 X91.303 Y110.344 E.03777
G1 X91.251 Y110.914 E.02085
G1 X91.198 Y111.947 E.03775
G1 X91.197 Y113.017 E.03905
G1 X91.219 Y113.589 E.02087
G1 X91.303 Y114.655 E.03901
G1 X91.436 Y115.682 E.0378
G1 X91.531 Y116.245 E.02082
G1 X91.75 Y117.292 E.03904
G1 X92.014 Y118.295 E.03783
G1 X92.18 Y118.839 E.02076
G1 X92.534 Y119.851 E.03912
G1 X92.923 Y120.81 E.03776
G1 X93.376 Y121.78 E.03907
G1 X93.639 Y122.288 E.02086
G1 X94.148 Y123.189 E.03775
G1 X94.5 Y123.758 E.02441
G1 X92.856 Y123.758 E.05997
G1 X92.856 Y133.266 E.34692
G1 X89.111 Y133.266 E.13665
G1 X89.111 Y98.619 E1.26415
G1 X91.488 Y98.619 E.08673
G1 X91.488 Y86.734 E.43365
G1 X95.233 Y86.734 E.13665
G1 X95.233 Y98.619 E.43365
G1 X96.497 Y98.619 E.04613
G1 X95.399 Y99.127 F42000
G1 F3600
G1 X94.611 Y100.175 E.04785
G1 X94.022 Y101.049 E.03846
G1 X93.711 Y101.552 E.02158
G1 X93.436 Y102.026 E.02001
G1 X92.94 Y102.958 E.0385
G1 X92.682 Y103.49 E.02156
G1 X92.26 Y104.456 E.03846
G1 X91.859 Y105.52 E.0415
G1 X91.54 Y106.517 E.03819
G1 X91.38 Y107.096 E.02192
G1 X91.138 Y108.122 E.03846
G1 X91.024 Y108.701 E.02154
G1 X90.862 Y109.744 E.03851
G1 X90.793 Y110.331 E.02156
G1 X90.712 Y111.382 E.03845
G1 X90.689 Y111.973 E.02159
G1 X90.689 Y113.027 E.03846
G1 X90.712 Y113.618 E.02159
G1 X90.793 Y114.668 E.0384
G1 X90.862 Y115.256 E.0216
G1 X91.024 Y116.297 E.03845
G1 X91.138 Y116.878 E.0216
G1 X91.38 Y117.904 E.03844
G1 X91.538 Y118.474 E.02161
G1 X91.858 Y119.478 E.03843
G1 X92.059 Y120.033 E.02157
G1 X92.457 Y121.01 E.03847
G1 X92.7 Y121.549 E.02156
G1 X93.172 Y122.492 E.0385
G1 X93.587 Y123.25 E.03153
G1 X92.348 Y123.25 E.04522
G1 X92.348 Y132.759 E.34692
G1 X89.619 Y132.759 E.09959
G1 X89.619 Y99.127 E1.22709
G1 X91.996 Y99.127 E.08673
G1 X91.996 Y87.241 E.43365
G1 X94.725 Y87.241 E.09959
G1 X94.725 Y99.127 E.43365
G1 X95.399 Y99.127 E.02459
G1 X90.539 Y116.468 F42000
G1 F3600
G1 X90.752 Y117.483 E.03783
G1 X90.9 Y118.077 E.02234
G1 X91.2 Y119.107 E.03911
G1 X91.393 Y119.688 E.02235
G1 X91.773 Y120.694 E.03925
G1 X92.01 Y121.256 E.02223
G1 X92.465 Y122.228 E.03919
G1 X92.729 Y122.742 E.02109
G1 X91.84 Y122.742 E.03244
G1 X91.84 Y132.251 E.34692
G1 X90.126 Y132.251 E.06253
G1 X90.126 Y116.509 E.57437
G1 X90.539 Y116.468 E.01514
G1 X91.012 Y120.127 F42000
G1 F3600
G1 X91.322 Y120.934 E.03156
G1 X91.895 Y122.235 E.05184
G1 X91.332 Y122.235 E.02053
G1 X91.332 Y131.743 E.34692
G1 X90.634 Y131.743 E.02547
G1 X90.634 Y120.193 E.42141
G1 X91.012 Y120.127 E.014
G1 X90.539 Y108.531 F42000
G1 F3600
G1 X90.126 Y108.491 E.01514
G1 X90.126 Y99.635 E.32315
G1 X92.503 Y99.635 E.08673
G1 X92.503 Y87.749 E.43365
G1 X94.217 Y87.749 E.06253
G1 X94.217 Y99.851 E.44153
M73 P2 R19
G1 X93.569 Y100.815 E.0424
G1 X92.992 Y101.779 E.04099
G1 X92.465 Y102.772 E.041
G1 X91.99 Y103.79 E.04099
G1 X91.568 Y104.831 E.04102
G1 X91.201 Y105.89 E.04089
G1 X90.888 Y106.97 E.04099
G1 X90.752 Y107.515 E.02052
G1 X90.539 Y108.531 E.03788
G1 X91.012 Y104.873 F42000
G1 F3600
G1 X90.634 Y104.807 E.014
G1 X90.634 Y100.143 E.17018
G1 X93.011 Y100.143 E.08673
G1 X93.011 Y88.257 E.43365
G1 X93.71 Y88.257 E.02547
G1 X93.71 Y99.692 E.41722
G1 X93.169 Y100.498 E.03541
G1 X92.866 Y100.987 E.02099
G1 X92.272 Y102.036 E.04396
G1 X92.009 Y102.548 E.02099
G1 X91.546 Y103.538 E.0399
G1 X91.301 Y104.118 E.02298
G1 X91.012 Y104.873 E.02949
G1 X91.494 Y102.442 F42000
G1 F3600
G1 X91.142 Y102.359 E.0132
G1 X91.142 Y100.65 E.06233
G1 X92.474 Y100.65 E.04858
G1 X91.852 Y101.745 E.04593
G1 X91.494 Y102.442 E.02857
;WIPE_START
G1 X91.852 Y101.745 E-.23493
G1 X92.453 Y100.687 E-.36507
;WIPE_END
G1 Z.4 F42000
G1 X98.514 Y121.55 Z.4
G1 Z.2
G1 E.6 F2400
;TYPE:Inner wall
;WIDTH:0.499999
G1 F3600
G1 X98.071 Y120.854 E.0301
G1 X97.659 Y120.127 E.03049
G1 X97.286 Y119.379 E.03049
G1 X96.951 Y118.614 E.03049
G1 X96.656 Y117.832 E.03049
G1 X96.402 Y117.036 E.03049
G1 X96.189 Y116.227 E.03049
G1 X96.018 Y115.409 E.03049
G1 X95.89 Y114.584 E.03049
G1 X95.804 Y113.752 E.03049
G1 X95.761 Y112.918 E.03049
G1 X95.761 Y112.093 E.03011
G1 X95.843 Y110.821 E.04649
G1 X95.949 Y110.003 E.03011
G1 X96.098 Y109.181 E.03049
G1 X96.29 Y108.367 E.03049
G1 X96.524 Y107.565 E.03049
G1 X96.798 Y106.775 E.03049
G1 X97.109 Y106.011 E.03011
G1 X97.664 Y104.864 E.04649
G1 X98.071 Y104.146 E.03011
G1 X98.519 Y103.441 E.03049
G1 X99.004 Y102.76 E.03049
