; HEADER_BLOCK_START
; generated by OrcaSlicer 2.1.0 on 2024-10-29 at 15:11:19
; total layer number: 122
; filament_density: 1.27
; filament_diameter: 1.75
; max_z_height: 19.00
; HEADER_BLOCK_END

; THUMBNAIL_BLOCK_START

;
; THUMBNAIL_BLOCK_END

; THUMBNAIL_BLOCK_START

;
; THUMBNAIL_BLOCK_END

; external perimeters extrusion width = 0.42mm
; perimeters extrusion width = 0.45mm
; infill extrusion width = 0.45mm
; solid infill extrusion width = 0.42mm
; top infill extrusion width = 0.42mm
; support material extrusion width = 0.42mm
; first layer extrusion width = 0.50mm

; EXECUTABLE_BLOCK_START
EXCLUDE_OBJECT_DEFINE NAME=упор_под_мотор_2.stp_id_0_copy_0 CENTER=116.258,110 POLYGON=[[95.875,98.5],[97.775,87.5],[100.775,87.5],[124.518,95.4862],[124.555,95.4992],[124.954,95.6433],[124.991,95.6571],[125.387,95.8115],[125.423,95.8262],[125.814,95.9909],[125.85,96.0063],[126.237,96.1812],[126.272,96.1974],[126.655,96.3823],[126.689,96.3992],[127.068,96.5942],[127.101,96.6118],[127.475,96.8166],[127.508,96.8349],[127.876,97.0494],[127.908,97.0683],[128.271,97.2925],[128.302,97.312],[128.66,97.5457],[128.69,97.5658],[129.042,97.8088],[129.071,97.8295],[129.417,98.0817],[129.445,98.1029],[129.785,98.3642],[129.813,98.3858],[130.146,98.656],[130.172,98.6782],[130.499,98.9571],[130.524,98.9796],[130.844,99.2671],[130.869,99.2901],[131.181,99.5859],[131.205,99.6093],[131.509,99.9133],[131.532,99.937],[131.829,100.249],[131.852,100.273],[132.141,100.593],[132.162,100.617],[132.443,100.945],[132.463,100.969],[132.736,101.304],[132.756,101.329],[133.02,101.671],[133.039,101.696],[133.294,102.045],[133.312,102.07],[133.559,102.426],[133.576,102.452],[133.813,102.814],[133.83,102.839],[134.058,103.208],[134.073,103.234],[134.292,103.608],[134.307,103.634],[134.516,104.015],[134.53,104.04],[134.73,104.427],[134.742,104.452],[134.932,104.844],[134.944,104.87],[135.124,105.266],[135.135,105.292],[135.305,105.693],[135.315,105.719],[135.475,106.125],[135.485,106.15],[135.634,106.561],[135.642,106.586],[135.781,107.001],[135.789,107.026],[135.917,107.444],[135.924,107.469],[136.042,107.891],[136.048,107.916],[136.155,108.341],[136.16,108.366],[136.256,108.793],[136.261,108.818],[136.346,109.249],[136.35,109.273],[136.423,109.706],[136.427,109.73],[136.49,110.165],[136.493,110.189],[136.544,110.626],[136.546,110.649],[136.586,111.088],[136.588,111.111],[136.617,111.55],[136.618,111.573],[136.635,112.014],[136.636,112.037],[136.642,112.478],[136.642,112.5],[136.636,112.942],[136.636,112.963],[136.619,113.405],[136.618,113.427],[136.59,113.868],[136.588,113.889],[136.548,114.33],[136.546,114.351],[136.495,114.791],[136.493,114.811],[136.43,115.25],[136.427,115.27],[136.354,115.708],[136.35,115.727],[136.265,116.163],[136.261,116.182],[136.165,116.616],[136.16,116.634],[136.053,117.066],[136.048,117.084],[135.929,117.513],[135.924,117.531],[135.794,117.957],[135.789,117.974],[135.648,118.397],[135.642,118.414],[135.491,118.834],[135.485,118.85],[135.322,119.266],[135.315,119.281],[135.142,119.693],[135.135,119.708],[134.951,120.116],[134.944,120.13],[134.749,120.534],[134.742,120.548],[134.537,120.946],[134.53,120.96],[134.314,121.353],[134.307,121.366],[134.081,121.754],[134.073,121.766],[133.837,122.149],[133.83,122.161],[133.584,122.537],[133.576,122.548],[133.32,122.919],[133.312,122.93],[133.047,123.293],[133.039,123.304],[132.764,123.661],[132.756,123.671],[132.471,124.021],[132.463,124.031],[132.17,124.374],[132.162,124.383],[131.859,124.718],[131.852,124.727],[131.54,125.055],[131.532,125.063],[131.212,125.383],[131.205,125.391],[130.876,125.703],[130.869,125.71],[130.532,126.014],[130.524,126.02],[130.18,126.316],[130.172,126.322],[129.82,126.608],[129.813,126.614],[129.453,126.892],[129.445,126.897],[129.078,127.165],[129.071,127.171],[128.697,127.43],[128.69,127.434],[128.309,127.684],[128.302,127.688],[127.914,127.928],[127.908,127.932],[127.514,128.162],[127.508,128.165],[127.107,128.385],[127.101,128.388],[126.695,128.598],[126.689,128.601],[126.278,128.8],[126.272,128.803],[125.855,128.991],[125.85,128.994],[125.428,129.172],[125.423,129.174],[124.996,129.341],[124.991,129.343],[124.56,129.499],[124.555,129.501],[124.12,129.646],[124.116,129.647],[123.676,129.782],[123.672,129.783],[123.229,129.906],[123.226,129.906],[122.779,130.018],[122.776,130.019],[122.326,130.119],[122.324,130.119],[121.871,130.208],[121.869,130.208],[121.414,130.285],[121.412,130.286],[120.955,130.351],[120.953,130.351],[120.494,130.404],[120.492,130.405],[97.775,132.5],[95.875,132.5],[95.875,98.5]]
M73 P0 R19
M106 S0
M106 P2 S0
;TYPE:Custom
M140 S0
M104 S0 
START_PRINT EXTRUDER_TEMP=250 BED_TEMP=80
G90
G21
M83 ; use relative distances for extrusion
; filament start gcode
M106 S0
M106 P2 S0
;LAYER_CHANGE
;Z:0.2
;HEIGHT:0.2
;BEFORE_LAYER_CHANGE
;0.2
G92 E0

G1 E-.6 F2400
;_SET_FAN_SPEED_CHANGING_LAYER
SET_VELOCITY_LIMIT ACCEL=500 ACCEL_TO_DECEL=250
SET_VELOCITY_LIMIT SQUARE_CORNER_VELOCITY=9
EXCLUDE_OBJECT_START NAME=упор_под_мотор_2.stp_id_0_copy_0
G1 Z.2 F42000
G1 X103.934 Y98.553
G1 Z.2
G1 E.6 F2400
;TYPE:Support
;WIDTH:0.5
G1 F3600
G1 X106.311 Y98.553 E.08673
G1 X106.311 Y98.912 E.01309
G1 X105.502 Y99.691 E.041
G1 X104.86 Y100.385 E.03448
G1 X104.252 Y101.114 E.03464
G1 X103.684 Y101.87 E.03448
G1 X103.157 Y102.654 E.0345
G1 X102.67 Y103.464 E.03448
G1 X102.226 Y104.298 E.03448
G1 X102.021 Y104.724 E.01724
G1 X101.645 Y105.584 E.03423
G1 X101.309 Y106.474 E.03472
G1 X101.022 Y107.374 E.03448
G1 X100.896 Y107.829 E.01724
G1 X100.68 Y108.744 E.03431
G1 X100.51 Y109.679 E.03464
G1 X100.389 Y110.616 E.03448
G1 X100.316 Y111.553 E.03431
G1 X100.298 Y112.025 E.01724
G1 X100.298 Y112.975 E.03464
G1 X100.347 Y113.918 E.03448
G1 X100.443 Y114.854 E.03431
G1 X100.511 Y115.326 E.01741
G1 X100.68 Y116.255 E.03447
G1 X100.897 Y117.175 E.03447
G1 X101.161 Y118.082 E.03447
G1 X101.472 Y118.975 E.03448
G1 X101.826 Y119.846 E.03431
G1 X102.226 Y120.701 E.03447
G1 X102.67 Y121.536 E.03448
G1 X102.911 Y121.948 E.0174
G1 X103.418 Y122.745 E.03447
G1 X103.963 Y123.512 E.03433
G1 X104.549 Y124.253 E.03447
G1 X105.173 Y124.963 E.03448
G1 X105.832 Y125.639 E.03447
G1 X106.311 Y126.088 E.02395
G1 X106.311 Y126.201 E.00412
G1 X101.557 Y126.201 E.17346
G1 X101.557 Y135.709 E.34692
G1 X92.926 Y135.709 E.31491
G1 X92.926 Y96.176 E1.44241
G1 X95.303 Y96.176 E.08673
G1 X95.303 Y84.291 E.43365
G1 X103.934 Y84.291 E.31491
G1 X103.934 Y98.485 E.51788
G1 X105.652 Y98.965 F42000
G1 F3600
G1 X105.202 Y99.409 E.02308
G1 X104.546 Y100.119 E.03526
G1 X103.927 Y100.86 E.03523
G1 X103.348 Y101.633 E.03525
G1 X102.808 Y102.435 E.03527
G1 X102.311 Y103.264 E.03526
G1 X101.862 Y104.108 E.0349
G1 X101.448 Y104.992 E.0356
G1 X101.084 Y105.887 E.03525
G1 X100.767 Y106.799 E.03524
G1 X100.498 Y107.727 E.03526
G1 X100.276 Y108.667 E.03524
G1 X100.103 Y109.618 E.03525
G1 X99.98 Y110.566 E.03489
G1 X99.905 Y111.539 E.0356
G1 X99.88 Y112.495 E.0349
G1 X99.905 Y113.461 E.03526
G1 X99.979 Y114.424 E.03523
G1 X100.103 Y115.382 E.03526
G1 X100.186 Y115.874 E.01822
G1 X100.383 Y116.814 E.03501
G1 X100.629 Y117.748 E.03525
G1 X100.923 Y118.668 E.03525
G1 X101.264 Y119.572 E.03526
G1 X101.647 Y120.448 E.03488
G1 X102.079 Y121.313 E.03525
G1 X102.554 Y122.153 E.03525
G1 X103.073 Y122.969 E.03525
G1 X103.632 Y123.757 E.03527
G1 X104.232 Y124.514 E.03525
G1 X104.869 Y125.24 E.03525
G1 X105.401 Y125.79 E.02788
G1 X101.146 Y125.79 E.15524
G1 X101.146 Y135.298 E.34692
G1 X93.338 Y135.298 E.28489
G1 X93.338 Y96.588 E1.41239
G1 X95.715 Y96.588 E.08673
G1 X95.715 Y84.702 E.43365
G1 X103.523 Y84.702 E.28489
G1 X103.523 Y98.965 E.52038
G1 X105.652 Y98.965 E.07767
G1 X104.431 Y99.472 F42000
G1 F3600
G1 X103.84 Y100.163 E.03316
G1 X103.224 Y100.941 E.03621
G1 X102.649 Y101.751 E.03621
G1 X102.126 Y102.574 E.0356
G1 X101.637 Y103.437 E.0362
G1 X101.401 Y103.893 E.01872
G1 X100.981 Y104.792 E.03619
G1 X100.614 Y105.695 E.0356
G1 X100.439 Y106.177 E.0187
G1 X100.138 Y107.123 E.03622
G1 X99.886 Y108.082 E.03618
G1 X99.686 Y109.038 E.03563
G1 X99.533 Y110.018 E.0362
G1 X99.474 Y110.527 E.0187
G1 X99.398 Y111.516 E.03619
G1 X99.372 Y112.492 E.03562
G1 X99.398 Y113.484 E.03622
G1 X99.474 Y114.473 E.03617
G1 X99.601 Y115.457 E.03622
G1 X99.687 Y115.969 E.01893
G1 X99.889 Y116.933 E.03596
G1 X100.138 Y117.877 E.0356
G1 X100.287 Y118.367 E.01869
G1 X100.614 Y119.304 E.03622
G1 X100.982 Y120.209 E.03562
G1 X101.401 Y121.107 E.03618
G1 X101.637 Y121.563 E.01872
G1 X102.126 Y122.426 E.03619
G1 X102.658 Y123.263 E.0362
G1 X103.224 Y124.059 E.03563
G1 X103.84 Y124.837 E.0362
G1 X104.22 Y125.282 E.02134
G1 X100.638 Y125.282 E.1307
G1 X100.638 Y134.79 E.34692
G1 X93.845 Y134.79 E.24783
G1 X93.845 Y97.095 E1.37533
G1 X96.222 Y97.095 E.08673
G1 X96.222 Y85.21 E.43365
G1 X103.015 Y85.21 E.24783
M73 P0 R18
G1 X103.015 Y99.472 E.52038
G1 X104.431 Y99.472 E.05165
G1 X103.323 Y99.98 F42000
G1 F3600
G1 X102.816 Y100.639 E.03035
G1 X102.239 Y101.451 E.03632
G1 X101.948 Y101.896 E.01939
G1 X101.424 Y102.769 E.03718
G1 X100.956 Y103.649 E.03634
G1 X100.724 Y104.127 E.01939
G1 X100.32 Y105.054 E.03691
G1 X99.966 Y105.992 E.03656
G1 X99.798 Y106.497 E.01942
G1 X99.519 Y107.453 E.03634
G1 X99.285 Y108.443 E.03713
G1 X99.183 Y108.966 E.01945
G1 X99.03 Y109.95 E.03632
G1 X98.924 Y110.963 E.03717
G1 X98.89 Y111.493 E.01938
G1 X98.865 Y112.489 E.03634
G1 X98.871 Y113.02 E.01941
G1 X98.924 Y114.037 E.03715
G1 X99.027 Y115.028 E.03633
G1 X99.102 Y115.555 E.01944
G1 X99.285 Y116.556 E.03714
G1 X99.514 Y117.525 E.03632
G1 X99.656 Y118.038 E.01941
G1 X99.958 Y118.986 E.03632
G1 X100.14 Y119.486 E.01941
G1 X100.515 Y120.409 E.03635
G1 X100.946 Y121.331 E.03712
G1 X101.19 Y121.804 E.01944
G1 X101.68 Y122.671 E.03632
G1 X102.226 Y123.53 E.03715
G1 X102.53 Y123.969 E.01946
G1 X103.134 Y124.774 E.03673
G1 X100.13 Y124.774 E.10959
G1 X100.13 Y134.282 E.34692
G1 X94.353 Y134.282 E.21077
G1 X94.353 Y97.603 E1.33827
M73 P1 R18
G1 X96.73 Y97.603 E.08673
G1 X96.73 Y85.718 E.43365
G1 X102.507 Y85.718 E.21077
G1 X102.507 Y99.98 E.52038
G1 X103.323 Y99.98 E.02978
G1 X102.287 Y100.488 F42000
G1 F3600
G1 X101.803 Y101.189 E.03108
G1 X101.258 Y102.045 E.03702
G1 X100.98 Y102.522 E.02014
G1 X100.503 Y103.419 E.03706
G1 X100.263 Y103.915 E.0201
G1 X99.859 Y104.839 E.0368
G1 X99.655 Y105.359 E.02038
G1 X99.322 Y106.317 E.03703
G1 X99.161 Y106.846 E.02016
G1 X98.902 Y107.826 E.037
G1 X98.783 Y108.365 E.02011
G1 X98.601 Y109.364 E.03707
G1 X98.523 Y109.91 E.02013
G1 X98.418 Y110.921 E.03706
G1 X98.383 Y111.47 E.02008
G1 X98.357 Y112.485 E.03706
G1 X98.364 Y113.037 E.02012
G1 X98.416 Y114.05 E.03703
G1 X98.466 Y114.599 E.02012
G1 X98.596 Y115.607 E.03708
G1 X98.689 Y116.157 E.02035
G1 X98.902 Y117.173 E.03786
G1 X99.161 Y118.154 E.03703
G1 X99.321 Y118.682 E.02011
G1 X99.655 Y119.641 E.03707
G1 X99.857 Y120.156 E.02016
G1 X100.263 Y121.085 E.03702
G1 X100.503 Y121.581 E.0201
G1 X100.98 Y122.478 E.03706
G1 X101.258 Y122.954 E.02013
G1 X101.803 Y123.811 E.03704
G1 X102.117 Y124.266 E.02018
G1 X99.622 Y124.266 E.09103
G1 X99.622 Y133.774 E.34692
G1 X94.861 Y133.774 E.17371
G1 X94.861 Y98.111 E1.30121
G1 X97.238 Y98.111 E.08673
G1 X97.238 Y86.226 E.43365
G1 X101.999 Y86.226 E.17371
G1 X101.999 Y100.488 E.52038
G1 X102.287 Y100.488 E.0105
G1 X101.491 Y100.746 F42000
G1 F3600
G1 X100.806 Y101.812 E.04624
G1 X100.297 Y102.712 E.03774
G1 X100.034 Y103.221 E.0209
G1 X99.596 Y104.157 E.03771
G1 X99.377 Y104.677 E.02059
G1 X99.179 Y105.183 E.0198
G1 X98.839 Y106.16 E.03774
G1 X98.53 Y107.223 E.0404
G1 X98.292 Y108.229 E.03771
G1 X98.182 Y108.791 E.0209
G1 X98.023 Y109.813 E.03774
G1 X97.957 Y110.38 E.02084
G1 X97.877 Y111.411 E.03773
G1 X97.855 Y111.983 E.02088
G1 X97.855 Y113.017 E.03774
G1 X97.877 Y113.589 E.02088
G1 X97.957 Y114.619 E.0377
G1 X98.023 Y115.187 E.02087
G1 X98.184 Y116.216 E.038
G1 X98.292 Y116.77 E.0206
G1 X98.409 Y117.292 E.01951
G1 X98.672 Y118.293 E.03775
G1 X98.839 Y118.839 E.02083
G1 X99.179 Y119.817 E.03779
G1 X99.388 Y120.35 E.02088
G1 X99.802 Y121.298 E.03773
G1 X100.05 Y121.811 E.02081
G1 X100.537 Y122.725 E.03779
G1 X101.158 Y123.758 E.04398
G1 X99.114 Y123.758 E.07456
G1 X99.114 Y133.266 E.34692
G1 X95.369 Y133.266 E.13665
G1 X95.369 Y98.619 E1.26415
G1 X97.746 Y98.619 E.08673
G1 X97.746 Y86.734 E.43365
G1 X101.491 Y86.734 E.13665
G1 X101.491 Y100.746 E.51125
G1 X100.984 Y100.586 F42000
G1 F3600
G1 X100.657 Y101.086 E.02177
G1 X100.114 Y101.991 E.03851
G1 X99.578 Y102.997 E.0416
G1 X99.132 Y103.951 E.03842
G1 X98.905 Y104.489 E.02131
G1 X98.703 Y105.006 E.02028
G1 X98.356 Y106.002 E.03845
G1 X98.038 Y107.096 E.0416
G1 X97.796 Y108.121 E.03841
G1 X97.682 Y108.703 E.02163
G1 X97.52 Y109.744 E.03845
G1 X97.452 Y110.331 E.02156
G1 X97.37 Y111.381 E.03844
G1 X97.349 Y111.931 E.02005
G1 X97.349 Y113.069 E.04154
G1 X97.403 Y114.122 E.03845
G1 X97.456 Y114.71 E.02155
G1 X97.591 Y115.757 E.03853
G1 X97.691 Y116.345 E.02177
G1 X97.905 Y117.371 E.03823
G1 X98.038 Y117.904 E.02002
G1 X98.195 Y118.472 E.02154
G1 X98.516 Y119.477 E.03848
G1 X98.918 Y120.545 E.04162
G1 X99.34 Y121.51 E.03844
G1 X99.578 Y122.003 E.01996
G1 X100.246 Y123.25 E.05162
G1 X98.607 Y123.25 E.0598
G1 X98.607 Y132.759 E.34692
G1 X95.877 Y132.759 E.09959
G1 X95.877 Y99.127 E1.22709
G1 X98.254 Y99.127 E.08673
G1 X98.254 Y87.241 E.43365
G1 X100.984 Y87.241 E.09959
G1 X100.984 Y100.586 E.48689
G1 X96.833 Y112.88 F42000
G1 F3600
G1 X96.896 Y114.157 E.04666
G1 X97.017 Y115.324 E.0428
G1 X97.192 Y116.44 E.0412
G1 X97.41 Y117.484 E.03894
G1 X97.546 Y118.03 E.0205
G1 X97.873 Y119.154 E.04271
G1 X98.243 Y120.215 E.04101
G1 X98.449 Y120.739 E.02055
G1 X98.879 Y121.722 E.03916
G1 X99.388 Y122.742 E.04159
G1 X98.099 Y122.742 E.04703
G1 X98.099 Y132.251 E.34692
G1 X96.385 Y132.251 E.06253
G1 X96.385 Y112.889 E.70644
G1 X96.833 Y112.88 E.01636
G1 X97.282 Y118.96 F42000
G1 F3600
G1 X97.555 Y119.805 E.03236
G1 X97.769 Y120.397 E.02299
G1 X98.182 Y121.412 E.03997
G1 X98.553 Y122.235 E.03294
G1 X97.591 Y122.235 E.03512
G1 X97.591 Y131.743 E.34692
G1 X96.893 Y131.743 E.02547
G1 X96.893 Y119.018 E.46426
G1 X97.282 Y118.96 E.01437
G1 X96.833 Y112.12 F42000
M73 P2 R18
G1 F3600
G1 X96.385 Y112.111 E.01636
G1 X96.385 Y99.635 E.45522
G1 X98.762 Y99.635 E.08673
G1 X98.762 Y87.749 E.43365
G1 X100.476 Y87.749 E.06253
G1 X100.476 Y100.435 E.46284
G1 X99.957 Y101.252 E.03533
G1 X99.649 Y101.78 E.02229
G1 X99.38 Y102.272 E.02045
G1 X98.9 Y103.233 E.0392
G1 X98.648 Y103.789 E.02229
G1 X98.244 Y104.784 E.03917
G1 X97.859 Y105.891 E.04278
G1 X97.558 Y106.923 E.03922
G1 X97.411 Y107.514 E.02222
G1 X97.289 Y108.062 E.02047
G1 X97.097 Y109.12 E.03923
G1 X97.01 Y109.724 E.02228
G1 X96.9 Y110.794 E.03922
G1 X96.833 Y112.12 E.04845
G1 X97.282 Y106.04 F42000
G1 F3600
G1 X96.893 Y105.982 E.01437
G1 X96.893 Y100.143 E.21304
G1 X99.27 Y100.143 E.08673
G1 X99.27 Y88.257 E.43365
G1 X99.968 Y88.257 E.02547
G1 X99.968 Y100.283 E.43879
G1 X99.524 Y100.988 E.0304
G1 X99.206 Y101.533 E.02301
G1 X98.691 Y102.499 E.03994
G1 X98.418 Y103.065 E.02293
G1 X98.182 Y103.589 E.02097
G1 X97.77 Y104.601 E.03988
G1 X97.555 Y105.194 E.023
G1 X97.282 Y106.04 E.03242
G1 X97.761 Y103.284 F42000
G1 F3600
G1 X97.4 Y103.206 E.01346
G1 X97.4 Y100.65 E.09326
G1 X99.132 Y100.65 E.06317
G1 X98.481 Y101.8 E.0482
G1 X98.211 Y102.325 E.02155
G1 X97.761 Y103.284 E.03864
;WIPE_START
G1 X98.211 Y102.325 E-.31774
G1 X98.481 Y101.8 E-.17715
G1 X98.653 Y101.495 E-.1051
;WIPE_END
G1 Z.4 F42000
G1 X104.507 Y104.538 Z.4
G1 Z.2
G1 E.6 F2400
;TYPE:Inner wall
;WIDTH:0.499999
G1 F3600
G1 X104.723 Y104.156 E.01605
G1 X105.421 Y103.089 E.04651
G1 X105.917 Y102.429 E.03011
G1 X106.452 Y101.787 E.03049
G1 X107.02 Y101.174 E.03049
G1 X107.618 Y100.591 E.03049
G1 X108.246 Y100.039 E.03049
G1 X108.901 Y99.52 E.03049
G1 X109.584 Y99.035 E.03058
G1 X110.287 Y98.587 E.0304
G1 X111.015 Y98.176 E.03049
G1 X111.753 Y97.807 E.03011
G1 X112.927 Y97.312 E.04649
G1 X113.706 Y97.041 E.03011
G1 X114.509 Y96.807 E.03049
G1 X115.322 Y96.615 E.03049
G1 X116.134 Y96.467 E.03011
G1 X117.399 Y96.32 E.04649
G1 X118.224 Y96.277 E.03011
G1 X119.059 Y96.277 E.0305
G1 X119.894 Y96.32 E.03049
