; HEADER_BLOCK_START
; generated by OrcaSlicer 2.1.0 on 2025-02-01 at 14:53:38
; total layer number: 122
; filament_density: 1.27
; filament_diameter: 1.75
; max_z_height: 19.00
; HEADER_BLOCK_END

; THUMBNAIL_BLOCK_START

;
; THUMBNAIL_BLOCK_END

; THUMBNAIL_BLOCK_START

;
; THUMBNAIL_BLOCK_END

; external perimeters extrusion width = 0.42mm
; perimeters extrusion width = 0.45mm
; infill extrusion width = 0.45mm
; solid infill extrusion width = 0.42mm
; top infill extrusion width = 0.42mm
; support material extrusion width = 0.42mm
; first layer extrusion width = 0.50mm

; EXECUTABLE_BLOCK_START
EXCLUDE_OBJECT_DEFINE NAME=упор_под_мотор_хороший.stp_id_0_copy_0 CENTER=110,110 POLYGON=[[89.6167,101.101],[91.5167,84.9053],[94.5167,84.8989],[120.959,99.2753],[121.249,99.436],[121.363,99.5011],[121.65,99.6694],[121.762,99.7372],[122.044,99.9131],[122.154,99.9835],[122.432,100.167],[122.539,100.24],[122.813,100.431],[122.918,100.506],[123.187,100.704],[123.29,100.782],[123.554,100.987],[123.655,101.067],[123.914,101.279],[124.012,101.361],[124.266,101.581],[124.361,101.665],[124.61,101.891],[124.703,101.978],[124.946,102.21],[125.036,102.299],[125.274,102.538],[125.361,102.628],[125.593,102.874],[125.678,102.966],[125.904,103.218],[125.986,103.312],[126.205,103.57],[126.284,103.666],[126.497,103.93],[126.574,104.027],[126.78,104.297],[126.854,104.396],[127.054,104.672],[127.124,104.772],[127.318,105.053],[127.385,105.154],[127.571,105.441],[127.636,105.543],[127.815,105.835],[127.877,105.939],[128.048,106.235],[128.107,106.34],[128.272,106.642],[128.328,106.748],[128.484,107.053],[128.537,107.16],[128.686,107.471],[128.736,107.578],[128.877,107.893],[128.924,108.002],[129.057,108.32],[129.101,108.429],[129.226,108.752],[129.267,108.861],[129.384,109.187],[129.422,109.298],[129.531,109.627],[129.566,109.738],[129.666,110.07],[129.698,110.182],[129.79,110.517],[129.819,110.629],[129.902,110.967],[129.928,111.078],[130.003,111.419],[130.026,111.531],[130.092,111.874],[130.112,111.986],[130.169,112.331],[130.186,112.443],[130.234,112.79],[130.248,112.902],[130.288,113.25],[130.299,113.362],[130.33,113.712],[130.338,113.823],[130.359,114.174],[130.365,114.285],[130.377,114.638],[130.38,114.748],[130.383,115.101],[130.383,115.211],[130.377,115.565],[130.374,115.674],[130.359,116.028],[130.354,116.136],[130.33,116.49],[130.321,116.598],[130.288,116.952],[130.276,117.059],[130.234,117.412],[130.22,117.519],[130.169,117.871],[130.152,117.977],[130.092,118.328],[130.072,118.433],[130.003,118.783],[129.981,118.887],[129.902,119.235],[129.878,119.338],[129.79,119.685],[129.763,119.786],[129.666,120.132],[129.637,120.232],[129.531,120.575],[129.499,120.674],[129.384,121.015],[129.35,121.112],[129.226,121.451],[129.19,121.547],[129.057,121.882],[129.018,121.977],[128.877,122.309],[128.836,122.402],[128.686,122.732],[128.643,122.823],[128.484,123.149],[128.439,123.239],[128.272,123.561],[128.224,123.649],[128.048,123.967],[127.999,124.053],[127.815,124.367],[127.764,124.452],[127.571,124.762],[127.518,124.845],[127.318,125.149],[127.263,125.231],[127.054,125.531],[126.997,125.61],[126.78,125.905],[126.722,125.982],[126.497,126.272],[126.437,126.347],[126.205,126.632],[126.144,126.705],[125.904,126.984],[125.841,127.055],[125.593,127.328],[125.529,127.397],[125.274,127.664],[125.208,127.731],[124.946,127.992],[124.879,128.057],[124.61,128.311],[124.542,128.374],[124.266,128.621],[124.196,128.683],[123.914,128.923],[123.843,128.982],[123.554,129.215],[123.482,129.272],[123.187,129.498],[123.114,129.553],[122.813,129.772],[122.739,129.824],[122.432,130.035],[122.357,130.085],[122.044,130.289],[121.968,130.337],[121.65,130.533],[121.573,130.578],[121.249,130.766],[121.172,130.81],[120.843,130.989],[120.765,131.03],[120.431,131.202],[120.353,131.241],[120.014,131.404],[119.935,131.44],[119.591,131.595],[119.512,131.629],[119.164,131.775],[119.085,131.807],[118.733,131.944],[118.653,131.974],[118.297,132.102],[118.217,132.13],[117.857,132.249],[117.777,132.274],[117.414,132.384],[117.333,132.407],[116.967,132.508],[116.887,132.529],[116.518,132.62],[116.437,132.639],[116.065,132.72],[115.985,132.737],[115.61,132.809],[115.53,132.824],[115.153,132.887],[115.073,132.899],[114.694,132.952],[114.614,132.962],[114.234,133.006],[114.154,133.014],[91.5167,135.101],[89.6167,135.101],[89.6167,101.101]]
M73 P0 R21
M106 S0
M106 P2 S0
;TYPE:Custom
M140 S0
M104 S0 
START_PRINT EXTRUDER_TEMP=250 BED_TEMP=80
G90
G21
M83 ; use relative distances for extrusion
; filament start gcode
M106 S0
M106 P2 S0
;LAYER_CHANGE
;Z:0.2
;HEIGHT:0.2
;BEFORE_LAYER_CHANGE
;0.2
G92 E0

G1 E-.6 F2400
;_SET_FAN_SPEED_CHANGING_LAYER
SET_VELOCITY_LIMIT ACCEL=500 ACCEL_TO_DECEL=250
SET_VELOCITY_LIMIT SQUARE_CORNER_VELOCITY=9
EXCLUDE_OBJECT_START NAME=упор_под_мотор_хороший.stp_id_0_copy_0
G1 Z.2 F42000
G1 X100.053 Y84.291
G1 Z.2
G1 E.6 F2400
;TYPE:Support
;WIDTH:0.5
G1 F3600
G1 X102.43 Y84.291 E.08673
G1 X102.43 Y86.668 E.08673
G1 X107.184 Y86.668 E.17346
G1 X107.184 Y89.045 E.08673
G1 X109.561 Y89.045 E.08673
G1 X109.561 Y91.422 E.08673
G1 X114.316 Y91.422 E.17346
G1 X114.316 Y96.854 E.19818
G1 X113.798 Y96.806 E.01897
G1 X112.859 Y96.757 E.03431
G1 X112.382 Y96.751 E.01741
G1 X111.441 Y96.775 E.03433
G1 X110.965 Y96.806 E.0174
G1 X110.03 Y96.903 E.0343
G1 X109.558 Y96.97 E.0174
G1 X108.633 Y97.138 E.0343
G1 X107.714 Y97.355 E.03446
G1 X107.254 Y97.482 E.0174
G1 X106.359 Y97.768 E.0343
G1 X105.91 Y97.931 E.0174
G1 X105.034 Y98.287 E.03454
G1 X104.601 Y98.483 E.01732
G1 X103.762 Y98.902 E.03422
G1 X103.307 Y99.153 E.01895
G1 X103.307 Y97.676 E.0539
G1 X98.553 Y97.676 E.17346
G1 X98.553 Y95.299 E.08673
G1 X97.676 Y95.299 E.03201
G1 X97.676 Y100.93 E.20547
G1 X100.053 Y100.93 E.08673
G1 X100.053 Y101.513 E.02126
G1 X99.243 Y102.293 E.04102
G1 X98.601 Y102.986 E.03447
G1 X97.993 Y103.715 E.03464
G1 X97.426 Y104.471 E.03447
G1 X96.898 Y105.255 E.03449
G1 X96.412 Y106.065 E.03448
G1 X95.968 Y106.9 E.03448
G1 X95.762 Y107.325 E.01724
G1 X95.387 Y108.185 E.03423
G1 X95.051 Y109.075 E.03472
G1 X94.764 Y109.975 E.03448
G1 X94.523 Y110.889 E.03447
G1 X94.421 Y111.35 E.01724
G1 X94.252 Y112.275 E.03431
G1 X94.131 Y113.212 E.03448
G1 X94.058 Y114.159 E.03464
G1 X94.033 Y115.103 E.03448
G1 X94.058 Y116.043 E.03431
G1 X94.088 Y116.515 E.01724
G1 X94.131 Y116.99 E.0174
G1 X94.252 Y117.927 E.03448
G1 X94.422 Y118.857 E.03447
G1 X94.639 Y119.776 E.03447
G1 X94.903 Y120.683 E.03447
G1 X95.214 Y121.576 E.03448
G1 X95.568 Y122.447 E.03431
G1 X95.968 Y123.303 E.03447
G1 X96.412 Y124.137 E.03448
G1 X96.898 Y124.947 E.03448
G1 X97.426 Y125.731 E.0345
G1 X97.707 Y126.117 E.0174
G1 X98.291 Y126.854 E.03432
G1 X98.915 Y127.564 E.03448
G1 X99.574 Y128.241 E.03447
G1 X99.93 Y128.578 E.01788
G1 X95.299 Y128.578 E.16896
G1 X95.299 Y138.086 E.34692
G1 X86.668 Y138.086 E.31491
G1 X86.668 Y98.553 E1.44241
G1 X89.045 Y98.553 E.08673
G1 X89.045 Y81.914 E.60711
G1 X100.053 Y81.914 E.40164
G1 X100.053 Y84.222 E.08423
G1 X104.433 Y98.107 F42000
G1 F3600
G1 X103.719 Y98.462 E.0291
G1 X103.719 Y97.265 E.04368
G1 X98.965 Y97.265 E.17346
G1 X98.965 Y94.888 E.08673
G1 X97.265 Y94.888 E.06203
G1 X97.265 Y101.342 E.23549
G1 X99.629 Y101.342 E.08628
G1 X98.95 Y102.004 E.0346
G1 X98.618 Y102.354 E.0176
G1 X97.98 Y103.079 E.03526
G1 X97.374 Y103.844 E.0356
G1 X96.82 Y104.624 E.03491
G1 X96.296 Y105.448 E.0356
G1 X95.82 Y106.288 E.03524
G1 X95.389 Y107.153 E.03525
G1 X95.005 Y108.032 E.035
G1 X94.662 Y108.942 E.03549
G1 X94.371 Y109.853 E.0349
G1 X94.122 Y110.797 E.03559
G1 X93.925 Y111.743 E.03526
G1 X93.777 Y112.697 E.03525
G1 X93.721 Y113.177 E.01762
G1 X93.647 Y114.13 E.03488
G1 X93.622 Y115.096 E.03526
G1 X93.647 Y116.062 E.03526
G1 X93.721 Y117.025 E.03523
G1 X93.778 Y117.515 E.01799
G1 X93.928 Y118.476 E.03549
G1 X94.122 Y119.405 E.03465
G1 X94.242 Y119.883 E.01798
G1 X94.512 Y120.811 E.03524
G1 X94.83 Y121.723 E.03526
G1 X95.19 Y122.609 E.0349
G1 X95.599 Y123.484 E.03523
G1 X95.825 Y123.922 E.01799
G1 X96.296 Y124.754 E.03489
G1 X96.814 Y125.57 E.03524
G1 X97.095 Y125.976 E.01801
G1 X97.675 Y126.748 E.03525
G1 X98.288 Y127.482 E.03488
G1 X98.92 Y128.167 E.03399
G1 X94.888 Y128.167 E.14713
G1 X94.888 Y137.675 E.34692
G1 X87.079 Y137.675 E.28489
G1 X87.079 Y98.965 E1.41239
G1 X89.456 Y98.965 E.08673
G1 X89.456 Y82.325 E.60711
G1 X99.642 Y82.325 E.37162
G1 X99.642 Y84.702 E.08673
G1 X102.019 Y84.702 E.08673
G1 X102.019 Y87.079 E.08673
G1 X106.773 Y87.079 E.17346
G1 X106.773 Y89.456 E.08673
G1 X109.15 Y89.456 E.08673
G1 X109.15 Y91.833 E.08673
G1 X113.904 Y91.833 E.17346
G1 X113.904 Y96.402 E.1667
G1 X112.862 Y96.346 E.03807
G1 X112.379 Y96.34 E.01763
G1 X111.423 Y96.364 E.03492
G1 X110.45 Y96.44 E.03559
G1 X109.502 Y96.562 E.03489
G1 X109.019 Y96.644 E.01785
G1 X108.542 Y96.737 E.01774
G1 X107.612 Y96.957 E.03488
G1 X106.675 Y97.229 E.03558
G1 X105.772 Y97.543 E.03489
G1 X105.322 Y97.719 E.01764
G1 X104.433 Y98.107 E.03538
G1 X104.227 Y97.643 F42000
G1 F3600
G1 X104.227 Y96.757 E.03235
G1 X99.472 Y96.757 E.17346
G1 X99.472 Y94.38 E.08673
G1 X96.757 Y94.38 E.09909
G1 X96.757 Y101.85 E.27255
G1 X98.388 Y101.85 E.05953
G1 X97.904 Y102.387 E.02641
G1 X97.269 Y103.149 E.03618
G1 X96.674 Y103.943 E.03619
G1 X96.12 Y104.767 E.03622
G1 X95.609 Y105.618 E.03622
G1 X95.15 Y106.48 E.03562
G1 X94.73 Y107.378 E.03618
G1 X94.356 Y108.296 E.0362
G1 X94.029 Y109.234 E.03621
G1 X93.751 Y110.186 E.03621
G1 X93.523 Y111.151 E.03618
G1 X93.425 Y111.655 E.01872
G1 X93.272 Y112.635 E.0362
G1 X93.171 Y113.622 E.0362
G1 X93.12 Y114.613 E.0362
G1 X93.121 Y115.605 E.0362
G1 X93.171 Y116.58 E.0356
G1 X93.217 Y117.09 E.01869
G1 X93.342 Y118.058 E.03563
G1 X93.52 Y119.034 E.03619
G1 X93.631 Y119.535 E.0187
G1 X93.884 Y120.494 E.03619
G1 X94.181 Y121.424 E.03561
G1 X94.355 Y121.905 E.0187
G1 X94.723 Y122.81 E.03562
G1 X95.143 Y123.708 E.03617
G1 X95.378 Y124.164 E.01871
G1 X95.859 Y125.013 E.03561
G1 X96.391 Y125.851 E.0362
G1 X96.683 Y126.273 E.01873
G1 X97.269 Y127.053 E.03561
G1 X97.761 Y127.659 E.02845
G1 X94.38 Y127.659 E.12336
G1 X94.38 Y137.167 E.34692
G1 X87.587 Y137.167 E.24783
G1 X87.587 Y99.472 E1.37533
M73 P1 R21
G1 X89.964 Y99.472 E.08673
G1 X89.964 Y82.833 E.60711
G1 X99.134 Y82.833 E.33456
G1 X99.134 Y85.21 E.08673
G1 X101.511 Y85.21 E.08673
G1 X101.511 Y87.587 E.08673
G1 X106.265 Y87.587 E.17346
G1 X106.265 Y89.964 E.08673
G1 X108.642 Y89.964 E.08673
G1 X108.642 Y92.341 E.08673
G1 X113.396 Y92.341 E.17346
G1 X113.396 Y95.858 E.12832
G1 X112.392 Y95.832 E.03665
G1 X111.383 Y95.858 E.03683
G1 X110.411 Y95.933 E.03558
G1 X109.918 Y95.99 E.0181
G1 X108.915 Y96.147 E.03703
G1 X107.967 Y96.345 E.03534
G1 X107.485 Y96.465 E.01812
G1 X106.518 Y96.746 E.03676
G1 X105.581 Y97.073 E.03621
G1 X105.118 Y97.254 E.01813
G1 X104.227 Y97.643 E.0355
G1 X104.735 Y96.859 F42000
G1 F3600
G1 X104.735 Y96.249 E.02224
G1 X99.98 Y96.249 E.17346
G1 X99.98 Y93.872 E.08673
G1 X96.249 Y93.872 E.13615
G1 X96.249 Y102.357 E.30961
G1 X97.257 Y102.357 E.03679
G1 X96.868 Y102.836 E.02251
G1 X96.258 Y103.651 E.03714
G1 X95.69 Y104.497 E.03718
G1 X95.177 Y105.351 E.03634
G1 X94.921 Y105.817 E.01941
G1 X94.466 Y106.728 E.03716
G1 X94.062 Y107.655 E.03691
G1 X93.708 Y108.593 E.03657
G1 X93.397 Y109.564 E.03719
G1 X93.255 Y110.076 E.01941
G1 X93.022 Y111.066 E.03712
G1 X92.844 Y112.046 E.03634
G1 X92.712 Y113.056 E.03716
G1 X92.664 Y113.587 E.01942
G1 X92.613 Y114.581 E.03632
G1 X92.612 Y115.599 E.03715
G1 X92.633 Y116.131 E.01943
G1 X92.712 Y117.145 E.03712
G1 X92.84 Y118.133 E.03636
G1 X92.93 Y118.664 E.01964
G1 X93.132 Y119.632 E.03609
G1 X93.261 Y120.148 E.01941
G1 X93.539 Y121.103 E.0363
G1 X93.708 Y121.609 E.01944
G1 X94.059 Y122.541 E.03635
G1 X94.257 Y123.01 E.01859
G1 X94.687 Y123.932 E.03712
G1 X94.932 Y124.405 E.01943
G1 X95.422 Y125.272 E.03633
G1 X95.702 Y125.725 E.01943
G1 X96.258 Y126.551 E.03634
G1 X96.696 Y127.151 E.02709
G1 X93.872 Y127.151 E.10303
G1 X93.872 Y136.659 E.34692
G1 X88.095 Y136.659 E.21077
G1 X88.095 Y99.98 E1.33827
G1 X90.472 Y99.98 E.08673
G1 X90.472 Y83.341 E.60711
G1 X98.626 Y83.341 E.2975
G1 X98.626 Y85.718 E.08673
G1 X101.003 Y85.718 E.08673
G1 X101.003 Y88.095 E.08673
G1 X105.757 Y88.095 E.17346
G1 X105.757 Y90.472 E.08673
G1 X108.134 Y90.472 E.08673
G1 X108.134 Y92.849 E.08673
G1 X112.888 Y92.849 E.17346
G1 X112.888 Y95.33 E.09053
G1 X111.886 Y95.33 E.03658
G1 X110.868 Y95.382 E.03717
G1 X109.833 Y95.489 E.03796
G1 X108.821 Y95.647 E.03738
G1 X107.832 Y95.855 E.03688
G1 X106.847 Y96.115 E.03716
G1 X105.877 Y96.425 E.03715
G1 X104.735 Y96.859 E.0446
G1 X105.242 Y96.115 F42000
G1 F3600
G1 X105.242 Y95.741 E.01363
G1 X100.488 Y95.741 E.17346
G1 X100.488 Y93.364 E.08673
G1 X95.741 Y93.364 E.17321
G1 X95.741 Y102.865 E.34667
G1 X96.203 Y102.865 E.01684
G1 X95.842 Y103.359 E.0223
G1 X95.275 Y104.202 E.03706
G1 X94.985 Y104.672 E.02016
G1 X94.485 Y105.555 E.03703
G1 X94.231 Y106.046 E.02018
G1 X93.79 Y106.992 E.03807
G1 X93.407 Y107.932 E.03703
G1 X93.22 Y108.45 E.02012
G1 X92.911 Y109.419 E.03709
G1 X92.763 Y109.95 E.02013
G1 X92.53 Y110.937 E.03699
G1 X92.424 Y111.48 E.02018
G1 X92.264 Y112.511 E.0381
G1 X92.16 Y113.521 E.03705
G1 X92.125 Y114.071 E.02009
G1 X92.098 Y115.086 E.03706
G1 X92.105 Y115.638 E.02012
G1 X92.158 Y116.651 E.03703
G1 X92.207 Y117.2 E.02012
G1 X92.338 Y118.208 E.03708
G1 X92.431 Y118.758 E.02035
G1 X92.637 Y119.746 E.03681
G1 X92.771 Y120.281 E.02012
G1 X93.054 Y121.254 E.037
G1 X93.229 Y121.779 E.02016
G1 X93.587 Y122.729 E.03707
G1 X93.802 Y123.238 E.02013
G1 X94.232 Y124.156 E.03699
G1 X94.485 Y124.647 E.02015
G1 X94.985 Y125.531 E.03705
G1 X95.696 Y126.643 E.04817
G1 X93.364 Y126.643 E.08508
G1 X93.364 Y136.151 E.34692
G1 X88.603 Y136.151 E.17371
G1 X88.603 Y100.488 E1.30121
G1 X90.98 Y100.488 E.08673
G1 X90.98 Y83.849 E.60711
G1 X98.118 Y83.849 E.26044
G1 X98.118 Y86.226 E.08673
G1 X100.495 Y86.226 E.08673
G1 X100.495 Y88.603 E.08673
G1 X105.249 Y88.603 E.17346
G1 X105.249 Y90.98 E.08673
G1 X107.626 Y90.98 E.08673
G1 X107.626 Y93.357 E.08673
G1 X112.381 Y93.357 E.17346
G1 X112.381 Y94.816 E.05323
G1 X111.354 Y94.842 E.03749
G1 X110.803 Y94.878 E.02013
G1 X109.765 Y94.986 E.03807
G1 X108.756 Y95.143 E.03728
G1 X107.741 Y95.355 E.03782
G1 X107.205 Y95.488 E.02017
G1 X106.204 Y95.78 E.03804
G1 X105.242 Y96.115 E.03713
G1 X105.75 Y95.392 F42000
G1 F3600
G1 X105.75 Y95.233 E.00578
G1 X100.996 Y95.233 E.17346
G1 X100.996 Y92.856 E.08673
G1 X95.233 Y92.856 E.21027
G1 X95.233 Y103.347 E.38277
G1 X94.548 Y104.413 E.04625
G1 X94.038 Y105.313 E.03774
G1 X93.776 Y105.822 E.0209
G1 X93.338 Y106.758 E.03771
G1 X93.118 Y107.278 E.02059
G1 X92.921 Y107.784 E.0198
G1 X92.581 Y108.761 E.03774
G1 X92.414 Y109.308 E.02088
G1 X92.151 Y110.307 E.03771
G1 X92.027 Y110.865 E.02083
G1 X91.841 Y111.883 E.03778
G1 X91.699 Y112.981 E.04039
G1 X91.619 Y114.012 E.03773
G1 X91.597 Y114.584 E.02088
G1 X91.597 Y115.618 E.03774
G1 X91.617 Y116.154 E.01957
G1 X91.654 Y116.723 E.02079
G1 X91.76 Y117.753 E.03778
G1 X91.932 Y118.852 E.0406
G1 X92.142 Y119.859 E.03752
G1 X92.28 Y120.413 E.02083
G1 X92.569 Y121.405 E.03771
G1 X92.75 Y121.949 E.02089
G1 X93.116 Y122.918 E.0378
G1 X93.323 Y123.412 E.01954
G1 X93.559 Y123.931 E.02082
G1 X94.021 Y124.857 E.03774
G1 X94.755 Y126.135 E.0538
G1 X92.856 Y126.135 E.0693
G1 X92.856 Y135.643 E.34692
M73 P2 R21
G1 X89.111 Y135.643 E.13665
G1 X89.111 Y100.996 E1.26415
G1 X91.488 Y100.996 E.08673
G1 X91.488 Y84.357 E.60711
G1 X97.61 Y84.357 E.22338
G1 X97.61 Y86.734 E.08673
G1 X99.987 Y86.734 E.08673
G1 X99.987 Y89.111 E.08673
G1 X104.741 Y89.111 E.17346
G1 X104.741 Y91.488 E.08673
G1 X107.119 Y91.488 E.08673
G1 X107.119 Y93.865 E.08673
G1 X111.868 Y93.865 E.17329
G1 X111.877 Y94.313 E.01634
G1 X111.295 Y94.337 E.02128
G1 X110.264 Y94.417 E.0377
G1 X109.697 Y94.483 E.02085
G1 X108.668 Y94.643 E.03799
G1 X108.113 Y94.751 E.02062
G1 X107.107 Y94.989 E.03774
G1 X105.75 Y95.392 E.05162
G1 X106.18 Y94.725 F42000
G1 F3600
G1 X101.504 Y94.725 E.17061
G1 X101.504 Y92.348 E.08673
G1 X94.725 Y92.348 E.24733
G1 X94.725 Y103.187 E.39547
G1 X94.399 Y103.687 E.02177
G1 X93.856 Y104.591 E.0385
