; HEADER_BLOCK_START
; generated by OrcaSlicer 2.1.0 on 2024-10-17 at 18:12:06
; total layer number: 198
; filament_density: 1.27
; filament_diameter: 1.75
; max_z_height: 27.00
; HEADER_BLOCK_END

; THUMBNAIL_BLOCK_START

;
; THUMBNAIL_BLOCK_END

; THUMBNAIL_BLOCK_START

;
; THUMBNAIL_BLOCK_END

; external perimeters extrusion width = 0.42mm
; perimeters extrusion width = 0.45mm
; infill extrusion width = 0.45mm
; solid infill extrusion width = 0.42mm
; top infill extrusion width = 0.42mm
; support material extrusion width = 0.42mm
; first layer extrusion width = 0.50mm

; EXECUTABLE_BLOCK_START
EXCLUDE_OBJECT_DEFINE NAME=упор_под_мотор.stp_id_0_copy_0 CENTER=110,110 POLYGON=[[89.5473,88.5],[94.5473,88.5],[118.34,96.4899],[118.367,96.4992],[118.776,96.6474],[118.802,96.6571],[119.209,96.816],[119.234,96.8262],[119.637,96.9957],[119.661,97.0063],[120.06,97.1864],[120.083,97.1974],[120.478,97.3879],[120.5,97.3992],[120.891,97.6002],[120.912,97.6118],[121.298,97.823],[121.319,97.8349],[121.699,98.0562],[121.719,98.0683],[122.094,98.2997],[122.113,98.312],[122.483,98.5533],[122.501,98.5658],[122.865,98.8169],[122.882,98.8295],[123.24,99.0902],[123.257,99.1029],[123.608,99.3731],[123.624,99.3858],[123.968,99.6653],[123.983,99.6782],[124.321,99.9668],[124.335,99.9796],[124.666,100.277],[124.68,100.29],[125.003,100.597],[125.016,100.609],[125.331,100.924],[125.343,100.937],[125.651,101.261],[125.663,101.273],[125.962,101.605],[125.973,101.617],[126.264,101.957],[126.275,101.969],[126.557,102.317],[126.567,102.329],[126.841,102.684],[126.85,102.696],[127.115,103.059],[127.123,103.07],[127.379,103.44],[127.387,103.452],[127.634,103.829],[127.641,103.839],[127.878,104.223],[127.884,104.234],[128.112,104.624],[128.118,104.634],[128.336,105.031],[128.341,105.04],[128.549,105.443],[128.554,105.452],[128.751,105.86],[128.755,105.87],[128.943,106.283],[128.946,106.292],[129.123,106.711],[129.127,106.719],[129.293,107.143],[129.296,107.15],[129.451,107.579],[129.454,107.586],[129.598,108.019],[129.6,108.026],[129.734,108.463],[129.735,108.469],[129.858,108.91],[129.859,108.916],[129.97,109.36],[129.972,109.366],[130.071,109.813],[130.072,109.818],[130.16,110.269],[130.161,110.273],[130.238,110.726],[130.238,110.73],[130.303,111.186],[130.304,111.189],[130.357,111.647],[130.357,111.649],[130.399,112.109],[130.399,112.111],[130.429,112.572],[130.429,112.573],[130.447,113.036],[130.447,113.037],[130.453,113.5],[130.447,113.963],[130.447,113.964],[130.429,114.427],[130.429,114.428],[130.399,114.889],[130.399,114.891],[130.357,115.351],[130.357,115.353],[130.304,115.811],[130.303,115.814],[130.238,116.27],[130.238,116.274],[130.161,116.727],[130.16,116.731],[130.072,117.182],[130.071,117.187],[129.972,117.634],[129.97,117.64],[129.859,118.084],[129.858,118.09],[129.735,118.531],[129.734,118.537],[129.6,118.974],[129.598,118.981],[129.454,119.414],[129.451,119.421],[129.296,119.85],[129.293,119.857],[129.127,120.281],[129.123,120.289],[128.946,120.708],[128.943,120.717],[128.755,121.13],[128.751,121.14],[128.554,121.548],[128.549,121.557],[128.341,121.96],[128.336,121.969],[128.118,122.366],[128.112,122.376],[127.884,122.766],[127.878,122.777],[127.641,123.161],[127.634,123.171],[127.387,123.548],[127.379,123.56],[127.123,123.93],[127.115,123.941],[126.85,124.304],[126.841,124.316],[126.567,124.671],[126.557,124.683],[126.275,125.031],[126.264,125.043],[125.973,125.383],[125.962,125.395],[125.663,125.727],[125.651,125.739],[125.343,126.063],[125.331,126.076],[125.016,126.391],[125.003,126.403],[124.68,126.71],[124.666,126.723],[124.335,127.02],[124.321,127.033],[123.983,127.322],[123.968,127.335],[123.624,127.614],[123.608,127.627],[123.257,127.897],[123.24,127.91],[122.882,128.171],[122.865,128.183],[122.501,128.434],[122.483,128.447],[122.113,128.688],[122.094,128.7],[121.719,128.932],[121.699,128.944],[121.319,129.165],[121.298,129.177],[120.912,129.388],[120.891,129.4],[120.5,129.601],[120.478,129.612],[120.083,129.803],[120.06,129.814],[119.661,129.994],[119.637,130.004],[119.234,130.174],[119.209,130.184],[118.802,130.343],[118.776,130.353],[118.367,130.501],[118.34,130.51],[117.927,130.647],[117.899,130.656],[117.483,130.783],[117.455,130.791],[117.037,130.906],[117.008,130.914],[116.587,131.019],[116.557,131.026],[116.135,131.119],[116.104,131.126],[115.68,131.208],[115.649,131.214],[115.223,131.286],[115.191,131.291],[114.764,131.351],[114.731,131.355],[114.304,131.405],[114.27,131.408],[113.842,131.446],[113.808,131.449],[113.379,131.476],[113.345,131.478],[112.916,131.494],[112.881,131.495],[112.453,131.5],[112.417,131.5],[111.989,131.494],[111.953,131.493],[111.526,131.476],[111.489,131.474],[111.064,131.446],[111.026,131.443],[110.602,131.405],[110.564,131.401],[110.142,131.351],[110.103,131.346],[109.683,131.286],[109.644,131.279],[109.226,131.208],[109.186,131.201],[108.771,131.119],[108.731,131.111],[108.318,131.019],[108.278,131.009],[107.869,130.906],[107.828,130.896],[107.422,130.783],[107.381,130.771],[106.979,130.647],[106.938,130.634],[106.539,130.501],[106.498,130.486],[106.103,130.343],[106.062,130.327],[105.672,130.174],[105.63,130.157],[89.5473,123.5],[89.5473,88.5]]
M73 P0 R24
M106 S0
M106 P2 S0
;TYPE:Custom
M140 S0
M104 S0 
START_PRINT EXTRUDER_TEMP=250 BED_TEMP=80
G90
G21
M83 ; use relative distances for extrusion
; filament start gcode
M106 S0
M106 P2 S0
;LAYER_CHANGE
;Z:0.2
;HEIGHT:0.2
;BEFORE_LAYER_CHANGE
;0.2
G92 E0

G1 E-.6 F2400
;_SET_FAN_SPEED_CHANGING_LAYER
SET_VELOCITY_LIMIT ACCEL=500 ACCEL_TO_DECEL=250
SET_VELOCITY_LIMIT SQUARE_CORNER_VELOCITY=9
EXCLUDE_OBJECT_START NAME=упор_под_мотор.stp_id_0_copy_0
G1 Z.2 F42000
G1 X97.676 Y100.93
G1 Z.2
G1 E.6 F2400
;TYPE:Support
;WIDTH:0.5
G1 F3600
G1 X99.086 Y100.93 E.05143
G1 X98.668 Y101.388 E.02261
G1 X98.063 Y102.114 E.03448
G1 X97.498 Y102.866 E.03432
G1 X96.968 Y103.654 E.03464
G1 X96.484 Y104.46 E.03432
G1 X96.04 Y105.294 E.03448
G1 X95.637 Y106.154 E.03464
G1 X95.281 Y107.029 E.03448
G1 X94.971 Y107.922 E.03447
G1 X94.708 Y108.825 E.03432
G1 X94.491 Y109.744 E.03448
G1 X94.321 Y110.678 E.03464
G1 X94.2 Y111.616 E.03448
G1 X94.127 Y112.558 E.03447
G1 X94.103 Y113.502 E.03448
G1 X94.127 Y114.447 E.03448
G1 X94.2 Y115.389 E.03447
G1 X94.321 Y116.322 E.03432
G1 X94.401 Y116.794 E.0175
G1 X94.594 Y117.717 E.03438
G1 X94.833 Y118.626 E.03432
G1 X94.972 Y119.082 E.0174
G1 X95.283 Y119.975 E.03448
G1 X95.637 Y120.846 E.03431
G1 X96.038 Y121.702 E.03447
G1 X96.257 Y122.126 E.01741
G1 X96.72 Y122.944 E.03431
G1 X97.227 Y123.742 E.03447
G1 X97.498 Y124.134 E.01741
G1 X98.065 Y124.89 E.03448
G1 X98.668 Y125.612 E.03431
G1 X99.21 Y126.201 E.02922
G1 X86.668 Y126.201 E.45763
G1 X86.668 Y84.291 E1.52914
G1 X97.676 Y84.291 E.40164
G1 X97.676 Y100.862 E.60461
G1 X98.166 Y101.342 F42000
G1 F3600
G1 X97.738 Y101.86 E.02453
G1 X97.164 Y102.626 E.0349
G1 X96.884 Y103.031 E.01798
G1 X96.366 Y103.846 E.03524
G1 X95.89 Y104.687 E.03525
G1 X95.463 Y105.543 E.03489
G1 X95.076 Y106.425 E.03515
G1 X94.895 Y106.887 E.0181
G1 X94.579 Y107.799 E.03523
G1 X94.311 Y108.717 E.0349
G1 X94.192 Y109.195 E.01797
G1 X93.994 Y110.141 E.03525
G1 X93.847 Y111.086 E.0349
G1 X93.748 Y112.047 E.03525
G1 X93.698 Y113.012 E.03524
G1 X93.691 Y113.505 E.01798
G1 X93.716 Y114.461 E.0349
G1 X93.79 Y115.424 E.03523
G1 X93.914 Y116.382 E.03526
G1 X93.997 Y116.871 E.01807
G1 X94.194 Y117.814 E.03515
G1 X94.438 Y118.739 E.03491
G1 X94.581 Y119.21 E.01797
G1 X94.896 Y120.113 E.0349
G1 X95.075 Y120.572 E.01799
G1 X95.463 Y121.457 E.03524
G1 X95.89 Y122.313 E.03489
G1 X96.366 Y123.154 E.03525
G1 X96.884 Y123.969 E.03524
G1 X97.164 Y124.374 E.01798
G1 X97.738 Y125.14 E.0349
G1 X98.278 Y125.79 E.03083
G1 X87.079 Y125.79 E.40861
G1 X87.079 Y84.702 E1.49912
G1 X97.265 Y84.702 E.37162
G1 X97.265 Y101.342 E.60711
G1 X98.166 Y101.342 E.03289
G1 X97.102 Y101.85 F42000
G1 F3600
G1 X96.743 Y102.342 E.02225
G1 X96.198 Y103.151 E.03559
G1 X95.929 Y103.587 E.0187
G1 X95.448 Y104.437 E.03562
G1 X95.213 Y104.893 E.01871
G1 X94.793 Y105.791 E.03619
G1 X94.425 Y106.696 E.03563
G1 X94.251 Y107.177 E.01867
G1 X93.954 Y108.107 E.03561
G1 X93.817 Y108.601 E.01871
G1 X93.593 Y109.551 E.03561
G1 X93.414 Y110.527 E.0362
G1 X93.342 Y111.034 E.01871
G1 X93.242 Y112.005 E.03561
G1 X93.19 Y112.996 E.03619
G1 X93.184 Y113.508 E.0187
G1 X93.209 Y114.484 E.03562
G1 X93.242 Y114.995 E.01867
G1 X93.342 Y115.966 E.03562
G1 X93.414 Y116.473 E.01871
G1 X93.589 Y117.434 E.03561
G1 X93.817 Y118.399 E.0362
G1 X93.954 Y118.893 E.01871
G1 X94.25 Y119.823 E.03559
G1 X94.425 Y120.305 E.0187
G1 X94.793 Y121.209 E.03561
G1 X95.213 Y122.107 E.03619
G1 X95.448 Y122.563 E.01871
G1 X95.929 Y123.413 E.03561
G1 X96.198 Y123.849 E.0187
G1 X96.743 Y124.658 E.03559
G1 X97.198 Y125.282 E.02818
G1 X87.587 Y125.282 E.35067
G1 X87.587 Y85.21 E1.46206
G1 X96.757 Y85.21 E.33456
G1 X96.757 Y101.85 E.60711
G1 X97.102 Y101.85 E.01261
G1 X96.249 Y102.163 F42000
G1 F3600
G1 X95.492 Y103.329 E.0507
G1 X95.001 Y104.195 E.03634
G1 X94.757 Y104.668 E.01943
G1 X94.335 Y105.57 E.03631
G1 X94.129 Y106.058 E.01931
G1 X93.777 Y106.991 E.03642
G1 X93.609 Y107.496 E.0194
G1 X93.331 Y108.452 E.03635
G1 X93.202 Y108.968 E.01939
G1 X92.998 Y109.943 E.03634
G1 X92.909 Y110.468 E.01942
G1 X92.782 Y111.455 E.03633
G1 X92.735 Y111.963 E.0186
G1 X92.701 Y112.493 E.01938
G1 X92.676 Y113.489 E.03634
G1 X92.682 Y114.02 E.01941
G1 X92.734 Y115.015 E.03632
G1 X92.782 Y115.544 E.0194
G1 X92.909 Y116.532 E.03635
G1 X92.998 Y117.059 E.01948
G1 X93.207 Y118.053 E.03706
G1 X93.331 Y118.547 E.0186
G1 X93.609 Y119.503 E.03631
G1 X93.777 Y120.008 E.01943
G1 X94.129 Y120.94 E.03634
G1 X94.335 Y121.43 E.0194
G1 X94.757 Y122.332 E.03631
G1 X95.001 Y122.805 E.01943
G1 X95.492 Y123.671 E.03633
G1 X96.197 Y124.774 E.04775
G1 X88.095 Y124.774 E.2956
G1 X88.095 Y85.718 E1.425
G1 X96.249 Y85.718 E.2975
G1 X96.249 Y102.163 E.60003
G1 X95.741 Y102.005 F42000
G1 F3600
G1 X95.055 Y103.07 E.04623
G1 X94.554 Y103.954 E.03706
G1 X94.301 Y104.444 E.02014
G1 X93.871 Y105.363 E.03702
G1 X93.658 Y105.869 E.02003
G1 X93.466 Y106.36 E.01921
G1 X93.133 Y107.316 E.03696
G1 X92.833 Y108.349 E.03922
G1 X92.6 Y109.336 E.03704
G1 X92.494 Y109.878 E.02012
G1 X92.338 Y110.881 E.03705
G1 X92.274 Y111.429 E.02013
G1 X92.195 Y112.441 E.03703
G1 X92.174 Y112.993 E.02015
G1 X92.174 Y114.007 E.03703
G1 X92.194 Y114.53 E.01908
G1 X92.229 Y115.079 E.02008
G1 X92.334 Y116.09 E.03706
G1 X92.499 Y117.153 E.03925
G1 X92.707 Y118.144 E.03695
G1 X92.84 Y118.68 E.02016
G1 X93.124 Y119.654 E.03702
G1 X93.299 Y120.178 E.02016
G1 X93.657 Y121.129 E.03706
G1 X93.859 Y121.61 E.01904
G1 X94.087 Y122.112 E.02012
G1 X94.541 Y123.02 E.03704
G1 X95.25 Y124.266 E.05231
G1 X88.603 Y124.266 E.24255
G1 X88.603 Y86.226 E1.38794
G1 X95.741 Y86.226 E.26044
G1 X95.741 Y102.005 E.57572
G1 X95.233 Y101.845 F42000
G1 F3600
G1 X94.618 Y102.811 E.04178
G1 X94.348 Y103.275 E.01959
G1 X93.862 Y104.188 E.03774
G1 X93.613 Y104.702 E.02082
G1 X93.2 Y105.648 E.03766
G1 X92.808 Y106.685 E.04045
G1 X92.494 Y107.671 E.03776
G1 X92.341 Y108.222 E.02087
G1 X92.212 Y108.741 E.01949
G1 X92 Y109.754 E.03777
G1 X91.83 Y110.848 E.0404
G1 X91.723 Y111.878 E.03778
G1 X91.687 Y112.447 E.02079
G1 X91.66 Y113.482 E.03778
G1 X91.667 Y114.053 E.02084
G1 X91.688 Y114.589 E.01956
G1 X91.768 Y115.619 E.0377
G1 X91.91 Y116.718 E.04042
G1 X92.096 Y117.736 E.03776
G1 X92.22 Y118.292 E.0208
G1 X92.484 Y119.295 E.03782
G1 X92.65 Y119.84 E.02079
G1 X92.82 Y120.348 E.01956
G1 X93.185 Y121.317 E.03778
G1 X93.628 Y122.33 E.04035
G1 X94.091 Y123.256 E.03776
G1 X94.366 Y123.758 E.02089
G1 X89.111 Y123.758 E.19174
G1 X89.111 Y86.734 E1.35088
G1 X95.233 Y86.734 E.22338
G1 X95.233 Y101.845 E.55137
G1 X94.725 Y101.692 F42000
G1 F3600
G1 X94.202 Y102.516 E.0356
G1 X93.904 Y103.028 E.02162
G1 X93.409 Y103.958 E.03845
G1 X93.17 Y104.451 E.01999
G1 X92.715 Y105.492 E.04146
G1 X92.513 Y106.008 E.02019
G1 X92.168 Y107.001 E.03835
G1 X91.849 Y108.096 E.04163
G1 X91.717 Y108.627 E.01996
G1 X91.501 Y109.66 E.03849
G1 X91.326 Y110.786 E.0416
G1 X91.263 Y111.331 E.02
G1 X91.181 Y112.382 E.03845
G1 X91.152 Y113.521 E.04159
G1 X91.179 Y114.576 E.0385
G1 X91.217 Y115.164 E.02149
G1 X91.267 Y115.71 E.02
G1 X91.403 Y116.757 E.03852
G1 X91.607 Y117.878 E.04157
G1 X91.849 Y118.904 E.03845
G1 X91.995 Y119.433 E.02006
G1 X92.341 Y120.518 E.04153
G1 X92.714 Y121.505 E.03851
G1 X92.926 Y122.01 E.01999
G1 X93.509 Y123.25 E.04998
G1 X89.619 Y123.25 E.14195
G1 X89.619 Y87.241 E1.31382
M73 P1 R24
G1 X94.725 Y87.241 E.18632
G1 X94.725 Y101.692 E.52725
G1 X94.217 Y101.541 F42000
G1 F3600
G1 X93.484 Y102.738 E.05123
G1 X92.934 Y103.772 E.04274
G1 X92.69 Y104.277 E.02046
G1 X92.261 Y105.259 E.03909
G1 X91.847 Y106.358 E.04283
G1 X91.67 Y106.89 E.02046
G1 X91.369 Y107.922 E.03924
G1 X91.1 Y109.063 E.04278
G1 X90.908 Y110.119 E.03916
G1 X90.828 Y110.676 E.02051
G1 X90.707 Y111.842 E.04278
G1 X90.652 Y112.914 E.03918
G1 X90.644 Y113.475 E.02047
G1 X90.674 Y114.648 E.04279
G1 X90.757 Y115.717 E.03911
G1 X90.822 Y116.276 E.02053
G1 X91.002 Y117.435 E.0428
G1 X91.221 Y118.484 E.0391
G1 X91.357 Y119.03 E.02053
G1 X91.684 Y120.154 E.04274
G1 X91.863 Y120.688 E.02052
G1 X92.242 Y121.694 E.03922
G1 X92.699 Y122.742 E.04174
G1 X90.126 Y122.742 E.09387
G1 X90.126 Y87.749 E1.27676
G1 X94.217 Y87.749 E.14926
G1 X94.217 Y101.541 E.5032
G1 X91.024 Y119.733 F42000
G1 F3600
G1 X91.384 Y120.858 E.0431
G1 X91.914 Y122.235 E.05382
G1 X90.634 Y122.235 E.04668
G1 X90.634 Y119.791 E.08916
G1 X91.024 Y119.733 E.01437
G1 X91.024 Y107.267 F42000
G1 F3600
G1 X90.634 Y107.209 E.01437
G1 X90.634 Y88.257 E.69148
G1 X93.71 Y88.257 E.1122
G1 X93.71 Y101.389 E.47915
G1 X93.017 Y102.534 E.04881
G1 X92.503 Y103.498 E.03988
G1 X92.229 Y104.065 E.02297
G1 X91.792 Y105.065 E.03981
G1 X91.58 Y105.604 E.02114
G1 X91.366 Y106.194 E.02289
G1 X91.024 Y107.267 E.04111
G1 X91.503 Y104.438 F42000
G1 F3600
G1 X91.142 Y104.36 E.01346
G1 X91.142 Y88.765 E.56899
G1 X93.202 Y88.765 E.07514
G1 X93.202 Y101.237 E.45507
G1 X92.603 Y102.233 E.04237
G1 X92.291 Y102.801 E.02365
G1 X91.794 Y103.796 E.04061
G1 X91.503 Y104.438 E.0257
G1 X91.994 Y102.287 F42000
G1 F3600
G1 X91.65 Y102.198 E.01294
G1 X91.65 Y89.273 E.4716
G1 X92.694 Y89.273 E.03808
G1 X92.694 Y101.093 E.43127
G1 X91.994 Y102.287 E.05049
;WIPE_START
G1 X92.694 Y101.093 E-.41514
G1 X92.694 Y100.477 E-.18486
;WIPE_END
G1 Z.4 F42000
G1 X98.571 Y105.098 Z.4
G1 Z.2
G1 E.6 F2400
;TYPE:Inner wall
;WIDTH:0.499999
G1 F3600
G1 X98.988 Y104.441 E.0284
G1 X99.467 Y103.768 E.03011
G1 X100.27 Y102.779 E.04649
G1 X100.831 Y102.174 E.03011
G1 X101.429 Y101.59 E.03049
G1 X102.057 Y101.039 E.03049
G1 X102.712 Y100.52 E.03049
G1 X103.395 Y100.035 E.03055
G1 X104.098 Y99.587 E.03043
G1 X104.826 Y99.176 E.03049
G1 X105.564 Y98.807 E.03011
G1 X106.728 Y98.316 E.04611
G1 X107.927 Y97.916 E.04611
G1 X108.725 Y97.706 E.03011
G1 X109.543 Y97.535 E.03049
G1 X111.043 Y97.317 E.05529
;WIDTH:0.452443
G1 X111.378 Y97.263 E.0111
;WIDTH:0.404887
G1 X111.796 Y97.233 E.01211
;WIDTH:0.378498
G1 X112.214 Y97.203 E.01122
;WIDTH:0.36125
G1 X112.876 Y97.208 E.01683
;WIDTH:0.390282
G1 X113.381 Y97.249 E.01403
;WIDTH:0.425705
G1 X113.511 Y97.274 E.00404
;WIDTH:0.461128
G1 X113.641 Y97.3 E.00442
;WIDTH:0.496551
G1 X113.77 Y97.325 E.00479
;WIDTH:0.499999
G1 X114.536 Y97.406 E.0281
G1 X115.362 Y97.535 E.03049
G1 X116.18 Y97.706 E.03049
G1 X116.988 Y97.918 E.03049
G1 X117.774 Y98.169 E.03011
G1 X118.961 Y98.634 E.04649
G1 X119.708 Y98.984 E.03011
G1 X120.437 Y99.372 E.03011
G1 X121.522 Y100.043 E.04655
G1 X122.193 Y100.52 E.03005
G1 X122.848 Y101.039 E.03049
G1 X123.476 Y101.59 E.03049
G1 X124.075 Y102.174 E.03049
G1 X124.642 Y102.787 E.03049
G1 X125.178 Y103.429 E.03049
G1 X125.679 Y104.097 E.03049
G1 X126.14 Y104.782 E.03011
G1 X126.782 Y105.884 E.04655
G1 X127.151 Y106.621 E.03005
G1 X127.485 Y107.386 E.03049
G1 X127.768 Y108.136 E.02923
G1 X128.102 Y109.222 E.04146
G1 X128.328 Y110.162 E.03528
G1 X128.465 Y110.892 E.0271
G1 X128.631 Y112.12 E.0452
;WIDTH:0.459497
G1 X128.675 Y112.419 E.01005
;WIDTH:0.418995
G1 X128.718 Y112.718 E.00907
