; HEADER_BLOCK_START
; generated by OrcaSlicer 2.1.0 on 2024-12-19 at 15:48:07
; total layer number: 122
; filament_density: 1.27
; filament_diameter: 1.75
; max_z_height: 19.00
; HEADER_BLOCK_END

; THUMBNAIL_BLOCK_START

;
; THUMBNAIL_BLOCK_END

; THUMBNAIL_BLOCK_START

;
; THUMBNAIL_BLOCK_END

; external perimeters extrusion width = 0.42mm
; perimeters extrusion width = 0.45mm
; infill extrusion width = 0.45mm
; solid infill extrusion width = 0.42mm
; top infill extrusion width = 0.42mm
; support material extrusion width = 0.42mm
; first layer extrusion width = 0.50mm

; EXECUTABLE_BLOCK_START
EXCLUDE_OBJECT_DEFINE NAME=упор_под_мотор_нормис.stp_id_0_copy_0 CENTER=110,110 POLYGON=[[89.6167,96],[91.5167,79.8375],[94.5167,79.8375],[120.843,94.1118],[121.249,94.3349],[121.65,94.5683],[122.044,94.812],[122.432,95.0658],[122.813,95.3295],[123.187,95.6029],[123.554,95.8858],[123.914,96.1782],[124.266,96.4796],[124.61,96.7901],[124.946,97.1093],[125.274,97.437],[125.593,97.7731],[125.904,98.1173],[126.205,98.4693],[126.497,98.829],[126.78,99.1961],[127.054,99.5704],[127.318,99.9516],[127.571,100.339],[127.815,100.734],[128.048,101.134],[128.272,101.54],[128.484,101.952],[128.686,102.37],[128.877,102.792],[129.057,103.219],[129.226,103.65],[129.384,104.086],[129.531,104.526],[129.666,104.969],[129.79,105.416],[129.902,105.866],[130.003,106.318],[130.092,106.773],[130.169,107.23],[130.234,107.689],[130.288,108.149],[130.33,108.611],[130.359,109.073],[130.377,109.537],[130.383,110],[130.377,110.463],[130.359,110.927],[130.33,111.389],[130.288,111.851],[130.234,112.311],[130.169,112.77],[130.092,113.227],[130.003,113.682],[129.902,114.134],[129.79,114.584],[129.666,115.031],[129.531,115.474],[129.384,115.914],[129.226,116.35],[129.057,116.781],[128.877,117.208],[128.686,117.63],[128.484,118.048],[128.272,118.46],[128.048,118.866],[127.815,119.266],[127.571,119.661],[127.318,120.048],[127.054,120.43],[126.78,120.804],[126.497,121.171],[126.205,121.531],[125.904,121.883],[125.593,122.227],[125.274,122.563],[124.946,122.891],[124.61,123.21],[124.266,123.52],[123.914,123.822],[123.554,124.114],[123.187,124.397],[122.813,124.671],[122.432,124.934],[122.044,125.188],[121.65,125.432],[121.249,125.665],[120.843,125.888],[94.5167,140.162],[91.5167,140.162],[89.6167,124],[89.6167,96]]
M73 P0 R25
M106 S0
M106 P2 S0
;TYPE:Custom
M140 S0
M104 S0 
START_PRINT EXTRUDER_TEMP=250 BED_TEMP=80
G90
G21
M83 ; use relative distances for extrusion
; filament start gcode
M106 S0
M106 P2 S0
;LAYER_CHANGE
;Z:0.2
;HEIGHT:0.2
;BEFORE_LAYER_CHANGE
;0.2
G92 E0

G1 E-.6 F2400
;_SET_FAN_SPEED_CHANGING_LAYER
SET_VELOCITY_LIMIT ACCEL=500 ACCEL_TO_DECEL=250
SET_VELOCITY_LIMIT SQUARE_CORNER_VELOCITY=9
EXCLUDE_OBJECT_START NAME=упор_под_мотор_нормис.stp_id_0_copy_0
G1 Z.2 F42000
G1 X100.053 Y79.537
G1 Z.2
G1 E.6 F2400
;TYPE:Support
;WIDTH:0.5
G1 F3600
G1 X102.43 Y79.537 E.08673
G1 X102.43 Y81.914 E.08673
G1 X107.184 Y81.914 E.17346
G1 X107.184 Y84.291 E.08673
G1 X109.561 Y84.291 E.08673
G1 X109.561 Y86.668 E.08673
G1 X114.316 Y86.668 E.17346
G1 X114.316 Y91.753 E.18552
G1 X113.797 Y91.705 E.01899
G1 X112.851 Y91.656 E.03456
G1 X112.381 Y91.65 E.01716
G1 X111.441 Y91.674 E.0343
G1 X110.5 Y91.747 E.03446
G1 X110.026 Y91.802 E.0174
G1 X109.558 Y91.869 E.01723
G1 X108.633 Y92.037 E.0343
G1 X107.714 Y92.254 E.03446
G1 X107.254 Y92.381 E.0174
G1 X106.359 Y92.667 E.0343
G1 X105.91 Y92.83 E.0174
G1 X105.47 Y93.002 E.01724
G1 X104.604 Y93.381 E.0345
G1 X103.762 Y93.801 E.03434
G1 X103.307 Y94.052 E.01895
G1 X103.307 Y92.922 E.04124
G1 X100.93 Y92.922 E.08673
G1 X100.93 Y90.545 E.08673
G1 X97.676 Y90.545 E.11874
G1 X97.676 Y96.176 E.20547
G1 X100.053 Y96.176 E.08673
G1 X100.053 Y96.412 E.0086
G1 X99.243 Y97.192 E.04102
G1 X98.601 Y97.885 E.03448
G1 X97.993 Y98.614 E.03463
G1 X97.429 Y99.366 E.03431
G1 X96.898 Y100.154 E.03466
G1 X96.414 Y100.96 E.03431
G1 X95.968 Y101.798 E.03464
G1 X95.57 Y102.65 E.03431
G1 X95.213 Y103.525 E.03448
G1 X94.902 Y104.422 E.03463
G1 X94.639 Y105.325 E.03431
G1 X94.422 Y106.242 E.03439
G1 X94.252 Y107.174 E.03455
G1 X94.131 Y108.111 E.03448
G1 X94.058 Y109.058 E.03464
G1 X94.033 Y109.998 E.03431
G1 X94.058 Y110.942 E.03448
G1 X94.131 Y111.889 E.03463
G1 X94.252 Y112.821 E.03432
G1 X94.421 Y113.751 E.03448
G1 X94.639 Y114.675 E.03463
G1 X94.903 Y115.582 E.03447
G1 X95.216 Y116.481 E.03472
G1 X95.57 Y117.35 E.03424
G1 X95.97 Y118.206 E.03447
G1 X96.414 Y119.04 E.03448
G1 X96.898 Y119.846 E.03431
G1 X97.429 Y120.634 E.03466
G1 X97.993 Y121.386 E.03431
G1 X98.601 Y122.115 E.03464
G1 X99.243 Y122.808 E.03448
G1 X100.053 Y123.588 E.04102
G1 X100.053 Y123.824 E.0086
G1 X97.676 Y123.824 E.08673
G1 X97.676 Y129.455 E.20547
G1 X100.93 Y129.455 E.11874
G1 X100.93 Y127.078 E.08673
G1 X103.307 Y127.078 E.08673
G1 X103.307 Y125.948 E.04124
G1 X103.76 Y126.198 E.01886
G1 X104.601 Y126.618 E.03431
G1 X105.039 Y126.816 E.01755
G1 X105.91 Y127.17 E.03431
G1 X106.359 Y127.333 E.01739
G1 X107.254 Y127.619 E.0343
G1 X107.714 Y127.746 E.0174
G1 X108.627 Y127.961 E.03423
G1 X109.097 Y128.053 E.01747
G1 X110.026 Y128.198 E.0343
G1 X110.499 Y128.253 E.0174
G1 X111.441 Y128.326 E.03446
G1 X112.381 Y128.35 E.0343
G1 X112.858 Y128.344 E.01741
G1 X113.797 Y128.295 E.03431
G1 X114.316 Y128.247 E.01899
G1 X114.316 Y133.332 E.18552
G1 X109.561 Y133.332 E.17346
G1 X109.561 Y135.709 E.08673
G1 X107.184 Y135.709 E.08673
G1 X107.184 Y138.086 E.08673
G1 X102.43 Y138.086 E.17346
G1 X102.43 Y140.463 E.08673
G1 X100.053 Y140.463 E.08673
G1 X100.053 Y142.84 E.08673
G1 X89.045 Y142.84 E.40164
G1 X89.045 Y126.201 E.60711
G1 X86.668 Y126.201 E.08673
G1 X86.668 Y93.799 E1.18222
G1 X89.045 Y93.799 E.08673
G1 X89.045 Y77.16 E.60711
G1 X100.053 Y77.16 E.40164
G1 X100.053 Y79.468 E.08423
G1 X93.622 Y109.995 F42000
G1 F3600
G1 X93.647 Y110.961 E.03526
G1 X93.722 Y111.934 E.03559
G1 X93.845 Y112.882 E.0349
G1 X94.018 Y113.833 E.03525
G1 X94.239 Y114.773 E.03524
G1 X94.509 Y115.7 E.03524
G1 X94.665 Y116.168 E.018
G1 X95.006 Y117.072 E.03525
G1 X95.389 Y117.948 E.03488
G1 X95.82 Y118.813 E.03525
G1 X96.296 Y119.653 E.03524
G1 X96.814 Y120.468 E.03524
G1 X97.38 Y121.264 E.03563
G1 X97.973 Y122.014 E.03489
G1 X98.611 Y122.74 E.03525
G1 X99.265 Y123.412 E.03424
G1 X97.265 Y123.412 E.073
G1 X97.265 Y129.867 E.23549
G1 X101.342 Y129.867 E.14876
G1 X101.342 Y127.49 E.08673
G1 X103.719 Y127.49 E.08673
G1 X103.719 Y126.639 E.03103
G1 X104.877 Y127.194 E.04686
G1 X105.322 Y127.382 E.01763
G1 X106.217 Y127.719 E.03487
G1 X107.146 Y128.016 E.03561
G1 X108.07 Y128.259 E.03487
G1 X108.545 Y128.365 E.01774
G1 X109.026 Y128.458 E.01786
G1 X109.97 Y128.606 E.03488
G1 X110.46 Y128.663 E.01798
G1 X111.413 Y128.736 E.03487
G1 X111.905 Y128.755 E.01799
G1 X112.861 Y128.755 E.03489
G1 X113.904 Y128.699 E.0381
G1 X113.904 Y132.921 E.15404
G1 X109.15 Y132.921 E.17346
G1 X109.15 Y135.298 E.08673
G1 X106.773 Y135.298 E.08673
G1 X106.773 Y137.675 E.08673
G1 X102.019 Y137.675 E.17346
G1 X102.019 Y140.052 E.08673
G1 X99.642 Y140.052 E.08673
G1 X99.642 Y142.429 E.08673
G1 X89.456 Y142.429 E.37162
G1 X89.456 Y125.79 E.60711
G1 X87.079 Y125.79 E.08673
G1 X87.079 Y94.21 E1.1522
G1 X89.456 Y94.21 E.08673
G1 X89.456 Y77.571 E.60711
G1 X99.642 Y77.571 E.37162
G1 X99.642 Y79.948 E.08673
G1 X102.019 Y79.948 E.08673
G1 X102.019 Y82.325 E.08673
G1 X106.773 Y82.325 E.17346
G1 X106.773 Y84.702 E.08673
G1 X109.15 Y84.702 E.08673
G1 X109.15 Y87.079 E.08673
G1 X113.904 Y87.079 E.17346
G1 X113.904 Y91.301 E.15404
G1 X112.855 Y91.245 E.03834
G1 X111.905 Y91.245 E.03465
G1 X111.413 Y91.264 E.01799
G1 X110.46 Y91.337 E.03486
G1 X109.97 Y91.394 E.01799
G1 X109.492 Y91.463 E.01762
G1 X108.552 Y91.634 E.03489
G1 X108.071 Y91.741 E.01797
G1 X107.146 Y91.984 E.03488
G1 X106.217 Y92.281 E.0356
G1 X105.322 Y92.618 E.03489
G1 X104.871 Y92.808 E.01786
G1 X103.719 Y93.361 E.04662
G1 X103.719 Y92.51 E.03103
G1 X101.342 Y92.51 E.08673
G1 X101.342 Y90.133 E.08673
G1 X97.265 Y90.133 E.14876
G1 X97.265 Y96.588 E.23549
G1 X99.265 Y96.588 E.073
G1 X98.611 Y97.26 E.03423
G1 X97.973 Y97.986 E.03526
G1 X97.38 Y98.736 E.03489
G1 X96.814 Y99.532 E.03563
G1 X96.296 Y100.347 E.03524
G1 X95.82 Y101.187 E.03525
G1 X95.389 Y102.052 E.03525
G1 X95.006 Y102.928 E.03489
G1 X94.662 Y103.841 E.0356
G1 X94.371 Y104.752 E.0349
G1 X94.125 Y105.686 E.03524
G1 X93.927 Y106.632 E.03524
G1 X93.845 Y107.118 E.01799
G1 X93.721 Y108.076 E.03525
G1 X93.647 Y109.039 E.03524
G1 X93.622 Y109.995 E.0349
G1 X93.114 Y109.992 F42000
G1 F3600
G1 X93.121 Y110.504 E.0187
G1 X93.172 Y111.495 E.0362
G1 X93.275 Y112.482 E.03621
G1 X93.428 Y113.462 E.03618
M73 P1 R25
G1 X93.631 Y114.433 E.03622
G1 X93.879 Y115.377 E.0356
G1 X94.181 Y116.323 E.03621
G1 X94.358 Y116.811 E.01894
G1 X94.723 Y117.709 E.03538
G1 X95.143 Y118.607 E.03618
G1 X95.378 Y119.063 E.01872
G1 X95.867 Y119.926 E.03619
G1 X96.4 Y120.763 E.03619
G1 X96.966 Y121.559 E.03563
G1 X97.581 Y122.337 E.03621
G1 X98.067 Y122.905 E.02726
G1 X96.757 Y122.905 E.04781
G1 X96.757 Y130.375 E.27255
G1 X101.85 Y130.375 E.18582
G1 X101.85 Y127.997 E.08673
G1 X104.227 Y127.997 E.08673
G1 X104.227 Y127.458 E.0197
G1 X105.119 Y127.848 E.03553
G1 X105.581 Y128.029 E.0181
G1 X106.533 Y128.36 E.03677
G1 X107.485 Y128.636 E.0362
G1 X108.428 Y128.859 E.03536
G1 X108.922 Y128.956 E.01834
G1 X109.918 Y129.111 E.0368
G1 X110.411 Y129.168 E.01809
G1 X111.383 Y129.243 E.03559
G1 X112.391 Y129.269 E.0368
G1 X113.396 Y129.243 E.03667
G1 X113.396 Y132.413 E.11566
G1 X108.642 Y132.413 E.17346
G1 X108.642 Y134.79 E.08673
G1 X106.265 Y134.79 E.08673
G1 X106.265 Y137.167 E.08673
G1 X101.511 Y137.167 E.17346
G1 X101.511 Y139.544 E.08673
G1 X99.134 Y139.544 E.08673
G1 X99.134 Y141.921 E.08673
G1 X89.964 Y141.921 E.33456
G1 X89.964 Y125.282 E.60711
G1 X87.587 Y125.282 E.08673
G1 X87.587 Y94.718 E1.11514
G1 X89.964 Y94.718 E.08673
G1 X89.964 Y78.079 E.60711
G1 X99.134 Y78.079 E.33456
G1 X99.134 Y80.456 E.08673
G1 X101.511 Y80.456 E.08673
G1 X101.511 Y82.833 E.08673
G1 X106.265 Y82.833 E.17346
G1 X106.265 Y85.21 E.08673
G1 X108.642 Y85.21 E.08673
G1 X108.642 Y87.587 E.08673
G1 X113.396 Y87.587 E.17346
G1 X113.396 Y90.757 E.11566
G1 X112.391 Y90.731 E.03667
G1 X111.383 Y90.757 E.0368
G1 X110.888 Y90.789 E.01809
G1 X109.918 Y90.889 E.03558
G1 X108.922 Y91.044 E.03677
G1 X108.435 Y91.14 E.01813
G1 X107.485 Y91.364 E.03559
G1 X106.518 Y91.645 E.03676
G1 X105.581 Y91.972 E.03622
G1 X105.118 Y92.153 E.01812
G1 X104.227 Y92.542 E.0355
G1 X104.227 Y92.003 E.01969
G1 X101.85 Y92.003 E.08673
G1 X101.85 Y89.625 E.08673
G1 X96.757 Y89.625 E.18582
G1 X96.757 Y97.095 E.27255
G1 X98.067 Y97.095 E.0478
G1 X97.581 Y97.663 E.02726
G1 X96.966 Y98.441 E.0362
G1 X96.4 Y99.237 E.03563
G1 X95.867 Y100.074 E.03619
G1 X95.609 Y100.517 E.0187
G1 X95.143 Y101.393 E.0362
G1 X94.723 Y102.291 E.03619
G1 X94.355 Y103.196 E.03564
G1 X94.029 Y104.132 E.03617
G1 X93.751 Y105.085 E.03621
G1 X93.525 Y106.044 E.03595
G1 X93.425 Y106.553 E.01893
G1 X93.275 Y107.518 E.03562
G1 X93.215 Y108.027 E.0187
G1 X93.139 Y109.016 E.03619
G1 X93.114 Y109.992 E.03562
G1 X92.606 Y109.989 F42000
G1 F3600
G1 X92.613 Y110.52 E.01941
G1 X92.666 Y111.537 E.03715
G1 X92.771 Y112.55 E.03717
G1 X92.924 Y113.533 E.03629
G1 X93.027 Y114.057 E.01947
G1 X93.261 Y115.047 E.03713
G1 X93.539 Y116.002 E.0363
G1 X93.708 Y116.508 E.01946
G1 X94.059 Y117.44 E.03633
G1 X94.466 Y118.373 E.03714
G1 X94.698 Y118.851 E.01939
G1 X95.166 Y119.731 E.03634
G1 X95.434 Y120.19 E.01941
G1 X95.98 Y121.049 E.03714
G1 X96.557 Y121.861 E.03634
G1 X96.97 Y122.397 E.02469
G1 X96.249 Y122.397 E.02632
G1 X96.249 Y130.882 E.30961
G1 X102.357 Y130.882 E.22288
G1 X102.357 Y128.505 E.08673
G1 X104.735 Y128.505 E.08673
G1 X104.735 Y128.243 E.00959
G1 X105.876 Y128.676 E.04456
G1 X106.847 Y128.986 E.03718
G1 X107.853 Y129.251 E.03795
G1 X108.827 Y129.455 E.03633
G1 X109.834 Y129.612 E.03716
G1 X110.869 Y129.719 E.03796
G1 X111.886 Y129.771 E.03716
G1 X112.888 Y129.771 E.03658
G1 X112.888 Y131.905 E.07787
G1 X108.134 Y131.905 E.17346
G1 X108.134 Y134.282 E.08673
G1 X105.757 Y134.282 E.08673
G1 X105.757 Y136.659 E.08673
G1 X101.003 Y136.659 E.17346
G1 X101.003 Y139.036 E.08673
G1 X98.626 Y139.036 E.08673
G1 X98.626 Y141.413 E.08673
G1 X90.472 Y141.413 E.2975
G1 X90.472 Y124.774 E.60711
G1 X88.095 Y124.774 E.08673
G1 X88.095 Y95.226 E1.07808
G1 X90.472 Y95.226 E.08673
G1 X90.472 Y78.587 E.60711
G1 X98.626 Y78.587 E.2975
G1 X98.626 Y80.964 E.08673
G1 X101.003 Y80.964 E.08673
G1 X101.003 Y83.341 E.08673
G1 X105.757 Y83.341 E.17346
G1 X105.757 Y85.718 E.08673
G1 X108.134 Y85.718 E.08673
G1 X108.134 Y88.095 E.08673
G1 X112.888 Y88.095 E.17346
G1 X112.888 Y90.229 E.07787
G1 X111.863 Y90.23 E.03742
G1 X110.846 Y90.283 E.03716
G1 X109.834 Y90.388 E.03713
G1 X108.828 Y90.545 E.03712
G1 X107.831 Y90.754 E.03718
G1 X106.847 Y91.014 E.03714
G1 X105.877 Y91.324 E.03715
G1 X104.735 Y91.757 E.04458
G1 X104.735 Y91.495 E.00959
G1 X102.357 Y91.495 E.08673
G1 X102.357 Y89.118 E.08673
G1 X96.249 Y89.118 E.22288
G1 X96.249 Y97.603 E.30961
G1 X96.97 Y97.603 E.02632
G1 X96.557 Y98.139 E.02469
G1 X95.98 Y98.951 E.03634
G1 X95.434 Y99.81 E.03714
G1 X95.166 Y100.269 E.01941
G1 X94.698 Y101.148 E.03632
G1 X94.466 Y101.627 E.01942
G1 X94.067 Y102.539 E.03633
G1 X93.708 Y103.492 E.03714
G1 X93.539 Y103.997 E.01942
G1 X93.261 Y104.953 E.03634
G1 X93.028 Y105.937 E.0369
G1 X92.925 Y106.466 E.01965
G1 X92.771 Y107.45 E.03634
G1 X92.71 Y107.978 E.01941
G1 X92.632 Y108.993 E.03713
G1 X92.606 Y109.989 E.03634
G1 X92.098 Y109.985 F42000
G1 F3600
G1 X92.105 Y110.537 E.02012
G1 X92.158 Y111.55 E.03703
G1 X92.207 Y112.099 E.02012
G1 X92.338 Y113.107 E.03707
G1 X92.429 Y113.65 E.02009
G1 X92.637 Y114.644 E.03706
G1 X92.771 Y115.18 E.02013
G1 X93.054 Y116.154 E.03701
G1 X93.229 Y116.678 E.02019
G1 X93.587 Y117.628 E.03705
G1 X93.802 Y118.137 E.02012
G1 X94.232 Y119.055 E.03699
G1 X94.485 Y119.546 E.02017
G1 X94.985 Y120.429 E.03702
G1 X95.741 Y121.596 E.05072
G1 X95.741 Y131.39 E.35737
G1 X102.865 Y131.39 E.25994
G1 X102.865 Y129.013 E.08673
G1 X105.316 Y129.013 E.08942
G1 X106.23 Y129.329 E.03528
G1 X107.204 Y129.613 E.03704
G1 X108.214 Y129.852 E.03786
G1 X108.762 Y129.959 E.02037
G1 X109.765 Y130.115 E.03704
G1 X110.803 Y130.223 E.03808
G1 X111.353 Y130.259 E.02012
G1 X112.381 Y130.285 E.03749
G1 X112.381 Y131.397 E.04058
G1 X107.626 Y131.397 E.17346
G1 X107.626 Y133.774 E.08673
G1 X105.249 Y133.774 E.08673
G1 X105.249 Y136.151 E.08673
G1 X100.495 Y136.151 E.17346
G1 X100.495 Y138.528 E.08673
G1 X98.118 Y138.528 E.08673
G1 X98.118 Y140.906 E.08673
M73 P2 R25
G1 X90.98 Y140.906 E.26044
G1 X90.98 Y124.266 E.60711
G1 X88.603 Y124.266 E.08673
G1 X88.603 Y95.734 E1.04102
G1 X90.98 Y95.734 E.08673
G1 X90.98 Y79.094 E.60711
G1 X98.118 Y79.094 E.26044
G1 X98.118 Y81.472 E.08673
G1 X100.495 Y81.472 E.08673
M73 P2 R24
G1 X100.495 Y83.849 E.08673
G1 X105.249 Y83.849 E.17346
G1 X105.249 Y86.226 E.08673
G1 X107.626 Y86.226 E.08673
G1 X107.626 Y88.603 E.08673
G1 X112.381 Y88.603 E.17346
G1 X112.381 Y89.715 E.04057
G1 X111.353 Y89.741 E.03749
G1 X110.803 Y89.777 E.02012
G1 X109.765 Y89.885 E.03808
G1 X108.763 Y90.041 E.03699
G1 X108.221 Y90.147 E.02018
G1 X107.204 Y90.387 E.0381
G1 X106.231 Y90.67 E.03698
G1 X105.316 Y90.987 E.03534
G1 X102.865 Y90.987 E.08941
G1 X102.865 Y88.61 E.08673
G1 X95.741 Y88.61 E.25994
G1 X95.741 Y98.404 E.35737
G1 X94.985 Y99.571 E.05072
G1 X94.485 Y100.454 E.03703
G1 X94.232 Y100.944 E.02013
G1 X93.802 Y101.863 E.03702
G1 X93.587 Y102.372 E.02016
G1 X93.229 Y103.322 E.03701
G1 X93.055 Y103.845 E.02014
G1 X92.771 Y104.82 E.03706
G1 X92.637 Y105.355 E.02012
G1 X92.43 Y106.348 E.03701
G1 X92.338 Y106.893 E.02016
G1 X92.207 Y107.9 E.03704
G1 X92.16 Y108.421 E.01908
G1 X92.125 Y108.97 E.02008
G1 X92.098 Y109.985 E.03706
G1 X91.59 Y109.982 F42000
G1 F3600
G1 X91.598 Y110.553 E.02084
G1 X91.651 Y111.586 E.03774
G1 X91.702 Y112.155 E.02083
G1 X91.835 Y113.182 E.03779
G1 X91.93 Y113.744 E.0208
G1 X92.142 Y114.758 E.03779
G1 X92.28 Y115.312 E.02085
G1 X92.569 Y116.305 E.03772
G1 X92.751 Y116.848 E.02091
G1 X93.116 Y117.817 E.03777
G1 X93.338 Y118.343 E.02084
