; HEADER_BLOCK_START
; generated by OrcaSlicer 2.1.0 on 2024-11-09 at 16:11:34
; total layer number: 122
; filament_density: 1.27
; filament_diameter: 1.75
; max_z_height: 19.00
; HEADER_BLOCK_END

; THUMBNAIL_BLOCK_START

;
; THUMBNAIL_BLOCK_END

; THUMBNAIL_BLOCK_START

;
; THUMBNAIL_BLOCK_END

; external perimeters extrusion width = 0.42mm
; perimeters extrusion width = 0.45mm
; infill extrusion width = 0.45mm
; solid infill extrusion width = 0.42mm
; top infill extrusion width = 0.42mm
; support material extrusion width = 0.42mm
; first layer extrusion width = 0.50mm

; EXECUTABLE_BLOCK_START
EXCLUDE_OBJECT_DEFINE NAME=упор_под_мотор_2_3_.stp_id_0_copy_0 CENTER=111.286,121.187 POLYGON=[[90.703,109.687],[92.603,98.6868],[95.603,98.6868],[118.842,106.089],[119.288,106.231],[119.73,106.385],[120.169,106.55],[120.602,106.726],[121.031,106.912],[121.456,107.11],[121.875,107.319],[122.288,107.538],[122.696,107.767],[123.098,108.007],[123.494,108.257],[123.883,108.517],[124.266,108.787],[124.641,109.067],[125.01,109.355],[125.37,109.654],[125.724,109.961],[126.069,110.277],[126.406,110.602],[126.734,110.935],[127.055,111.277],[127.366,111.626],[127.668,111.984],[127.961,112.349],[128.245,112.721],[128.519,113.1],[128.784,113.487],[129.038,113.879],[129.283,114.279],[129.517,114.684],[129.741,115.095],[129.954,115.512],[130.156,115.934],[130.348,116.361],[130.529,116.792],[130.699,117.229],[130.858,117.669],[131.005,118.113],[131.141,118.561],[131.266,119.012],[131.379,119.466],[131.481,119.923],[131.571,120.383],[131.649,120.844],[131.715,121.308],[131.77,121.773],[131.813,122.239],[131.843,122.706],[131.862,123.173],[131.87,123.641],[131.865,124.11],[131.848,124.577],[131.819,125.045],[131.779,125.511],[131.727,125.976],[131.663,126.44],[131.587,126.902],[131.499,127.361],[131.4,127.819],[131.289,128.274],[131.166,128.725],[131.032,129.174],[130.887,129.619],[130.731,130.06],[130.563,130.497],[130.384,130.93],[130.194,131.358],[129.994,131.781],[129.783,132.198],[129.561,132.611],[129.329,133.017],[129.086,133.417],[128.834,133.811],[128.571,134.199],[128.299,134.58],[128.017,134.953],[127.726,135.32],[127.425,135.679],[127.116,136.03],[126.797,136.373],[126.47,136.708],[126.135,137.034],[125.791,137.352],[125.439,137.661],[125.08,137.961],[124.713,138.252],[124.339,138.533],[123.958,138.805],[123.57,139.067],[123.175,139.319],[122.775,139.561],[122.368,139.792],[121.955,140.013],[121.537,140.224],[121.114,140.424],[120.686,140.613],[120.253,140.791],[119.816,140.958],[119.374,141.114],[118.929,141.258],[118.48,141.391],[118.028,141.513],[117.573,141.623],[117.116,141.722],[116.656,141.809],[116.194,141.884],[115.73,141.947],[115.265,141.999],[114.798,142.039],[92.603,143.687],[90.703,143.687],[90.703,109.687]]
M73 P0 R19
M106 S0
M106 P2 S0
;TYPE:Custom
M140 S0
M104 S0 
START_PRINT EXTRUDER_TEMP=250 BED_TEMP=80
G90
G21
M83 ; use relative distances for extrusion
; filament start gcode
M106 S0
M106 P2 S0
;LAYER_CHANGE
;Z:0.2
;HEIGHT:0.2
;BEFORE_LAYER_CHANGE
;0.2
G92 E0

G1 E-.6 F2400
;_SET_FAN_SPEED_CHANGING_LAYER
SET_VELOCITY_LIMIT ACCEL=500 ACCEL_TO_DECEL=250
SET_VELOCITY_LIMIT SQUARE_CORNER_VELOCITY=9
EXCLUDE_OBJECT_START NAME=упор_под_мотор_2_3_.stp_id_0_copy_0
G1 Z.2 F42000
G1 X98.962 Y109.74
G1 Z.2
G1 E.6 F2400
;TYPE:Support
;WIDTH:0.5
G1 F3600
G1 X101.339 Y109.74 E.08673
G1 X101.339 Y109.918 E.00651
G1 X100.33 Y110.878 E.05082
G1 X99.688 Y111.571 E.03448
G1 X99.08 Y112.3 E.03464
G1 X98.515 Y113.053 E.03432
G1 X97.985 Y113.84 E.03464
G1 X97.499 Y114.65 E.03448
G1 X97.055 Y115.485 E.03448
G1 X96.849 Y115.91 E.01724
G1 X96.473 Y116.77 E.03423
G1 X96.138 Y117.66 E.03472
G1 X95.85 Y118.56 E.03448
G1 X95.724 Y119.016 E.01725
G1 X95.508 Y119.931 E.03431
G1 X95.338 Y120.865 E.03464
G1 X95.217 Y121.802 E.03448
G1 X95.144 Y122.74 E.03431
G1 X95.126 Y123.212 E.01724
G1 X95.126 Y124.162 E.03464
G1 X95.175 Y125.105 E.03448
G1 X95.272 Y126.045 E.03448
G1 X95.417 Y126.974 E.03431
G1 X95.61 Y127.899 E.03447
G1 X95.725 Y128.362 E.01741
G1 X95.989 Y129.269 E.03447
G1 X96.3 Y130.162 E.03448
G1 X96.656 Y131.037 E.03448
G1 X97.055 Y131.889 E.03431
G1 X97.501 Y132.727 E.03464
G1 X97.985 Y133.533 E.03432
G1 X98.513 Y134.317 E.03448
G1 X98.794 Y134.703 E.0174
G1 X99.38 Y135.443 E.03447
G1 X100.001 Y136.15 E.03432
G1 X100.661 Y136.827 E.03447
G1 X101.265 Y137.388 E.03007
G1 X96.585 Y137.388 E.17073
G1 X96.585 Y146.896 E.34692
G1 X87.954 Y146.896 E.31491
G1 X87.954 Y107.363 E1.44241
G1 X90.331 Y107.363 E.08673
G1 X90.331 Y95.478 E.43365
G1 X98.962 Y95.478 E.31491
G1 X98.962 Y109.671 E.51788
G1 X100.48 Y110.151 F42000
G1 F3600
G1 X100.03 Y110.596 E.02307
G1 X99.374 Y111.305 E.03525
G1 X98.755 Y112.047 E.03525
G1 X98.176 Y112.82 E.03526
G1 X97.637 Y113.622 E.03524
G1 X97.14 Y114.45 E.03525
G1 X96.686 Y115.303 E.03525
G1 X96.276 Y116.178 E.03526
G1 X95.913 Y117.073 E.03525
G1 X95.595 Y117.986 E.03525
G1 X95.328 Y118.904 E.0349
G1 X95.104 Y119.854 E.0356
G1 X94.931 Y120.804 E.03525
G1 X94.808 Y121.753 E.03489
G1 X94.733 Y122.726 E.0356
G1 X94.708 Y123.682 E.0349
G1 X94.733 Y124.648 E.03526
G1 X94.808 Y125.62 E.03559
G1 X94.931 Y126.569 E.0349
G1 X95.103 Y127.513 E.035
G1 X95.211 Y128 E.01822
G1 X95.457 Y128.935 E.03527
G1 X95.751 Y129.855 E.03524
G1 X96.092 Y130.759 E.03526
G1 X96.479 Y131.644 E.03524
G1 X96.907 Y132.5 E.0349
G1 X97.383 Y133.341 E.03524
G1 X97.901 Y134.156 E.03525
G1 X98.461 Y134.944 E.03525
G1 X99.06 Y135.701 E.03524
G1 X99.698 Y136.427 E.03527
G1 X100.229 Y136.976 E.02786
G1 X96.174 Y136.976 E.14795
G1 X96.174 Y146.485 E.34692
G1 X88.366 Y146.485 E.28489
G1 X88.366 Y107.774 E1.41239
G1 X90.743 Y107.774 E.08673
G1 X90.743 Y95.889 E.43365
G1 X98.551 Y95.889 E.28489
G1 X98.551 Y110.151 E.52038
G1 X100.48 Y110.151 E.07038
G1 X99.259 Y110.659 F42000
G1 F3600
G1 X98.668 Y111.35 E.03316
G1 X98.052 Y112.128 E.03619
G1 X97.487 Y112.923 E.03562
G1 X96.954 Y113.76 E.03619
G1 X96.696 Y114.203 E.01869
G1 X96.23 Y115.079 E.0362
G1 X95.816 Y115.963 E.03562
G1 X95.442 Y116.882 E.03619
G1 X95.268 Y117.363 E.01868
G1 X94.966 Y118.309 E.03622
G1 X94.714 Y119.269 E.03622
G1 X94.511 Y120.24 E.03619
G1 X94.361 Y121.205 E.03562
G1 X94.302 Y121.714 E.0187
G1 X94.226 Y122.703 E.03619
G1 X94.2 Y123.679 E.03562
G1 X94.207 Y124.191 E.0187
G1 X94.258 Y125.182 E.0362
G1 X94.361 Y126.169 E.03621
G1 X94.514 Y127.149 E.0362
G1 X94.717 Y128.12 E.03619
G1 X94.966 Y129.065 E.03564
G1 X95.267 Y130.01 E.03619
G1 X95.442 Y130.492 E.0187
G1 X95.816 Y131.411 E.0362
G1 X96.23 Y132.295 E.03561
G1 X96.696 Y133.17 E.03619
G1 X96.954 Y133.614 E.01872
G1 X97.478 Y134.437 E.0356
G1 X98.052 Y135.246 E.0362
G1 X98.668 Y136.024 E.03619
G1 X99.048 Y136.468 E.02135
G1 X95.666 Y136.468 E.1234
G1 X95.666 Y145.977 E.34692
G1 X88.873 Y145.977 E.24783
G1 X88.873 Y108.282 E1.37533
G1 X91.25 Y108.282 E.08673
G1 X91.25 Y96.397 E.43365
G1 X98.043 Y96.397 E.24783
G1 X98.043 Y110.659 E.52038
G1 X99.259 Y110.659 E.04435
G1 X98.151 Y111.167 F42000
G1 F3600
G1 X97.644 Y111.825 E.03032
G1 X97.067 Y112.637 E.03634
G1 X96.52 Y113.496 E.03714
G1 X96.252 Y113.955 E.01941
G1 X95.785 Y114.834 E.03632
G1 X95.553 Y115.313 E.01942
G1 X95.148 Y116.24 E.0369
G1 X94.794 Y117.177 E.03656
G1 X94.626 Y117.683 E.01945
G1 X94.347 Y118.639 E.03634
G1 X94.219 Y119.156 E.01941
G1 X94.011 Y120.152 E.03713
G1 X93.858 Y121.136 E.03635
G1 X93.796 Y121.665 E.01942
G1 X93.718 Y122.68 E.03714
G1 X93.693 Y123.675 E.03634
G1 X93.699 Y124.207 E.01941
G1 X93.752 Y125.224 E.03715
G1 X93.855 Y126.215 E.03633
G1 X93.93 Y126.742 E.01943
G1 X94.107 Y127.714 E.03607
G1 X94.224 Y128.24 E.01964
G1 X94.478 Y129.204 E.03637
G1 X94.787 Y130.173 E.03714
G1 X94.968 Y130.674 E.01942
G1 X95.352 Y131.617 E.03716
G1 X95.774 Y132.519 E.03633
G1 X96.019 Y132.992 E.01945
G1 X96.509 Y133.858 E.03631
G1 X97.055 Y134.718 E.03715
G1 X97.358 Y135.156 E.01943
G1 X97.962 Y135.961 E.03673
G1 X95.158 Y135.961 E.10231
G1 X95.158 Y145.469 E.34692
G1 X89.381 Y145.469 E.21077
G1 X89.381 Y108.79 E1.33827
M73 P1 R19
G1 X91.758 Y108.79 E.08673
G1 X91.758 Y96.905 E.43365
G1 X97.535 Y96.905 E.21077
G1 X97.535 Y111.167 E.52038
G1 X98.151 Y111.167 E.02248
G1 X97.027 Y111.809 F42000
G1 F3600
G1 X96.631 Y112.375 E.02522
G1 X96.087 Y113.232 E.03702
G1 X95.809 Y113.708 E.02012
G1 X95.332 Y114.604 E.03704
G1 X95.091 Y115.101 E.02013
G1 X94.687 Y116.025 E.03679
G1 X94.483 Y116.545 E.02039
G1 X94.15 Y117.504 E.03703
G1 X93.989 Y118.031 E.02012
G1 X93.73 Y119.014 E.03707
G1 X93.611 Y119.552 E.02011
G1 X93.429 Y120.55 E.03704
G1 X93.351 Y121.097 E.02014
G1 X93.246 Y122.107 E.03704
G1 X93.211 Y122.657 E.0201
G1 X93.185 Y123.672 E.03706
G1 X93.192 Y124.224 E.02012
G1 X93.244 Y125.237 E.03704
G1 X93.294 Y125.786 E.02011
G1 X93.424 Y126.794 E.03708
G1 X93.516 Y127.338 E.0201
G1 X93.73 Y128.359 E.03809
G1 X93.989 Y129.342 E.03709
G1 X94.149 Y129.868 E.02006
G1 X94.315 Y130.365 E.0191
G1 X94.674 Y131.316 E.03708
G1 X95.091 Y132.272 E.03808
G1 X95.332 Y132.769 E.02013
G1 X95.808 Y133.665 E.03702
G1 X96.087 Y134.142 E.02017
G1 X96.632 Y134.999 E.03703
G1 X96.945 Y135.453 E.02014
G1 X94.65 Y135.453 E.08373
G1 X94.65 Y144.961 E.34692
G1 X89.889 Y144.961 E.17371
G1 X89.889 Y109.298 E1.30121
G1 X92.266 Y109.298 E.08673
G1 X92.266 Y97.413 E.43365
G1 X97.027 Y97.413 E.17371
G1 X97.027 Y111.809 E.52527
G1 X96.519 Y111.644 F42000
G1 F3600
G1 X95.935 Y112.512 E.0382
G1 X95.634 Y112.998 E.02084
G1 X95.125 Y113.898 E.03774
G1 X94.863 Y114.406 E.02084
G1 X94.424 Y115.344 E.03779
G1 X94.205 Y115.863 E.02055
G1 X94.007 Y116.369 E.01982
G1 X93.667 Y117.346 E.03775
G1 X93.358 Y118.409 E.04041
G1 X93.12 Y119.416 E.03772
G1 X93.011 Y119.976 E.02083
G1 X92.851 Y120.999 E.03779
G1 X92.785 Y121.567 E.02085
G1 X92.705 Y122.598 E.03773
G1 X92.683 Y123.17 E.02087
G1 X92.683 Y124.204 E.03774
G1 X92.705 Y124.776 E.02087
G1 X92.785 Y125.806 E.0377
G1 X92.851 Y126.374 E.02087
G1 X93.01 Y127.396 E.03775
G1 X93.119 Y127.95 E.02059
G1 X93.237 Y128.479 E.01976
G1 X93.501 Y129.481 E.03782
G1 X93.667 Y130.026 E.02076
G1 X94.007 Y131.004 E.0378
G1 X94.216 Y131.538 E.0209
G1 X94.63 Y132.485 E.03771
G1 X94.879 Y132.999 E.02086
G1 X95.365 Y133.912 E.03772
G1 X95.986 Y134.945 E.04399
G1 X94.142 Y134.945 E.06726
G1 X94.142 Y144.453 E.34692
G1 X90.397 Y144.453 E.13665
G1 X90.397 Y109.806 E1.26415
G1 X92.774 Y109.806 E.08673
G1 X92.774 Y97.92 E.43365
G1 X96.519 Y97.92 E.13665
G1 X96.519 Y111.644 E.50071
G1 X96.012 Y111.485 F42000
G1 F3600
G1 X95.508 Y112.237 E.03301
G1 X95.197 Y112.739 E.02156
G1 X94.922 Y113.213 E.02
G1 X94.426 Y114.144 E.03847
G1 X93.943 Y115.176 E.0416
G1 X93.546 Y116.153 E.03845
G1 X93.359 Y116.667 E.01996
G1 X93.012 Y117.754 E.04163
G1 X92.866 Y118.283 E.02006
G1 X92.624 Y119.309 E.03843
G1 X92.419 Y120.43 E.04157
G1 X92.284 Y121.475 E.03848
G1 X92.231 Y122.064 E.02157
G1 X92.177 Y123.117 E.03848
G1 X92.169 Y123.708 E.02155
G1 X92.196 Y124.763 E.0385
G1 X92.234 Y125.351 E.02152
G1 X92.342 Y126.4 E.03847
G1 X92.419 Y126.944 E.02004
G1 X92.518 Y127.526 E.02153
G1 X92.733 Y128.556 E.0384
G1 X92.877 Y129.132 E.02164
G1 X93.184 Y130.183 E.03996
G1 X93.358 Y130.705 E.02008
G1 X93.731 Y131.693 E.03853
G1 X93.96 Y132.236 E.0215
G1 X94.407 Y133.191 E.03847
G1 X95.074 Y134.437 E.05157
G1 X93.634 Y134.437 E.05251
G1 X93.634 Y143.945 E.34692
G1 X90.905 Y143.945 E.09959
G1 X90.905 Y110.314 E1.22709
G1 X93.282 Y110.314 E.08673
G1 X93.282 Y98.428 E.43365
G1 X96.012 Y98.428 E.09959
G1 X96.012 Y111.485 E.47639
G1 X91.837 Y126.46 F42000
G1 F3600
G1 X92.01 Y127.572 E.04105
G1 X92.238 Y128.669 E.0409
G1 X92.386 Y129.264 E.02236
G1 X92.701 Y130.34 E.0409
G1 X93.071 Y131.402 E.04105
G1 X93.476 Y132.397 E.0392
G1 X93.728 Y132.954 E.02227
G1 X94.216 Y133.929 E.03979
G1 X93.127 Y133.929 E.03973
G1 X93.127 Y143.437 E.34692
G1 X91.413 Y143.437 E.06253
G1 X91.413 Y126.49 E.61834
G1 X91.837 Y126.46 E.01554
G1 X92.304 Y130.757 F42000
G1 F3600
G1 X92.788 Y132.07 E.05104
G1 X93.381 Y133.421 E.05386
G1 X92.619 Y133.421 E.02782
G1 X92.619 Y142.93 E.34692
G1 X91.921 Y142.93 E.02547
G1 X91.921 Y130.819 E.44185
G1 X92.304 Y130.757 E.01419
G1 X91.837 Y120.914 F42000
G1 F3600
G1 X91.413 Y120.883 E.01554
G1 X91.413 Y110.822 E.36712
G1 X93.79 Y110.822 E.08673
G1 X93.79 Y98.936 E.43365
M73 P2 R19
G1 X95.504 Y98.936 E.06253
G1 X95.504 Y111.327 E.45208
G1 X94.786 Y112.439 E.0483
G1 X94.208 Y113.458 E.04275
G1 X93.707 Y114.463 E.04097
G1 X93.476 Y114.976 E.02052
G1 X93.072 Y115.97 E.03916
G1 X92.687 Y117.078 E.04278
G1 X92.374 Y118.157 E.04102
G1 X92.238 Y118.702 E.02048
G1 X92.019 Y119.752 E.03913
G1 X91.837 Y120.914 E.0429
G1 X92.304 Y116.617 F42000
G1 F3600
G1 X91.921 Y116.554 E.01419
G1 X91.921 Y111.329 E.19063
G1 X94.298 Y111.329 E.08673
G1 X94.298 Y99.444 E.43365
G1 X94.996 Y99.444 E.02547
G1 X94.996 Y111.167 E.42772
G1 X94.323 Y112.222 E.04566
G1 X93.785 Y113.173 E.03988
G1 X93.496 Y113.733 E.02298
G1 X93.246 Y114.251 E.02098
G1 X92.811 Y115.247 E.03966
G1 X92.578 Y115.841 E.02327
G1 X92.304 Y116.617 E.03002
G1 X92.783 Y114.04 F42000
G1 F3600
G1 X92.428 Y113.958 E.01329
G1 X92.428 Y111.837 E.07739
G1 X93.96 Y111.837 E.05587
G1 X93.338 Y112.932 E.04593
G1 X92.783 Y114.04 E.04521
;WIPE_START
G1 X93.338 Y112.932 E-.3717
G1 X93.714 Y112.27 E-.2283
;WIPE_END
G1 Z.4 F42000
G1 X98.031 Y118.702 Z.4
G1 Z.2
G1 E.6 F2400
;TYPE:Inner wall
;WIDTH:0.499999
G1 F3600
G1 X98.142 Y118.355 E.01329
G1 X98.439 Y117.567 E.03073
G1 X98.772 Y116.807 E.03026
G1 X99.145 Y116.06 E.03049
G1 X99.557 Y115.333 E.03049
G1 X100.005 Y114.628 E.03049
G1 X100.49 Y113.946 E.03049
G1 X101.008 Y113.291 E.03049
G1 X101.553 Y112.671 E.03011
G1 X102.447 Y111.778 E.04611
G1 X103.407 Y110.956 E.04611
G1 X104.067 Y110.46 E.03011
G1 X104.76 Y109.994 E.03049
G1 X105.476 Y109.564 E.03049
G1 X106.214 Y109.171 E.03049
G1 X106.971 Y108.817 E.03049
G1 X107.745 Y108.502 E.03049
G1 X108.534 Y108.227 E.03049
G1 X109.327 Y107.997 E.03011
G1 X110.571 Y107.72 E.04649
G1 X111.386 Y107.593 E.03011
G1 X112.217 Y107.507 E.03049
G1 X113.052 Y107.464 E.03049
G1 X113.888 Y107.464 E.03049
G1 X114.722 Y107.507 E.03049
G1 X115.553 Y107.593 E.03049
G1 X116.379 Y107.722 E.03049
G1 X117.197 Y107.892 E.03049
G1 X118.005 Y108.105 E.03049
G1 X118.801 Y108.359 E.03049
G1 X119.583 Y108.654 E.03049
G1 X120.349 Y108.989 E.03049
G1 X121.097 Y109.362 E.03049
G1 X121.824 Y109.774 E.03049
G1 X122.529 Y110.223 E.03049
G1 X123.202 Y110.701 E.03011
G1 X124.19 Y111.504 E.04649
G1 X124.796 Y112.065 E.03011
G1 X125.372 Y112.656 E.03011
G1 X126.201 Y113.624 E.04649
G1 X126.696 Y114.284 E.03011
G1 X127.163 Y114.977 E.03049
G1 X127.593 Y115.694 E.03049
G1 X127.986 Y116.431 E.03049
G1 X128.337 Y117.182 E.03026
G1 X128.655 Y117.962 E.03073
G1 X128.929 Y118.751 E.03047
G1 X129.164 Y119.56 E.03073
G1 X129.317 Y120.207 E.02423
G1 X129.522 Y121.323 E.04141
G1 X129.618 Y122.102 E.02866
G1 X129.676 Y122.857 E.02763
G1 X129.692 Y124.115 E.04589
G1 X129.649 Y124.939 E.03011
G1 X129.565 Y125.76 E.03011
G1 X129.352 Y127.016 E.04649
G1 X129.163 Y127.82 E.03011
G1 X128.929 Y128.622 E.03049
G1 X128.655 Y129.411 E.03049
G1 X128.34 Y130.185 E.03049
G1 X127.986 Y130.942 E.03049
G1 X127.593 Y131.68 E.03048
G1 X127.159 Y132.402 E.03073
G1 X126.696 Y133.09 E.03026
G1 X126.195 Y133.758 E.03049
G1 X125.659 Y134.4 E.03049
G1 X125.091 Y135.013 E.03049
G1 X124.493 Y135.596 E.03049
G1 X123.865 Y136.148 E.03049
G1 X123.21 Y136.667 E.03049
G1 X122.529 Y137.151 E.03049
G1 X121.833 Y137.594 E.03011
G1 X120.716 Y138.207 E.04649
G1 X119.968 Y138.557 E.03011
G1 X119.194 Y138.872 E.03049
G1 X118.405 Y139.146 E.03049
G1 X117.603 Y139.38 E.03048
G1 X116.783 Y139.573 E.03073
G1 X115.967 Y139.722 E.03026
G1 X115.138 Y139.829 E.03049
G1 X114.315 Y139.893 E.03011
G1 X113.041 Y139.909 E.04649
G1 X112.217 Y139.867 E.03011
G1 X111.386 Y139.781 E.03049
G1 X110.56 Y139.652 E.03049
G1 X109.742 Y139.481 E.03049
G1 X108.934 Y139.268 E.03049
G1 X108.138 Y139.014 E.03049
G1 X107.356 Y138.719 E.03049
G1 X106.59 Y138.385 E.03049
G1 X105.843 Y138.011 E.03049
G1 X105.115 Y137.599 E.03049
G1 X104.41 Y137.151 E.03049
G1 X103.729 Y136.667 E.03049
G1 X103.074 Y136.148 E.03049
G1 X102.454 Y135.603 E.03011
G1 X101.553 Y134.702 E.04649
