; HEADER_BLOCK_START
; generated by OrcaSlicer 2.1.0 on 2025-01-09 at 15:50:11
; total layer number: 129
; filament_density: 1.27
; filament_diameter: 1.75
; max_z_height: 25.80
; HEADER_BLOCK_END

; THUMBNAIL_BLOCK_START

;
; THUMBNAIL_BLOCK_END

; THUMBNAIL_BLOCK_START

;
; THUMBNAIL_BLOCK_END

; external perimeters extrusion width = 0.42mm
; perimeters extrusion width = 0.45mm
; infill extrusion width = 0.45mm
; solid infill extrusion width = 0.42mm
; top infill extrusion width = 0.42mm
; support material extrusion width = 0.42mm
; first layer extrusion width = 0.50mm

; EXECUTABLE_BLOCK_START
EXCLUDE_OBJECT_DEFINE NAME=фанера.stp_id_0_copy_0 CENTER=110,110 POLYGON=[[93.717,94.8548],[118.717,94.8548],[126.283,102.421],[120.529,108.175],[103.559,125.145],[93.717,115.304],[93.717,94.8548]]
M73 P0 R20
M106 S0
M106 P2 S0
;TYPE:Custom
M140 S0
M104 S0 
START_PRINT EXTRUDER_TEMP=250 BED_TEMP=80
G90
G21
M83 ; use relative distances for extrusion
; filament start gcode
M106 S0
M106 P2 S0
;LAYER_CHANGE
;Z:0.2
;HEIGHT:0.2
;BEFORE_LAYER_CHANGE
;0.2
G92 E0

G1 E-.6 F2400
;_SET_FAN_SPEED_CHANGING_LAYER
SET_VELOCITY_LIMIT ACCEL=500 ACCEL_TO_DECEL=250
SET_VELOCITY_LIMIT SQUARE_CORNER_VELOCITY=9
EXCLUDE_OBJECT_START NAME=фанера.stp_id_0_copy_0
G1 Z.2 F42000
G1 X123.778 Y102.421
G1 Z.2
G1 E.6 F2400
;TYPE:Inner wall
;WIDTH:0.499999
G1 F3600
G1 X103.559 Y122.64 E1.0433
G1 X95.488 Y114.57 E.41643
G1 X95.488 Y108.781 E.21122
G1 X95.699 Y109.107 E.01416
G1 X96.292 Y109.735 E.03151
G1 X96.81 Y110.105 E.02324
G1 X97.329 Y110.358 E.02105
G1 X98.104 Y110.57 E.02933
G1 X98.469 Y110.612 E.01339
G1 X99.271 Y110.583 E.02929
G1 X99.833 Y110.454 E.02103
G1 X100.423 Y110.211 E.02329
G1 X100.979 Y109.873 E.02375
G1 X101.413 Y109.492 E.02107
G1 X101.82 Y108.999 E.02332
G1 X102.137 Y108.431 E.02373
G1 X102.274 Y108.091 E.01337
G1 X102.444 Y107.428 E.02496
G1 X102.481 Y106.757 E.02454
G1 X102.404 Y106.137 E.02277
G1 X102.247 Y105.544 E.02238
G1 X101.987 Y104.976 E.02281
G1 X101.618 Y104.445 E.02358
G1 X101.142 Y103.975 E.02442
G1 X100.629 Y103.607 E.02302
G1 X100.112 Y103.354 E.02101
G1 X100.64 Y103.083 E.02164
G1 X101.143 Y102.734 E.02235
G1 X101.701 Y102.156 E.0293
G1 X101.987 Y101.733 E.01863
G1 X102.246 Y101.167 E.02274
G1 X102.358 Y100.814 E.0135
G1 X102.482 Y100.022 E.02926
G1 X102.453 Y99.392 E.02301
G1 X102.271 Y98.601 E.0296
G1 X102.038 Y98.074 E.02104
G1 X101.687 Y97.541 E.02327
G1 X101.082 Y96.925 E.0315
G1 X100.653 Y96.626 E.01909
G1 X117.983 Y96.626 E.63232
G1 X123.75 Y102.393 E.29755
;WIPE_START
G1 X122.338 Y103.809 E-.6
;WIPE_END
G1 Z.4 F42000
G1 X96.427 Y96.805 Z.4
G1 Z.2
G1 E.6 F2400
;WIDTH:0.601006
G1 F3600
G1 X96.302 Y96.896 E.00687
G1 X95.879 Y97.299 E.02605
G1 X95.539 Y97.746 E.02504
G1 X95.539 Y96.677 E.04766
G1 X96.605 Y96.677 E.04752
G1 X96.46 Y96.782 E.008
;WIPE_START
G1 X96.302 Y96.896 E-.05826
G1 X95.879 Y97.299 E-.17541
G1 X95.539 Y97.746 E-.16864
G1 X95.539 Y97.087 E-.19769
;WIPE_END
G1 Z.4 F42000
G1 X95.488 Y101.781 Z.4
G1 Z.2
G1 E.6 F2400
;WIDTH:0.499999
G1 F3600
G1 X95.699 Y102.107 E.01416
G1 X96.292 Y102.735 E.03151
G1 X96.811 Y103.106 E.02327
G1 X97.327 Y103.361 E.02103
G1 X96.81 Y103.604 E.02087
G1 X96.297 Y103.97 E.02298
G1 X95.934 Y104.319 E.01838
G1 X95.488 Y104.915 E.02714
G1 X95.488 Y101.821 E.11289
;WIPE_START
G1 X95.699 Y102.107 E-.10655
G1 X96.292 Y102.735 E-.2591
G1 X96.811 Y103.106 E-.19131
G1 X96.939 Y103.169 E-.04304
;WIPE_END
G1 Z.4 F42000
G1 X96.664 Y97.266 Z.4
G1 Z.2
G1 E.6 F2400
G1 F3600
G1 X96.779 Y97.169 E.0055
G1 X97.252 Y96.887 E.02006
;WIDTH:0.506359
G1 X97.944 Y96.632 E.02728
G1 X98.463 Y96.572 E.01932
;WIDTH:0.465833
G1 X99.009 Y96.573 E.01844
;WIDTH:0.499999
G1 X99.711 Y96.698 E.02603
G1 X100.222 Y96.904 E.02009
G1 X100.819 Y97.299 E.02613
G1 X101.346 Y97.845 E.02769
G1 X101.645 Y98.307 E.02009
G1 X101.847 Y98.772 E.01849
G1 X102.005 Y99.478 E.02639
G1 X102.025 Y100.021 E.01984
G1 X101.909 Y100.727 E.02609
G1 X101.626 Y101.432 E.02771
G1 X101.327 Y101.894 E.02007
G1 X100.826 Y102.405 E.02612
G1 X100.406 Y102.69 E.01853
G1 X99.953 Y102.926 E.01862
G1 X99.51 Y103.071 E.01704
G1 X99.009 Y103.14 E.01844
;WIDTH:0.472459
G1 X98.469 Y103.14 E.01853
;WIDTH:0.499999
G1 X97.989 Y103.074 E.01767
G1 X97.516 Y102.941 E.01793
G1 X97.059 Y102.722 E.01849
G1 X96.609 Y102.406 E.02008
G1 X96.083 Y101.858 E.0277
G1 X95.711 Y101.246 E.02614
G1 X95.525 Y100.726 E.02013
G1 X95.443 Y100.229 E.01839
;WIDTH:0.472029
G1 X95.444 Y99.478 E.02571
;WIDTH:0.494443
G1 X95.472 Y99.22 E.00935
;WIDTH:0.499999
G1 X95.699 Y98.497 E.02766
G1 X96.059 Y97.878 E.02613
G1 X96.392 Y97.496 E.0185
G1 X96.634 Y97.292 E.01154
G1 X96.953 Y97.617 F42000
G1 F3600
G1 X97.028 Y97.552 E.00361
G1 X97.423 Y97.311 E.01688
G1 X98.023 Y97.085 E.02341
G1 X98.53 Y97.007 E.0187
G1 X99.122 Y97.03 E.02162
G1 X99.731 Y97.185 E.02296
G1 X100.149 Y97.386 E.0169
G1 X100.674 Y97.777 E.02388
G1 X101.083 Y98.255 E.02294
G1 X101.299 Y98.635 E.01595
G1 X101.461 Y99.07 E.01692
G1 X101.556 Y99.564 E.01838
G1 X101.555 Y100.151 E.02141
G1 X101.432 Y100.744 E.02209
G1 X101.209 Y101.245 E.02
G1 X100.918 Y101.677 E.01901
G1 X100.509 Y102.076 E.02083
G1 X99.956 Y102.426 E.0239
G1 X99.423 Y102.622 E.02073
G1 X98.967 Y102.698 E.01687
G1 X98.451 Y102.698 E.01881
G1 X97.827 Y102.566 E.02327
G1 X97.307 Y102.338 E.02071
G1 X96.925 Y102.076 E.01689
G1 X96.466 Y101.61 E.02388
G1 X96.135 Y101.075 E.02296
G1 X95.973 Y100.64 E.01692
G1 X95.878 Y100.145 E.01838
G1 X95.886 Y99.496 E.0237
G1 X96.042 Y98.861 E.02384
G1 X96.338 Y98.278 E.02387
G1 X96.678 Y97.854 E.01983
G1 X96.923 Y97.643 E.01179
G1 X97.248 Y97.961 F42000
;TYPE:Outer wall
G1 F3600
G1 X97.276 Y97.936 E.00138
G1 X97.594 Y97.735 E.0137
G1 X98.102 Y97.536 E.01993
G1 X98.599 Y97.459 E.01835
G1 X99.018 Y97.475 E.01527
G1 X99.545 Y97.602 E.01978
G1 X99.886 Y97.76 E.01372
G1 X100.332 Y98.082 E.02007
G1 X100.69 Y98.489 E.01976
G1 X100.875 Y98.806 E.0134
G1 X101.012 Y99.156 E.01372
G1 X101.107 Y99.651 E.01838
G1 X101.107 Y100.064 E.01508
G1 X101.002 Y100.588 E.01948
G1 X100.792 Y101.058 E.01879
G1 X100.55 Y101.402 E.01533
G1 X100.177 Y101.76 E.01887
G1 X99.722 Y102.033 E.01936
G1 X99.336 Y102.173 E.015
G1 X98.966 Y102.241 E.0137
G1 X98.463 Y102.241 E.01839
G1 X97.931 Y102.121 E.01988
G1 X97.555 Y101.954 E.01499
G1 X97.242 Y101.747 E.0137
G1 X96.85 Y101.361 E.02007
G1 X96.559 Y100.904 E.01978
G1 X96.422 Y100.554 E.01372
G1 X96.327 Y100.059 E.01838
G1 X96.343 Y99.514 E.0199
G1 X96.482 Y98.982 E.02005
G1 X96.74 Y98.496 E.02007
G1 X97 Y98.178 E.01499
G1 X97.218 Y97.987 E.01057
;WIPE_START
G1 X97.276 Y97.936 E-.02331
G1 X97.594 Y97.735 E-.11267
G1 X98.102 Y97.536 E-.16388
G1 X98.599 Y97.459 E-.15091
G1 X99.018 Y97.475 E-.12558
G1 X99.094 Y97.493 E-.02365
;WIPE_END
G1 Z.4 F42000
G1 X96.005 Y104.97 Z.4
G1 Z.2
G1 E.6 F2400
;TYPE:Inner wall
G1 F3600
G1 X96.107 Y104.816 E.00673
G1 X96.614 Y104.3 E.02639
G1 X97.058 Y103.988 E.01981
G1 X97.714 Y103.701 E.02614
G1 X98.191 Y103.601 E.01775
;WIDTH:0.491902
G1 X98.677 Y103.56 E.0175
;WIDTH:0.48499
G1 X99.182 Y103.583 E.01784
;WIDTH:0.499999
G1 X99.711 Y103.698 E.01975
G1 X100.228 Y103.908 E.02036
G1 X100.655 Y104.169 E.01824
G1 X101.185 Y104.65 E.02611
G1 X101.518 Y105.087 E.02007
G1 X101.83 Y105.732 E.02611
G1 X101.956 Y106.224 E.01854
G1 X102.024 Y106.739 E.01896
G1 X101.993 Y107.359 E.02267
G1 X101.833 Y107.97 E.02301
G1 X101.497 Y108.65 E.02768
G1 X101.163 Y109.088 E.02009
G1 X100.794 Y109.435 E.01849
G1 X100.189 Y109.819 E.02613
G1 X99.678 Y110.024 E.0201
G1 X99.184 Y110.134 E.01848
G1 X98.469 Y110.155 E.02611
G1 X97.723 Y110.011 E.02771
G1 X97.212 Y109.805 E.02009
G1 X96.78 Y109.541 E.01849
G1 X96.25 Y109.06 E.02611
G1 X95.812 Y108.44 E.02771
G1 X95.587 Y107.938 E.02007
G1 X95.443 Y107.229 E.02638
;WIDTH:0.472029
G1 X95.444 Y106.479 E.02569
;WIDTH:0.494355
G1 X95.472 Y106.221 E.00934
;WIDTH:0.499999
G1 X95.679 Y105.536 E.02612
G1 X95.826 Y105.238 E.01214
G1 X95.982 Y105.003 E.01029
G1 X96.402 Y105.209 F42000
G1 F3600
G1 X96.567 Y104.979 E.01034
G1 X96.93 Y104.63 E.01838
G1 X97.399 Y104.322 E.02047
G1 X97.885 Y104.125 E.01915
G1 X98.53 Y104.007 E.0239
G1 X99.097 Y104.024 E.02069
G1 X99.607 Y104.143 E.01913
G1 X100.132 Y104.374 E.02092
G1 X100.51 Y104.635 E.01673
G1 X100.918 Y105.033 E.0208
G1 X101.209 Y105.464 E.01899
G1 X101.424 Y105.944 E.01918
G1 X101.556 Y106.564 E.02315
G1 X101.548 Y107.214 E.02369
G1 X101.392 Y107.848 E.02385
G1 X101.096 Y108.432 E.02388
G1 X100.766 Y108.845 E.01929
G1 X100.384 Y109.171 E.01832
G1 X99.9 Y109.456 E.0205
G1 X99.423 Y109.622 E.01843
G1 X98.967 Y109.698 E.01687
G1 X98.44 Y109.697 E.01919
G1 X97.827 Y109.566 E.02289
G1 X97.307 Y109.338 E.02072
G1 X96.925 Y109.076 E.01688
G1 X96.466 Y108.61 E.02388
G1 X96.135 Y108.075 E.02296
G1 X95.973 Y107.64 E.01692
G1 X95.878 Y107.145 E.01838
G1 X95.886 Y106.496 E.02368
G1 X96.042 Y105.861 E.02386
G1 X96.236 Y105.441 E.01691
G1 X96.378 Y105.242 E.00893
G1 X96.767 Y105.472 F42000
;TYPE:Outer wall
G1 F3600
G1 X96.883 Y105.309 E.0073
G1 X97.247 Y104.96 E.01838
G1 X97.594 Y104.735 E.01508
G1 X98.065 Y104.545 E.01855
G1 X98.599 Y104.459 E.01974
G1 X99.018 Y104.475 E.01527
G1 X99.545 Y104.603 E.01979
G1 X100.09 Y104.892 E.02253
G1 X100.551 Y105.309 E.02266
G1 X100.793 Y105.654 E.01538
G1 X100.999 Y106.114 E.01841
G1 X101.107 Y106.651 E.01997
G1 X101.091 Y107.196 E.01989
G1 X100.951 Y107.727 E.02005
G1 X100.694 Y108.213 E.02007
G1 X100.434 Y108.531 E.01499
G1 X100.023 Y108.854 E.01904
G1 X99.683 Y109.052 E.01438
G1 X99.336 Y109.173 E.01341
G1 X98.966 Y109.241 E.01369
G1 X98.459 Y109.24 E.01851
G1 X97.931 Y109.121 E.01976
G1 X97.555 Y108.954 E.01499
G1 X97.242 Y108.747 E.0137
G1 X96.85 Y108.361 E.02008
G1 X96.559 Y107.904 E.01978
G1 X96.422 Y107.554 E.01372
G1 X96.326 Y107.055 E.01852
G1 X96.342 Y106.514 E.01974
G1 X96.482 Y105.982 E.02007
G1 X96.646 Y105.643 E.01373
G1 X96.744 Y105.504 E.00623
;WIPE_START
G1 X96.883 Y105.309 E-.07198
G1 X97.247 Y104.96 E-.15113
G1 X97.594 Y104.735 E-.12403
G1 X98.065 Y104.545 E-.15253
G1 X98.396 Y104.492 E-.10032
;WIPE_END
G1 Z.4 F42000
G1 X124.425 Y102.421 Z.4
G1 Z.2
G1 E.6 F2400
;TYPE:Inner wall
G1 F3600
G1 X103.559 Y123.287 E1.07666
G1 X95.031 Y114.759 E.44001
G1 X95.031 Y107.773 E.25488
G1 X95.011 Y107.016 E.02765
;WIDTH:0.470478
G1 X95.016 Y106.471 E.0186
;WIDTH:0.499999
G1 X95.031 Y105.663 E.02946
G1 X95.031 Y100.773 E.17842
G1 X95.011 Y100.016 E.02765
;WIDTH:0.470516
G1 X95.016 Y99.47 E.01863
;WIDTH:0.499999
G1 X95.031 Y96.169 E.12044
G1 X97.113 Y96.169 E.07594
;WIDTH:0.506359
G1 X97.904 Y96.172 E.02927
G1 X98.43 Y96.152 E.0195
;WIDTH:0.465833
G1 X99.017 Y96.151 E.0198
;WIDTH:0.499999
G1 X99.772 Y96.169 E.02757
G1 X118.173 Y96.169 E.67136
G1 X124.396 Y102.393 E.32113
G1 X125.071 Y102.421 F42000
G1 F3600
G1 X103.559 Y123.933 E1.11001
G1 X94.574 Y114.948 E.4636
M73 P1 R20
G1 X94.574 Y95.712 E.70187
G1 X118.362 Y95.712 E.86793
G1 X125.043 Y102.393 E.34472
G1 X125.717 Y102.421 F42000
;TYPE:Outer wall
G1 F3600
G1 X103.559 Y124.58 E1.14337
G1 X94.117 Y115.138 E.48718
G1 X94.117 Y95.255 E.72545
G1 X118.551 Y95.255 E.89151
G1 X125.689 Y102.393 E.3683
;WIPE_START
G1 X124.277 Y103.809 E-.6
;WIPE_END
G1 Z.4 F42000
G1 X123.439 Y102.566 Z.4
G1 Z.2
G1 E.6 F2400
;TYPE:Bottom surface
;WIDTH:0.500437
G1 F6300
G1 X117.841 Y96.969 E.28911
G1 X117.194 Y96.969 E.02363
G1 X122.97 Y102.745 E.29831
G1 X122.646 Y103.068 E.01671
G1 X116.547 Y96.969 E.31502
G1 X115.9 Y96.969 E.02363
G1 X122.323 Y103.392 E.33172
G1 X121.999 Y103.715 E.01671
G1 X115.253 Y96.969 E.34843
G1 X114.606 Y96.969 E.02363
G1 X121.676 Y104.039 E.36514
G1 X121.352 Y104.362 E.01671
G1 X113.959 Y96.969 E.38185
G1 X113.312 Y96.969 E.02363
G1 X121.029 Y104.686 E.39856
G1 X120.705 Y105.009 E.01671
G1 X112.665 Y96.969 E.41527
G1 X112.018 Y96.969 E.02363
G1 X120.382 Y105.333 E.43198
G1 X120.058 Y105.656 E.01671
G1 X111.371 Y96.969 E.44869
G1 X110.724 Y96.969 E.02363
G1 X119.734 Y105.98 E.4654
G1 X119.411 Y106.303 E.01671
G1 X110.077 Y96.969 E.48211
G1 X109.43 Y96.969 E.02363
G1 X119.087 Y106.627 E.49881
G1 X118.764 Y106.95 E.01671
G1 X108.783 Y96.969 E.51552
G1 X108.136 Y96.969 E.02363
G1 X118.44 Y107.274 E.53223
G1 X118.117 Y107.597 E.01671
G1 X107.489 Y96.969 E.54894
G1 X106.841 Y96.969 E.02363
G1 X117.793 Y107.921 E.56565
G1 X117.47 Y108.244 E.01671
G1 X106.194 Y96.969 E.58236
G1 X105.547 Y96.969 E.02363
G1 X117.146 Y108.568 E.59907
G1 X116.823 Y108.891 E.01671
G1 X104.9 Y96.969 E.61578
G1 X104.253 Y96.969 E.02363
G1 X116.499 Y109.215 E.63249
G1 X116.176 Y109.538 E.01671
G1 X103.606 Y96.969 E.64919
G1 X102.959 Y96.969 E.02363
G1 X115.852 Y109.862 E.6659
G1 X115.529 Y110.185 E.01671
G1 X102.312 Y96.969 E.68261
G1 X101.665 Y96.969 E.02363
G1 X115.205 Y110.509 E.69932
M73 P2 R20
G1 X114.882 Y110.832 E.01671
G1 X102.618 Y98.568 E.63343
G1 X102.694 Y98.827 E.00984
G1 X102.797 Y99.395 E.02108
G1 X114.558 Y111.156 E.60745
G1 X114.235 Y111.479 E.01671
G1 X102.821 Y100.066 E.5895
G1 X102.79 Y100.385 E.0117
G1 X102.742 Y100.634 E.00926
G1 X113.911 Y111.803 E.57687
G1 X113.588 Y112.126 E.01671
G1 X102.618 Y101.157 E.56656
G1 X102.423 Y101.608 E.01797
G1 X113.264 Y112.45 E.55996
G1 X112.941 Y112.773 E.01671
G1 X102.201 Y102.034 E.5547
G1 X101.933 Y102.413 E.01696
G1 X112.617 Y113.097 E.55181
G1 X112.294 Y113.42 E.01671
G1 X101.619 Y102.745 E.55135
G1 X101.285 Y103.058 E.01672
G1 X111.97 Y113.744 E.5519
G1 X111.647 Y114.068 E.01671
G1 X100.753 Y103.174 E.56263
;WIPE_START
G1 X102.167 Y104.588 E-.6
;WIPE_END
G1 Z.4 F42000
G1 X96.287 Y103.8 Z.4
G1 Z.2
G1 E.6 F2400
;WIDTH:0.591415
G1 F6300
G1 X95.625 Y103.139 E.04096
G1 E-.24358 F2400
;WIPE_START
G1 F6300
G1 X96.287 Y103.8 E-.35642
;WIPE_END
G1 Z.4 F42000
G1 X95.625 Y114.222 Z.4
G1 Z.2
G1 E.6 F2400
;WIDTH:0.500437
G1 F6300
G1 X103.559 Y122.155 E.40975
G1 X103.882 Y121.832 E.01671
G1 X95.831 Y113.781 E.41584
G1 X95.831 Y113.133 E.02363
G1 X104.206 Y121.508 E.43255
G1 X104.529 Y121.185 E.01671
G1 X95.831 Y112.486 E.44926
G1 X95.831 Y111.839 E.02363
G1 X104.853 Y120.861 E.46596
G1 X105.176 Y120.538 E.01671
G1 X95.831 Y111.192 E.48267
G1 X95.831 Y110.545 E.02363
G1 X105.5 Y120.214 E.49938
G1 X105.823 Y119.891 E.01671
G1 X95.831 Y109.898 E.51609
G1 X95.831 Y109.76 E.00506
G1 X96.057 Y109.985 E.01166
G1 X96.342 Y110.211 E.01327
G1 X96.879 Y110.532 E.02285
G1 X97.284 Y110.704 E.01606
G1 X106.147 Y119.567 E.45777
G1 X106.47 Y119.244 E.01671
G1 X98.147 Y110.921 E.42987
G1 X98.386 Y110.953 E.0088
G1 X98.828 Y110.954 E.01614
G1 X106.794 Y118.92 E.41143
G1 X107.117 Y118.597 E.01671
G1 X99.42 Y110.9 E.39754
G1 X99.946 Y110.778 E.0197
G1 X107.441 Y118.273 E.3871
G1 X107.764 Y117.95 E.01671
G1 X100.415 Y110.6 E.37958
G1 X100.824 Y110.362 E.01728
G1 X108.088 Y117.626 E.37517
G1 X108.412 Y117.303 E.01671
G1 X101.222 Y110.114 E.3713
G1 X101.567 Y109.812 E.01675
G1 X108.735 Y116.979 E.3702
G1 X109.059 Y116.656 E.01671
G1 X101.877 Y109.474 E.3709
G1 X101.995 Y109.337 E.00661
G1 X102.153 Y109.103 E.01031
G1 X109.382 Y116.332 E.37338
G1 X109.706 Y116.009 E.01671
G1 X102.381 Y108.684 E.37829
G1 X102.534 Y108.391 E.01209
G1 X102.58 Y108.236 E.0059
G1 X110.029 Y115.685 E.38475
G1 X110.353 Y115.362 E.01671
G1 X102.726 Y107.735 E.39389
G1 X102.784 Y107.478 E.00962
G1 X102.802 Y107.164 E.01151
G1 X110.676 Y115.038 E.40671
M73 P3 R20
G1 X111 Y114.715 E.01671
G1 X102.805 Y106.52 E.42322
G1 X102.791 Y106.333 E.00685
G1 X102.669 Y105.737 E.02224
G1 X111.469 Y114.536 E.45449
;LAYER_CHANGE
;Z:0.4
;HEIGHT:0.2
;BEFORE_LAYER_CHANGE
;0.4
G92 E0

;WIPE_START
G1 F6300
G1 X110.054 Y113.122 E-.6
;WIPE_END
EXCLUDE_OBJECT_END NAME=фанера.stp_id_0_copy_0
;_SET_FAN_SPEED_CHANGING_LAYER
SET_VELOCITY_LIMIT ACCEL=12000 ACCEL_TO_DECEL=6000
M140 S80 ; set bed temperature
SET_VELOCITY_LIMIT SQUARE_CORNER_VELOCITY=12
EXCLUDE_OBJECT_START NAME=фанера.stp_id_0_copy_0
G1 Z.4 F42000
G1 X96.627 Y97.169 Z.4
G1 E.6 F2400
SET_VELOCITY_LIMIT ACCEL=5000 ACCEL_TO_DECEL=2500 SQUARE_CORNER_VELOCITY=7
;TYPE:Inner wall
;WIDTH:0.449999
G1 F13303
G1 X96.487 Y97.28 E.00581
G1 X96.058 Y97.725 E.02008
G1 X95.838 Y98.026 E.01212
G1 X95.497 Y98.729 E.02541
;WIDTH:0.499066
G1 F13153.706
G1 X95.449 Y98.812 E.00349
;WIDTH:0.548132
G1 F11876.217
