; HEADER_BLOCK_START
; generated by OrcaSlicer 2.1.0 on 2026-01-15 at 01:14:23
; total layer number: 42
; filament_density: 1.27
; filament_diameter: 1.75
; max_z_height: 7.00
; HEADER_BLOCK_END

; THUMBNAIL_BLOCK_START

;
; THUMBNAIL_BLOCK_END

; THUMBNAIL_BLOCK_START

;
; THUMBNAIL_BLOCK_END

; external perimeters extrusion width = 0.42mm
; perimeters extrusion width = 0.45mm
; infill extrusion width = 0.45mm
; solid infill extrusion width = 0.42mm
; top infill extrusion width = 0.42mm
; support material extrusion width = 0.42mm
; first layer extrusion width = 0.50mm

; EXECUTABLE_BLOCK_START
EXCLUDE_OBJECT_DEFINE NAME=ХУЙ.stp_id_0_copy_0 CENTER=110,110 POLYGON=[[42.3781,138.082],[43.9482,108.124],[44.7174,107.394],[45.4947,106.674],[46.28,105.962],[47.0732,105.259],[47.8741,104.565],[48.6828,103.88],[49.499,103.204],[50.3228,102.537],[51.1539,101.88],[51.9923,101.231],[52.8379,100.592],[53.6906,99.9629],[54.5502,99.343],[55.4167,98.7328],[56.29,98.1322],[57.1699,97.5414],[58.0563,96.9605],[58.9492,96.3895],[59.8484,95.8285],[60.7538,95.2775],[61.6652,94.7367],[62.5827,94.2061],[63.506,93.6858],[64.435,93.1757],[65.3697,92.6761],[66.3099,92.187],[67.2555,91.7083],[68.2064,91.2403],[69.1625,90.7829],[70.1236,90.3361],[71.0896,89.9002],[72.0604,89.475],[73.0359,89.0607],[74.016,88.6573],[75.0005,88.2648],[75.9893,87.8834],[76.9823,87.513],[77.9794,87.1537],[78.9804,86.8056],[79.9853,86.4686],[80.9938,86.1429],[82.0059,85.8285],[83.0215,85.5253],[84.0404,85.2336],[85.0624,84.9532],[86.0876,84.6842],[87.1157,84.4266],[88.1465,84.1806],[89.1801,83.9461],[90.2162,83.7231],[91.2548,83.5117],[92.2956,83.3119],[93.3386,83.1237],[94.3836,82.9471],[95.4306,82.7823],[96.4793,82.6291],[97.5296,82.4876],[98.5815,82.3579],[99.6347,82.2399],[100.689,82.1336],[101.745,82.0392],[102.801,81.9565],[103.859,81.8856],[104.917,81.8265],[105.976,81.7792],[107.035,81.7437],[108.095,81.7201],[109.154,81.7082],[110.214,81.7082],[111.274,81.72],[112.334,81.7437],[113.393,81.7791],[114.452,81.8264],[115.51,81.8855],[116.567,81.9564],[165.244,85.3971],[165.642,85.4363],[166.039,85.4872],[166.434,85.5498],[166.827,85.6241],[167.217,85.71],[167.605,85.8074],[167.99,85.9162],[168.371,86.0364],[168.748,86.1679],[169.122,86.3104],[169.491,86.464],[169.856,86.6284],[170.215,86.8035],[170.569,86.9892],[170.917,87.1854],[171.26,87.3917],[171.596,87.6081],[171.926,87.8343],[172.249,88.0703],[172.564,88.3156],[172.872,88.5702],[173.173,88.8339],[173.466,89.1063],[173.75,89.3872],[174.026,89.6765],[174.294,89.9738],[174.552,90.2789],[174.801,90.5915],[175.041,90.9114],[175.271,91.2382],[175.492,91.5717],[175.702,91.9116],[175.903,92.2575],[176.093,92.6093],[176.272,92.9665],[176.441,93.3289],[176.599,93.6961],[176.747,94.0678],[176.883,94.4438],[177.008,94.8236],[177.121,95.2069],[177.223,95.5935],[177.314,95.9829],[177.393,96.3748],[177.461,96.7688],[177.517,97.1647],[177.561,97.5621],[177.593,97.9606],[177.613,98.3599],[177.622,98.7596],[177.619,99.1594],[177.604,99.559],[177.577,99.9579],[177.538,100.356],[177.488,100.752],[177.425,101.147],[177.351,101.54],[177.266,101.931],[177.169,102.319],[177.061,102.704],[176.941,103.085],[176.81,103.463],[176.668,103.836],[176.515,104.206],[176.35,104.57],[176.176,104.93],[175.99,105.284],[175.795,105.633],[175.589,105.976],[175.373,106.312],[175.147,106.642],[174.911,106.965],[174.666,107.281],[174.412,107.589],[174.149,107.89],[173.877,108.183],[173.596,108.468],[173.307,108.744],[173.01,109.012],[172.705,109.271],[172.393,109.52],[172.073,109.761],[171.747,109.991],[171.413,110.212],[171.074,110.423],[170.728,110.624],[170.376,110.814],[170.019,110.994],[169.657,111.164],[169.29,111.322],[168.919,111.47],[168.543,111.606],[168.163,111.731],[167.78,111.845],[167.394,111.948],[167.004,112.039],[46.3726,138.292],[42.3781,138.082]]
M73 P0 R17
M106 S0
M106 P2 S0
;TYPE:Custom
M140 S0
M104 S0 
START_PRINT EXTRUDER_TEMP=240 BED_TEMP=90
M106 P3 S153
G90
G21
M83 ; use relative distances for extrusion
; filament start gcode
M106 S0
M106 P2 S0
;LAYER_CHANGE
;Z:0.2
;HEIGHT:0.2
;BEFORE_LAYER_CHANGE
;0.2
G92 E0

G1 E-.6 F2400
;_SET_FAN_SPEED_CHANGING_LAYER
SET_VELOCITY_LIMIT ACCEL=500 ACCEL_TO_DECEL=250
SET_VELOCITY_LIMIT SQUARE_CORNER_VELOCITY=9
EXCLUDE_OBJECT_START NAME=ХУЙ.stp_id_0_copy_0
G1 Z.2 F42000
G1 X161.309 Y89.835
G1 Z.2
G1 E.6 F2400
;TYPE:Support
;WIDTH:0.5
G1 F3300
G1 X161.829 Y89.91 E.01895
G1 X162.333 Y90.08 E.01922
G1 X162.637 Y90.237 E.01236
G1 X162.927 Y90.434 E.01266
G1 X163.313 Y90.79 E.01895
G1 X163.627 Y91.211 E.01895
G1 X163.861 Y91.681 E.01895
G1 X164.006 Y92.185 E.01895
G1 X164.051 Y92.532 E.01264
G1 X164.053 Y92.882 E.01264
G1 X163.979 Y93.402 E.01894
G1 X163.811 Y93.9 E.01897
G1 X163.553 Y94.365 E.01922
G1 X163.344 Y94.636 E.01238
G1 X163.098 Y94.886 E.01264
G1 X162.678 Y95.2 E.01894
G1 X162.369 Y95.365 E.01266
G1 X162.043 Y95.492 E.01264
G1 X161.53 Y95.606 E.01895
G1 X161.006 Y95.627 E.01895
G1 X160.487 Y95.552 E.01894
G1 X160.151 Y95.45 E.01266
G1 X159.831 Y95.309 E.01264
G1 X159.388 Y95.028 E.01895
G1 X159.003 Y94.671 E.01895
G1 X158.688 Y94.251 E.01894
G1 X158.455 Y93.781 E.01897
G1 X158.309 Y93.276 E.01895
G1 X158.264 Y92.929 E.01264
G1 X158.262 Y92.579 E.01264
G1 X158.336 Y92.059 E.01895
G1 X158.504 Y91.562 E.01895
G1 X158.664 Y91.251 E.01264
G1 X158.86 Y90.961 E.01264
G1 X159.217 Y90.576 E.01895
G1 X159.637 Y90.261 E.01895
G1 X160.107 Y90.028 E.01895
G1 X160.612 Y89.883 E.01895
G1 X160.967 Y89.837 E.01291
G1 X161.241 Y89.833 E.0099
G1 X158.788 Y93.49 F42000
G1 F3300
G1 X158.69 Y93.051 E.01626
G1 X158.669 Y92.751 E.01085
G1 X158.685 Y92.452 E.01082
G1 X158.776 Y92.01 E.01629
G1 X158.945 Y91.592 E.01626
G1 X159.186 Y91.212 E.01626
G1 X159.384 Y90.985 E.01085
G1 X159.607 Y90.784 E.01085
G1 X159.983 Y90.537 E.01626
G1 X160.398 Y90.361 E.01626
G1 X160.837 Y90.263 E.01623
G1 X161.288 Y90.246 E.01629
G1 X161.734 Y90.31 E.01626
G1 X162.02 Y90.397 E.01082
G1 X162.296 Y90.518 E.01088
G1 X162.676 Y90.76 E.01626
G1 X163.007 Y91.066 E.01626
G1 X163.198 Y91.307 E.0111
G1 X163.351 Y91.557 E.0106
G1 X163.527 Y91.971 E.01626
G1 X163.625 Y92.411 E.01626
G1 X163.642 Y92.861 E.01626
G1 X163.578 Y93.306 E.01623
G1 X163.491 Y93.594 E.01088
G1 X163.37 Y93.869 E.01085
G1 X163.129 Y94.249 E.01626
G1 X162.823 Y94.58 E.01626
G1 X162.463 Y94.849 E.01623
G1 X162.197 Y94.991 E.01088
G1 X161.917 Y95.1 E.01085
G1 X161.477 Y95.198 E.01626
G1 X161.178 Y95.219 E.01085
G1 X160.878 Y95.203 E.01085
G1 X160.43 Y95.11 E.01651
G1 X160.019 Y94.943 E.01601
G1 X159.761 Y94.79 E.01085
G1 X159.523 Y94.606 E.01085
G1 X159.211 Y94.281 E.01626
G1 X158.961 Y93.899 E.01651
G1 X158.788 Y93.49 E.01601
G1 X159.272 Y93.335 F42000
G1 F3300
G1 X159.194 Y92.985 E.01294
G1 X159.177 Y92.747 E.00863
G1 X159.19 Y92.509 E.00858
G1 X159.262 Y92.157 E.01299
G1 X159.397 Y91.825 E.01294
G1 X159.589 Y91.522 E.01294
G1 X159.746 Y91.342 E.00863
G1 X159.924 Y91.182 E.00863
G1 X160.223 Y90.985 E.01294
G1 X160.553 Y90.845 E.01294
G1 X160.902 Y90.767 E.01289
G1 X161.261 Y90.753 E.01299
G1 X161.616 Y90.804 E.01294
G1 X161.843 Y90.873 E.00858
G1 X162.064 Y90.97 E.00869
G1 X162.366 Y91.162 E.01294
G1 X162.629 Y91.406 E.01294
G1 X162.782 Y91.598 E.00886
G1 X162.903 Y91.796 E.0084
G1 X163.043 Y92.126 E.01294
G1 X163.121 Y92.476 E.01294
G1 X163.135 Y92.834 E.01294
G1 X163.084 Y93.188 E.01289
G1 X163.015 Y93.418 E.00869
G1 X162.918 Y93.637 E.00863
G1 X162.726 Y93.939 E.01294
G1 X162.483 Y94.202 E.01294
G1 X162.197 Y94.416 E.01289
G1 X161.985 Y94.53 E.00869
G1 X161.762 Y94.616 E.00863
G1 X161.412 Y94.694 E.01294
G1 X161.173 Y94.711 E.00863
G1 X160.935 Y94.698 E.00863
G1 X160.578 Y94.624 E.01317
G1 X160.251 Y94.491 E.01271
G1 X160.046 Y94.369 E.00863
G1 X159.856 Y94.223 E.00863
G1 X159.609 Y93.964 E.01294
G1 X159.409 Y93.659 E.01317
G1 X159.272 Y93.335 E.01271
G1 X159.756 Y93.18 F42000
G1 F3300
G1 X159.698 Y92.92 E.00962
G1 X159.695 Y92.567 E.01274
G1 X159.749 Y92.304 E.00969
G1 X159.849 Y92.057 E.00962
G1 X159.991 Y91.832 E.00962
G1 X160.24 Y91.579 E.01281
G1 X160.463 Y91.433 E.00962
G1 X160.708 Y91.329 E.00962
G1 X160.966 Y91.271 E.00955
G1 X161.235 Y91.261 E.00969
G1 X161.498 Y91.299 E.00962
G1 X161.831 Y91.422 E.01281
G1 X162.056 Y91.565 E.00962
G1 X162.251 Y91.746 E.00962
G1 X162.455 Y92.036 E.01281
G1 X162.559 Y92.281 E.00962
G1 X162.617 Y92.541 E.00962
G1 X162.628 Y92.808 E.00962
G1 X162.59 Y93.069 E.00955
G1 X162.466 Y93.404 E.01289
G1 X162.324 Y93.629 E.00962
G1 X162.143 Y93.825 E.00962
G1 X161.931 Y93.983 E.00955
G1 X161.607 Y94.133 E.01289
G1 X161.347 Y94.191 E.00962
G1 X161.08 Y94.201 E.00962
G1 X160.819 Y94.163 E.00955
G1 X160.484 Y94.04 E.01289
G1 X160.19 Y93.84 E.01281
G1 X160.006 Y93.648 E.00962
G1 X159.857 Y93.42 E.00983
G1 X159.756 Y93.18 E.00941
G1 X160.24 Y93.025 F42000
G1 F3300
G1 X160.202 Y92.855 E.0063
G1 X160.195 Y92.68 E.0063
G1 X160.22 Y92.508 E.0063
G1 X160.3 Y92.29 E.00839
G1 X160.394 Y92.142 E.0063
G1 X160.557 Y91.977 E.00839
G1 X160.703 Y91.881 E.0063
G1 X160.863 Y91.813 E.0063
G1 X161.031 Y91.775 E.0062
G1 X161.208 Y91.768 E.00639
G1 X161.381 Y91.793 E.0063
G1 X161.599 Y91.874 E.00839
G1 X161.746 Y91.967 E.0063
G1 X161.91 Y92.128 E.0083
G1 X162.007 Y92.276 E.0064
G1 X162.076 Y92.437 E.0063
G1 X162.114 Y92.607 E.0063
G1 X162.12 Y92.781 E.0063
G1 X162.096 Y92.951 E.00621
G1 X162.015 Y93.172 E.00848
G1 X161.921 Y93.319 E.0063
G1 X161.803 Y93.447 E.0063
G1 X161.665 Y93.55 E.0062
G1 X161.452 Y93.649 E.00849
G1 X161.224 Y93.692 E.00839
G1 X161.049 Y93.689 E.0063
G1 X160.873 Y93.652 E.00648
G1 X160.716 Y93.588 E.00611
G1 X160.569 Y93.494 E.0063
G1 X160.441 Y93.376 E.0063
G1 X160.338 Y93.238 E.0062
G1 X160.24 Y93.025 E.00848
G1 X160.723 Y92.87 F42000
G1 F3300
G1 X160.702 Y92.707 E.00594
G1 X160.752 Y92.522 E.00691
G1 X160.873 Y92.374 E.00691
G1 X161.018 Y92.297 E.00593
G1 X161.181 Y92.275 E.00593
G1 X161.366 Y92.325 E.00691
G1 X161.512 Y92.444 E.0068
G1 X161.592 Y92.592 E.00605
G1 X161.611 Y92.782 E.00691
G1 X161.563 Y92.939 E.00593
G1 X161.463 Y93.069 E.00593
G1 X161.297 Y93.165 E.00691
G1 X161.134 Y93.186 E.00593
G1 X160.949 Y93.136 E.00691
G1 X160.819 Y93.036 E.00593
G1 X160.723 Y92.87 E.00691
;WIPE_START
G1 X160.819 Y93.036 E-.0574
G1 X160.949 Y93.136 E-.04931
G1 X161.134 Y93.186 E-.05741
G1 X161.297 Y93.165 E-.04931
G1 X161.463 Y93.069 E-.05742
G1 X161.563 Y92.939 E-.04931
G1 X161.611 Y92.782 E-.04931
G1 X161.592 Y92.592 E-.05739
G1 X161.512 Y92.444 E-.05027
G1 X161.366 Y92.325 E-.05646
G1 X161.181 Y92.275 E-.05741
G1 X161.152 Y92.279 E-.00901
;WIPE_END
G1 Z.4 F42000
G1 X158.154 Y98.919 Z.4
G1 Z.2
G1 E.6 F2400
G1 F3300
G1 X158.681 Y98.996 E.01922
G1 X159.178 Y99.164 E.01895
G1 X159.483 Y99.321 E.01238
G1 X159.772 Y99.518 E.01264
G1 X160.157 Y99.874 E.01894
G1 X160.472 Y100.295 E.01897
G1 X160.705 Y100.765 E.01895
G1 X160.812 Y101.098 E.01264
G1 X160.878 Y101.442 E.01264
G1 X160.898 Y101.967 E.01895
G1 X160.824 Y102.486 E.01894
G1 X160.656 Y102.984 E.01897
G1 X160.398 Y103.449 E.01922
G1 X160.188 Y103.72 E.01238
G1 X159.943 Y103.97 E.01264
G1 X159.523 Y104.284 E.01894
G1 X159.214 Y104.45 E.01266
G1 X158.887 Y104.577 E.01264
G1 X158.375 Y104.691 E.01895
G1 X157.851 Y104.711 E.01895
G1 X157.331 Y104.636 E.01895
G1 X156.996 Y104.535 E.01264
G1 X156.676 Y104.394 E.01264
G1 X156.233 Y104.112 E.01895
G1 X155.847 Y103.755 E.01895
G1 X155.533 Y103.335 E.01895
G1 X155.299 Y102.865 E.01895
G1 X155.154 Y102.361 E.01895
G1 X155.109 Y102.013 E.01264
G1 X155.107 Y101.664 E.01263
G1 X155.181 Y101.144 E.01897
G1 X155.352 Y100.64 E.01922
G1 X155.509 Y100.335 E.01236
G1 X155.705 Y100.045 E.01266
G1 X156.062 Y99.66 E.01895
G1 X156.482 Y99.346 E.01895
G1 X156.952 Y99.112 E.01895
G1 X157.457 Y98.967 E.01895
G1 X157.812 Y98.922 E.01291
G1 X158.086 Y98.918 E.0099
G1 X155.559 Y102.283 F42000
G1 F3300
G1 X155.52 Y101.985 E.01085
G1 X155.518 Y101.686 E.01082
G1 X155.582 Y101.239 E.01629
G1 X155.728 Y100.806 E.01651
G1 X155.947 Y100.412 E.01626
G1 X156.127 Y100.18 E.0106
G1 X156.337 Y99.966 E.01085
G1 X156.698 Y99.696 E.01626
G1 X157.101 Y99.496 E.01626
G1 X157.534 Y99.371 E.01626
G1 X157.982 Y99.327 E.01626
G1 X158.43 Y99.364 E.01623
G1 X158.865 Y99.481 E.01626
G1 X159.141 Y99.603 E.01088
G1 X159.399 Y99.756 E.01085
G1 X159.637 Y99.939 E.01085
G1 X159.851 Y100.149 E.01082
G1 X160.121 Y100.511 E.01629
G1 X160.322 Y100.914 E.01626
G1 X160.446 Y101.347 E.01626
G1 X160.491 Y101.795 E.01626
G1 X160.475 Y102.095 E.01085
G1 X160.423 Y102.39 E.01082
G1 X160.28 Y102.818 E.01629
G1 X160.058 Y103.218 E.01651
G1 X159.878 Y103.45 E.0106
G1 X159.667 Y103.664 E.01085
G1 X159.308 Y103.934 E.01623
G1 X158.904 Y104.134 E.01629
G1 X158.471 Y104.259 E.01626
G1 X158.023 Y104.303 E.01626
G1 X157.574 Y104.266 E.01626
G1 X157.139 Y104.149 E.01626
G1 X156.864 Y104.028 E.01085
G1 X156.606 Y103.874 E.01085
G1 X156.257 Y103.589 E.01626
G1 X156.056 Y103.365 E.01085
G1 X155.883 Y103.119 E.01085
G1 X155.683 Y102.716 E.01626
G1 X155.559 Y102.283 E.01626
G1 X156.058 Y102.188 F42000
G1 F3300
G1 X156.027 Y101.951 E.00863
G1 X156.025 Y101.713 E.00858
G1 X156.076 Y101.357 E.01299
G1 X156.193 Y101.011 E.01317
G1 X156.368 Y100.698 E.01294
G1 X156.51 Y100.514 E.0084
G1 X156.677 Y100.344 E.00863
G1 X156.964 Y100.129 E.01294
G1 X157.285 Y99.969 E.01294
G1 X157.63 Y99.87 E.01294
G1 X157.987 Y99.835 E.01294
G1 X158.342 Y99.864 E.01289
G1 X158.688 Y99.957 E.01294
G1 X158.909 Y100.054 E.00869
G1 X159.114 Y100.176 E.00863
G1 X159.304 Y100.322 E.00863
G1 X159.473 Y100.489 E.00858
G1 X159.689 Y100.777 E.01299
G1 X159.848 Y101.098 E.01294
G1 X159.947 Y101.442 E.01294
G1 X159.983 Y101.799 E.01294
G1 X159.97 Y102.038 E.00863
G1 X159.929 Y102.272 E.00858
G1 X159.815 Y102.613 E.01299
G1 X159.637 Y102.932 E.01317
G1 X159.495 Y103.116 E.0084
G1 X159.327 Y103.287 E.00863
G1 X159.042 Y103.501 E.01289
G1 X158.72 Y103.661 E.01299
G1 X158.375 Y103.76 E.01294
G1 X158.018 Y103.795 E.01294
G1 X157.661 Y103.766 E.01294
G1 X157.315 Y103.672 E.01294
G1 X157.096 Y103.576 E.00863
G1 X156.891 Y103.454 E.00863
G1 X156.614 Y103.227 E.01294
G1 X156.454 Y103.049 E.00863
G1 X156.316 Y102.853 E.00863
G1 X156.157 Y102.532 E.01294
G1 X156.058 Y102.188 E.01294
G1 X156.557 Y102.092 F42000
G1 F3300
G1 X156.532 Y101.74 E.01274
G1 X156.57 Y101.474 E.00969
G1 X156.658 Y101.217 E.00983
G1 X156.788 Y100.984 E.00962
G1 X157.017 Y100.721 E.01261
G1 X157.231 Y100.561 E.00962
G1 X157.469 Y100.443 E.00962
G1 X157.725 Y100.369 E.00962
G1 X157.991 Y100.343 E.00962
G1 X158.254 Y100.365 E.00955
G1 X158.511 Y100.434 E.00962
G1 X158.829 Y100.597 E.01289
G1 X159.095 Y100.829 E.01274
G1 X159.256 Y101.043 E.0097
G1 X159.375 Y101.282 E.00962
G1 X159.448 Y101.538 E.00962
G1 X159.475 Y101.803 E.00962
G1 X159.435 Y102.154 E.01274
G1 X159.35 Y102.408 E.00969
G1 X159.217 Y102.646 E.00983
G1 X158.987 Y102.909 E.01261
G1 X158.776 Y103.068 E.00955
G1 X158.536 Y103.187 E.00969
G1 X158.279 Y103.261 E.00962
G1 X158.014 Y103.287 E.00962
G1 X157.749 Y103.265 E.00962
G1 X157.492 Y103.196 E.00962
G1 X157.176 Y103.033 E.01281
G1 X156.97 Y102.864 E.00962
G1 X156.749 Y102.587 E.01281
G1 X156.63 Y102.348 E.00962
G1 X156.557 Y102.092 E.00962
G1 X157.056 Y101.996 F42000
G1 F3300
G1 X157.04 Y101.767 E.00829
G1 X157.065 Y101.592 E.00639
G1 X157.122 Y101.422 E.00648
G1 X157.208 Y101.27 E.0063
G1 X157.357 Y101.099 E.0082
G1 X157.497 Y100.994 E.0063
G1 X157.653 Y100.917 E.0063
G1 X157.821 Y100.868 E.0063
G1 X157.995 Y100.851 E.0063
G1 X158.166 Y100.865 E.0062
G1 X158.335 Y100.91 E.0063
G1 X158.544 Y101.017 E.00848
G1 X158.679 Y101.128 E.0063
G1 X158.823 Y101.31 E.00839
G1 X158.901 Y101.466 E.0063
G1 X158.949 Y101.634 E.0063
G1 X158.966 Y101.807 E.0063
G1 X158.941 Y102.036 E.0083
G1 X158.885 Y102.204 E.00639
G1 X158.797 Y102.36 E.00649
G1 X158.647 Y102.531 E.00821
G1 X158.51 Y102.635 E.0062
G1 X158.352 Y102.714 E.00639
G1 X158.184 Y102.762 E.0063
G1 X158.01 Y102.779 E.0063
G1 X157.836 Y102.765 E.0063
G1 X157.668 Y102.719 E.0063
G1 X157.461 Y102.613 E.00839
G1 X157.326 Y102.502 E.0063
G1 X157.182 Y102.32 E.00839
G1 X157.104 Y102.164 E.0063
G1 X157.056 Y101.996 E.0063
G1 X157.555 Y101.901 F42000
G1 F3300
G1 X157.559 Y101.71 E.00691
G1 X157.628 Y101.555 E.0061
