; HEADER_BLOCK_START
; generated by OrcaSlicer 2.1.0 on 2024-12-11 at 19:46:26
; total layer number: 96
; filament_density: 1.27
; filament_diameter: 1.75
; max_z_height: 19.20
; HEADER_BLOCK_END

; THUMBNAIL_BLOCK_START

;
; THUMBNAIL_BLOCK_END

; THUMBNAIL_BLOCK_START

;
; THUMBNAIL_BLOCK_END

; external perimeters extrusion width = 0.42mm
; perimeters extrusion width = 0.45mm
; infill extrusion width = 0.45mm
; solid infill extrusion width = 0.42mm
; top infill extrusion width = 0.42mm
; support material extrusion width = 0.42mm
; first layer extrusion width = 0.50mm

; EXECUTABLE_BLOCK_START
EXCLUDE_OBJECT_DEFINE NAME=цепь_для_провода.stp_id_0_copy_0 CENTER=110,110 POLYGON=[[98.5,95.25],[121.5,95.25],[121.5,119],[121.494,119.258],[121.477,119.515],[121.448,119.772],[121.408,120.027],[121.356,120.279],[121.293,120.53],[121.219,120.777],[121.133,121.02],[121.037,121.26],[120.931,121.495],[120.813,121.725],[120.686,121.949],[120.549,122.168],[120.402,122.38],[120.246,122.585],[120.08,122.783],[119.906,122.974],[119.724,123.156],[119.533,123.33],[119.335,123.496],[119.13,123.652],[118.918,123.799],[118.699,123.936],[118.475,124.063],[118.245,124.181],[118.01,124.287],[117.77,124.383],[117.527,124.469],[117.28,124.543],[117.029,124.606],[116.777,124.658],[116.522,124.698],[116.265,124.727],[116.008,124.744],[115.75,124.75],[104.25,124.75],[103.992,124.744],[103.735,124.727],[103.478,124.698],[103.223,124.658],[102.971,124.606],[102.72,124.543],[102.473,124.469],[102.23,124.383],[101.99,124.287],[101.755,124.181],[101.525,124.063],[101.301,123.936],[101.082,123.799],[100.87,123.652],[100.665,123.496],[100.467,123.33],[100.276,123.156],[100.094,122.974],[99.9198,122.783],[99.7545,122.585],[99.5982,122.38],[99.4512,122.168],[99.3139,121.949],[99.1866,121.725],[99.0694,121.495],[98.9627,121.26],[98.8666,121.02],[98.7814,120.777],[98.7072,120.53],[98.6442,120.279],[98.5924,120.027],[98.552,119.772],[98.5231,119.515],[98.5058,119.258],[98.5,119],[98.5,95.25]]
M73 P0 R15
M106 S0
M106 P2 S0
;TYPE:Custom
M140 S0
M104 S0 
START_PRINT EXTRUDER_TEMP=250 BED_TEMP=80
G90
G21
M83 ; use relative distances for extrusion
; filament start gcode
M106 S0
M106 P2 S0
;LAYER_CHANGE
;Z:0.2
;HEIGHT:0.2
;BEFORE_LAYER_CHANGE
;0.2
G92 E0

G1 E-.6 F2400
;_SET_FAN_SPEED_CHANGING_LAYER
SET_VELOCITY_LIMIT ACCEL=500 ACCEL_TO_DECEL=250
SET_VELOCITY_LIMIT SQUARE_CORNER_VELOCITY=9
EXCLUDE_OBJECT_START NAME=цепь_для_провода.stp_id_0_copy_0
G1 Z.2 F42000
G1 X100.272 Y97.021
G1 Z.2
G1 E.6 F2400
;TYPE:Inner wall
;WIDTH:0.499999
G1 F3600
G1 X102.087 Y97.021 E.06622
G1 X101.982 Y97.247 E.00907
G1 X101.81 Y97.79 E.02078
G1 X101.735 Y98.354 E.02079
G1 X101.735 Y105.812 E.27211
G1 X101.868 Y106.419 E.02266
G1 X102.102 Y107.012 E.02327
G1 X102.409 Y107.492 E.02079
G1 X102.794 Y107.912 E.02079
G1 X103.247 Y108.258 E.02079
G1 X103.752 Y108.521 E.02079
G1 X104.457 Y108.726 E.02678
G1 X104.996 Y108.771 E.01976
G1 X115.158 Y108.771 E.37076
G1 X115.98 Y108.618 E.03051
G1 X116.566 Y108.364 E.0233
G1 X117.206 Y107.911 E.02859
G1 X117.591 Y107.492 E.02077
G1 X117.926 Y106.948 E.02332
G1 X118.19 Y106.21 E.02859
G1 X118.265 Y105.647 E.02072
G1 X118.271 Y98.362 E.26579
G1 X118.118 Y97.52 E.03125
G1 X117.907 Y97.021 E.01974
G1 X119.729 Y97.021 E.06646
G1 X119.729 Y116.556 E.71273
;WIDTH:0.523118
G1 X119.717 Y117.463 E.03477
;WIDTH:0.56786
G1 X119.695 Y117.55 E.0038
;WIDTH:0.612601
G1 X119.672 Y117.638 E.00412
;WIDTH:0.657343
G1 X119.65 Y117.726 E.00445
;WIDTH:0.702084
G1 X119.628 Y117.814 E.00477
G1 X119.643 Y118.18 E.01927
;WIDTH:0.672098
G1 X119.637 Y119.146 E.04851
;WIDTH:0.667597
G1 X119.576 Y119.696 E.02761
;WIDTH:0.672352
G1 X119.445 Y120.216 E.02692
G1 X119.171 Y120.857 E.03504
;WIDTH:0.667612
G1 X118.791 Y121.442 E.03482
;WIDTH:0.652544
G1 X118.314 Y121.955 E.03406
;WIDTH:0.627386
G1 X117.913 Y122.273 E.02389
;WIDTH:0.598675
G1 X117.461 Y122.552 E.02359
;WIDTH:0.568423
G1 X116.994 Y122.755 E.02134
;WIDTH:0.534261
G1 X116.361 Y122.934 E.02581
;WIDTH:0.485225
G1 X116.005 Y122.975 E.01266
;WIDTH:0.455599
G1 X115.648 Y123.016 E.01181
;WIDTH:0.425973
G1 X115.004 Y123.029 E.01972
;WIDTH:0.400222
G1 X104.634 Y123.029 E.29576
;WIDTH:0.435778
G1 X104.258 Y123.001 E.01181
;WIDTH:0.471333
G1 X103.883 Y122.974 E.01288
;WIDTH:0.498038
G1 X103.539 Y122.898 E.01279
;WIDTH:0.524742
G1 X103.195 Y122.822 E.01354
;WIDTH:0.556251
G1 X102.729 Y122.64 E.02049
;WIDTH:0.592516
G1 X102.224 Y122.368 E.0252
;WIDTH:0.619318
G1 X101.788 Y122.042 E.02504
;WIDTH:0.642524
G1 X101.361 Y121.624 E.02856
;WIDTH:0.664796
G1 X100.993 Y121.134 E.03048
;WIDTH:0.668858
G1 X100.634 Y120.433 E.03934
G1 X100.436 Y119.765 E.03481
;WIDTH:0.667039
G1 X100.354 Y119.076 E.03458
;WIDTH:0.658987
G1 X100.356 Y118.372 E.0346
;WIDTH:0.697768
G1 X100.375 Y117.848 E.02743
G1 X100.352 Y117.755 E.00501
;WIDTH:0.651446
G1 X100.329 Y117.662 E.00466
;WIDTH:0.605123
G1 X100.306 Y117.569 E.0043
;WIDTH:0.558801
G1 X100.283 Y117.476 E.00395
;WIDTH:0.512478
G1 X100.276 Y117.135 E.01277
;WIDTH:0.499999
G1 X100.272 Y97.061 E.73241
G1 X99.814 Y96.564 F42000
G1 F3600
G1 X102.934 Y96.564 E.11381
G1 X102.755 Y96.807 E.01098
G1 X102.495 Y97.222 E.01789
G1 X102.311 Y97.677 E.01788
G1 X102.192 Y98.354 E.02511
G1 X102.192 Y105.646 E.26605
G1 X102.314 Y106.32 E.02498
G1 X102.517 Y106.819 E.01965
G1 X102.783 Y107.23 E.01788
G1 X103.117 Y107.589 E.01788
G1 X103.509 Y107.884 E.01788
G1 X103.945 Y108.107 E.01788
G1 X104.471 Y108.264 E.02001
G1 X104.996 Y108.314 E.01927
G1 X115.114 Y108.314 E.36916
G1 X115.824 Y108.188 E.0263
G1 X116.321 Y107.979 E.01967
G1 X116.883 Y107.588 E.02497
G1 X117.217 Y107.23 E.01786
G1 X117.504 Y106.773 E.01969
G1 X117.74 Y106.131 E.02497
G1 X117.808 Y105.647 E.01783
G1 X117.814 Y98.496 E.26091
G1 X117.747 Y97.917 E.02127
G1 X117.589 Y97.403 E.01962
G1 X117.244 Y96.811 E.02499
G1 X117.035 Y96.564 E.01179
G1 X120.186 Y96.564 E.11495
G1 X120.186 Y118.959 E.8171
G1 X120.142 Y119.608 E.02374
G1 X120.04 Y120.108 E.0186
G1 X119.852 Y120.679 E.02196
G1 X119.635 Y121.134 E.01838
G1 X119.314 Y121.631 E.02159
G1 X118.929 Y122.09 E.02187
G1 X118.48 Y122.49 E.02193
G1 X117.994 Y122.823 E.0215
G1 X117.525 Y123.059 E.01914
G1 X116.93 Y123.275 E.02311
G1 X116.421 Y123.38 E.01895
G1 X115.722 Y123.436 E.02558
G1 X104.871 Y123.436 E.39593
G1 X104.188 Y123.432 E.02491
G1 X103.608 Y123.384 E.02125
G1 X103.04 Y123.265 E.02116
G1 X102.296 Y122.979 E.02907
G1 X101.808 Y122.696 E.02059
G1 X101.332 Y122.34 E.02169
G1 X100.964 Y121.972 E.019
G1 X100.529 Y121.41 E.0259
G1 X100.254 Y120.912 E.02077
G1 X100.032 Y120.37 E.02136
G1 X99.904 Y119.861 E.01916
G1 X99.82 Y119.199 E.02437
G1 X99.814 Y96.604 E.82439
G1 X99.357 Y96.107 F42000
G1 F3600
G1 X103.875 Y96.107 E.16482
;WIDTH:0.53461
G1 X104.063 Y96.124 E.00742
;WIDTH:0.56922
G1 X104.251 Y96.142 E.00794
;WIDTH:0.60383
G1 X104.439 Y96.159 E.00847
G1 X104.32 Y96.208 E.00577
;WIDTH:0.569609
G1 X104.009 Y96.373 E.01479
;WIDTH:0.534804
G1 X103.698 Y96.537 E.01381
;WIDTH:0.499999
G1 X103.377 Y96.793 E.01498
G1 X103.105 Y97.1 E.01498
G1 X102.891 Y97.451 E.01499
G1 X102.741 Y97.833 E.01498
G1 X102.649 Y98.354 E.01932
G1 X102.649 Y105.646 E.26604
G1 X102.76 Y106.221 E.02136
G1 X102.931 Y106.626 E.01603
G1 X103.158 Y106.968 E.01498
G1 X103.441 Y107.265 E.01498
G1 X103.771 Y107.509 E.01498
G1 X104.138 Y107.692 E.01498
G1 X104.519 Y107.805 E.01449
G1 X104.996 Y107.857 E.01749
G1 X115.004 Y107.857 E.36517
G1 X115.523 Y107.794 E.01908
G1 X115.941 Y107.659 E.01602
G1 X116.443 Y107.358 E.02137
G1 X116.765 Y107.059 E.01603
G1 X117.009 Y106.729 E.01498
G1 X117.248 Y106.194 E.02137
G1 X117.351 Y105.646 E.02035
G1 X117.357 Y98.496 E.26087
G1 X117.298 Y98.008 E.01796
G1 X117.159 Y97.559 E.01713
G1 X116.858 Y97.057 E.02137
G1 X116.559 Y96.735 E.01603
G1 X116.229 Y96.491 E.01498
G1 X115.862 Y96.308 E.01498
;WIDTH:0.531887
G1 X115.607 Y96.223 E.01045
;WIDTH:0.563774
G1 X115.353 Y96.139 E.01113
G1 X115.562 Y96.123 E.00869
;WIDTH:0.531887
G1 X115.77 Y96.107 E.00816
;WIDTH:0.499999
G1 X120.643 Y96.107 E.17778
G1 X120.643 Y118.694 E.82409
G1 X120.627 Y119.212 E.01894
G1 X120.583 Y119.737 E.01921
G1 X120.449 Y120.344 E.02266
G1 X120.269 Y120.868 E.02021
G1 X120.028 Y121.369 E.02029
G1 X119.684 Y121.9 E.02309
G1 X119.324 Y122.337 E.02068
G1 X118.924 Y122.72 E.02018
G1 X118.444 Y123.078 E.02184
G1 X117.921 Y123.382 E.0221
G1 X117.418 Y123.597 E.01994
G1 X116.922 Y123.745 E.01889
G1 X116.238 Y123.866 E.02535
G1 X115.732 Y123.893 E.01847
G1 X104.871 Y123.893 E.39631
G1 X104.168 Y123.888 E.02565
G1 X103.546 Y123.837 E.02275
G1 X103 Y123.728 E.02034
G1 X102.482 Y123.559 E.01987
G1 X101.948 Y123.311 E.02146
G1 X101.421 Y122.989 E.02254
G1 X100.99 Y122.645 E.02013
G1 X100.463 Y122.094 E.0278
G1 X100.137 Y121.645 E.02026
G1 X99.777 Y120.976 E.02771
G1 X99.582 Y120.455 E.0203
G1 X99.454 Y119.943 E.01925
G1 X99.363 Y119.219 E.02661
G1 X99.357 Y96.147 E.84182
G1 X98.9 Y95.65 F42000
;TYPE:Outer wall
G1 F3600
G1 X121.1 Y95.65 E.80999
M73 P1 R15
G1 X121.1 Y118.694 E.84077
G1 X121.083 Y119.243 E.02006
G1 X121.008 Y119.956 E.02615
G1 X120.89 Y120.465 E.01908
G1 X120.708 Y121 E.02063
G1 X120.495 Y121.464 E.01858
G1 X120.215 Y121.947 E.0204
G1 X119.881 Y122.395 E.02038
G1 X119.428 Y122.877 E.02412
G1 X119.049 Y123.204 E.01827
G1 X118.557 Y123.551 E.02196
G1 X118.071 Y123.82 E.02028
G1 X117.559 Y124.031 E.02021
G1 X117.024 Y124.191 E.02039
G1 X116.299 Y124.319 E.02684
G1 X115.743 Y124.35 E.02034
G1 X104.871 Y124.35 E.39668
G1 X104.147 Y124.345 E.0264
G1 X103.485 Y124.289 E.02424
G1 X102.898 Y124.173 E.02183
G1 X102.37 Y124.009 E.02017
G1 X101.863 Y123.784 E.02024
G1 X101.304 Y123.459 E.02358
G1 X100.896 Y123.161 E.01847
G1 X100.44 Y122.751 E.02235
G1 X100.067 Y122.335 E.02036
G1 X99.745 Y121.879 E.0204
G1 X99.485 Y121.422 E.0192
G1 X99.271 Y120.944 E.01909
G1 X99.079 Y120.351 E.02276
G1 X98.963 Y119.796 E.02067
G1 X98.906 Y119.24 E.0204
G1 X98.9 Y95.69 E.85925
;WIPE_START
G1 X100.9 Y95.686 E-.6
;WIPE_END
G1 Z.4 F42000
G1 X103.127 Y98.235 Z.4
G1 Z.2
G1 E.6 F2400
G1 F3600
G1 X103.171 Y97.989 E.0091
G1 X103.287 Y97.679 E.01208
G1 X103.456 Y97.394 E.01209
G1 X103.671 Y97.143 E.01208
G1 X103.927 Y96.933 E.01208
G1 X104.215 Y96.77 E.01208
G1 X104.537 Y96.659 E.01241
G1 X104.996 Y96.6 E.01688
G1 X115.004 Y96.6 E.36517
G1 X115.349 Y96.633 E.01266
G1 X115.668 Y96.722 E.01208
G1 X115.967 Y96.865 E.01208
G1 X116.236 Y97.058 E.01208
G1 X116.473 Y97.302 E.01242
G1 X116.73 Y97.715 E.01775
G1 X116.845 Y98.068 E.01352
G1 X116.9 Y98.496 E.01576
G1 X116.894 Y105.646 E.26087
G1 X116.826 Y106.02 E.01386
G1 X116.635 Y106.467 E.01775
G1 X116.442 Y106.736 E.01208
G1 X116.198 Y106.973 E.01242
G1 X115.785 Y107.23 E.01775
G1 X115.463 Y107.341 E.01241
G1 X115.019 Y107.4 E.01634
G1 X104.996 Y107.4 E.36569
G1 X104.638 Y107.364 E.01316
G1 X104.332 Y107.278 E.01159
G1 X104.033 Y107.135 E.01208
G1 X103.764 Y106.942 E.01208
G1 X103.532 Y106.706 E.01208
G1 X103.345 Y106.432 E.01208
G1 X103.206 Y106.122 E.01242
G1 X103.106 Y105.646 E.01775
G1 X103.106 Y98.354 E.26604
G1 X103.12 Y98.274 E.00296
;WIPE_START
G1 X103.171 Y97.989 E-.08685
G1 X103.287 Y97.679 E-.0993
G1 X103.456 Y97.394 E-.09937
G1 X103.671 Y97.143 E-.09932
G1 X103.927 Y96.933 E-.09933
G1 X104.215 Y96.77 E-.09933
G1 X104.267 Y96.752 E-.0165
;WIPE_END
G1 Z.4 F42000
G1 X104.439 Y96.159 Z.4
G1 Z.2
G1 E.6 F2400
;TYPE:Inner wall
;WIDTH:0.60383
G1 F3600
G1 X104.718 Y96.142 E.01248
;WIDTH:0.569836
G1 X104.996 Y96.125 E.01172
;WIDTH:0.535842
G1 X115.004 Y96.125 E.3938
;WIDTH:0.563774
G1 X115.353 Y96.139 E.01452
;WIPE_START
G1 X115.004 Y96.125 E-.10479
G1 X113.353 Y96.125 E-.49521
;WIPE_END
G1 Z.4 F42000
G1 X104.814 Y122.659 Z.4
G1 Z.2
G1 E.6 F2400
;WIDTH:0.431999
G1 F3600
G1 X104.332 Y122.628 E.01498
;WIDTH:0.458172
G1 X104.043 Y122.567 E.00981
;WIDTH:0.484344
G1 X103.753 Y122.506 E.01043
;WIDTH:0.524742
G1 X103.37 Y122.375 E.01559
;WIDTH:0.568421
G1 X102.797 Y122.096 E.02672
;WIDTH:0.608035
G1 X102.301 Y121.737 E.02762
;WIDTH:0.642991
G1 X101.868 Y121.291 E.02977
;WIDTH:0.664796
G1 X101.531 Y120.822 E.02868
;WIDTH:0.66851
G1 X101.25 Y120.293 E.02992
G1 X101.083 Y119.798 E.02608
;WIDTH:0.667154
G1 X100.971 Y119.155 E.03253
;WIDTH:0.657277
G1 X100.957 Y118.724 E.02113
;WIDTH:0.697768
G1 X101.027 Y117.896 E.04345
G1 X101.067 Y117.828 E.0041
;WIDTH:0.651446
G1 X101.107 Y117.761 E.00381
;WIDTH:0.605123
G1 X101.147 Y117.693 E.00352
;WIDTH:0.558801
G1 X101.187 Y117.626 E.00323
;WIDTH:0.512478
G1 X101.422 Y117.04 E.02365
;WIDTH:0.499999
G1 X101.676 Y116.587 E.01894
G1 X102.063 Y116.081 E.02325
G1 X102.668 Y115.542 E.02956
G1 X103.21 Y115.208 E.02324
G1 X103.967 Y114.921 E.02953
G1 X104.638 Y114.809 E.0248
G1 X104.996 Y114.779 E.01314
G1 X115.004 Y114.779 E.36513
G1 X115.582 Y114.822 E.02115
G1 X116.249 Y114.986 E.02507
G1 X117.039 Y115.349 E.03172
G1 X117.73 Y115.874 E.03167
G1 X118.291 Y116.537 E.03166
G1 X118.693 Y117.305 E.03164
;WIDTH:0.540416
G1 X118.75 Y117.423 E.00522
;WIDTH:0.580833
G1 X118.807 Y117.542 E.00564
;WIDTH:0.62125
G1 X118.865 Y117.66 E.00607
;WIDTH:0.661667
G1 X118.922 Y117.779 E.00649
;WIDTH:0.702084
G1 X118.979 Y117.897 E.00692
G1 X119.042 Y118.716 E.04321
;WIDTH:0.669929
G1 X118.982 Y119.457 E.03724
;WIDTH:0.672352
G1 X118.853 Y120.003 E.0282
G1 X118.625 Y120.554 E.02993
;WIDTH:0.667612
G1 X118.313 Y121.064 E.02984
;WIDTH:0.652544
G1 X117.922 Y121.524 E.02937
;WIDTH:0.627386
G1 X117.457 Y121.921 E.02851
;WIDTH:0.592513
G1 X116.926 Y122.244 E.02725
;WIDTH:0.548432
G1 X116.633 Y122.362 E.01278
;WIDTH:0.522108
G1 X116.339 Y122.481 E.01211
;WIDTH:0.495783
G1 X116.013 Y122.553 E.01209
;WIDTH:0.464595
G1 X115.686 Y122.625 E.01126
;WIDTH:0.433406
G1 X115.077 Y122.671 E.01902
;WIDTH:0.400222
G1 X104.996 Y122.671 E.28752
;WIDTH:0.431999
G1 X104.854 Y122.662 E.00445
G1 X104.822 Y122.249 F42000
;WIDTH:0.499999
G1 F3600
G1 X104.421 Y122.214 E.0147
G1 X103.866 Y122.071 E.02091
G1 X103.288 Y121.805 E.02321
G1 X102.851 Y121.522 E.01901
G1 X102.478 Y121.18 E.01848
G1 X102.127 Y120.773 E.01958
G1 X101.844 Y120.278 E.02084
G1 X101.624 Y119.719 E.0219
G1 X101.518 Y119.21 E.01897
G1 X101.488 Y118.705 E.01846
G1 X101.577 Y117.977 E.02674
G1 X101.736 Y117.453 E.01998
G1 X102.075 Y116.811 E.02649
G1 X102.414 Y116.373 E.02021
G1 X102.961 Y115.894 E.02653
G1 X103.434 Y115.606 E.0202
G1 X104.115 Y115.354 E.0265
G1 X104.688 Y115.263 E.02117
G1 X104.996 Y115.236 E.01131
G1 X115.004 Y115.236 E.36512
G1 X115.513 Y115.274 E.01862
G1 X116.134 Y115.429 E.02337
G1 X116.83 Y115.755 E.02806
G1 X117.438 Y116.225 E.02803
G1 X117.929 Y116.816 E.02802
G1 X118.279 Y117.499 E.028
G1 X118.439 Y118.037 E.02048
G1 X118.51 Y118.754 E.02629
G1 X118.445 Y119.378 E.02289
G1 X118.339 Y119.828 E.01686
G1 X118.144 Y120.307 E.01885
G1 X117.879 Y120.754 E.01897
G1 X117.547 Y121.162 E.01921
G1 X117.149 Y121.522 E.01957
G1 X116.691 Y121.824 E.02003
G1 X116.177 Y122.056 E.02058
G1 X115.594 Y122.212 E.02201
G1 X115.056 Y122.264 E.01972
G1 X104.996 Y122.264 E.36702
G1 X104.862 Y122.253 E.00492
G1 X104.86 Y121.795 F42000
G1 F3600
G1 X104.488 Y121.761 E.01363
G1 X103.981 Y121.629 E.01912
G1 X103.497 Y121.399 E.01955
G1 X102.999 Y121.059 E.022
G1 X102.602 Y120.633 E.02125
G1 X102.242 Y120.054 E.02488
G1 X102.057 Y119.571 E.01886
G1 X101.959 Y119.066 E.01879
G1 X101.945 Y118.688 E.01377
G1 X102.029 Y118.044 E.0237
G1 X102.219 Y117.487 E.02148
G1 X102.473 Y117.035 E.01894
G1 X102.854 Y116.577 E.02171
G1 X103.253 Y116.245 E.01895
G1 X103.772 Y115.954 E.0217
G1 X104.262 Y115.786 E.01893
G1 X104.952 Y115.693 E.02538
G1 X115.004 Y115.693 E.36675
G1 X115.512 Y115.739 E.01863
G1 X116.019 Y115.871 E.01912
G1 X116.621 Y116.162 E.0244
G1 X117.146 Y116.577 E.0244
G1 X117.567 Y117.096 E.02438
G1 X117.865 Y117.693 E.02437
G1 X118.017 Y118.275 E.02193
G1 X118.054 Y118.787 E.01874
G1 X117.993 Y119.312 E.01927
G1 X117.832 Y119.899 E.02222
G1 X117.582 Y120.384 E.01992
G1 X117.218 Y120.845 E.02143
G1 X116.728 Y121.271 E.02368
G1 X116.279 Y121.526 E.01883
G1 X115.832 Y121.69 E.01737
G1 X115.396 Y121.78 E.01627
G1 X115.004 Y121.807 E.01434
G1 X104.996 Y121.807 E.36512
G1 X104.9 Y121.798 E.00355
G1 X104.901 Y121.342 F42000
;TYPE:Outer wall
G1 F3600
